pub   rsa4096 2013-02-17 [SC]
      F9288B8C39306F93F17760E301BEFCD5AC2E7E5B
uid                      Sumit Semwal <sumit.semwal@linaro.org>
sub   rsa4096 2013-02-17 [E]
      3B53CE077ED39163CA481445BEF582D4ED5489F5
sub   ed25519 2018-04-18 [S]
      9BCE4B654C8DDBE0DDA30A2858A65D873CD42961

-----BEGIN PGP PUBLIC KEY BLOCK-----

mQINBFEhAggBEAD2UxwVDqsqud2IJwRVWRgbN7+6EMSje0A7UfSW5aoZ7YyJ1wyf
lrJ6/cPQ6btp079SNFABRRDZIBzq5Vc2HuuWdSxYp2TcxfrefIyZkIc1GpGhiXkI
XQ1gCvD2cT/QJVVSbTfSZFNbVJxscKcIkIlsPE9K/pLRUT0VJBwG62qSQWE8wRIf
59jcrhezIJdlWudK+3wcGNEV/b6McG6k4W5EfRHf5OVKHC7u10aBgEYfNSpTEs1u
xmKzHPaFNc6vf8BQP/NyPqDzi/e2Iu7QiMUWePvMfHjKiopLkhSAOXLCq9zUHi6o
jN77xA8py8o5yl2WVC6eqsMpuRWZWzDqsPdgTbrZ5KGw8cZ7050kB08UzSga1fA0
v/dcnaVacNgQIksPL9nFqZKZctcOuM5uMm44Ip/AqGg1ZASRmtRu8kpXBquBrREs
qbg1zLKilmMB7jGkmzLi7EKiZ4/+FJMpZzTYVji3GZXQSn2CjeGip0QuNzcawA1C
IyQdhn47Zq/d1oz1RsAi5LdpGND2wXFNV92K8DGq4Jj0x/jnt17+t8+Gr7fpIhwP
boek1lJa0yoljJRfUVk/mGP5PLs8JudslVp+NwXrey0z9nJ1AE3eG7E7OmmakXr6
AfNJv4MeoGqpAzWkEKevJx+KU5Nkp90VUtn6whnYlegPkDHg6qYNhjD+eQARAQAB
tCZTdW1pdCBTZW13YWwgPHN1bWl0LnNlbXdhbEBsaW5hcm8ub3JnPokCHAQQAQIA
BgUCUSG77QAKCRDSuRw8roESHBOKEADDgo/ft52wo3VVUbKKbaXF3g9YB6UE95Se
IAYF6/OB4t3fAHlrt/0OiSCf8j8Vo3JXWb73F9luWp4FhR3FVjXh3SmptwBZVmTu
C8JYwyIb3tex6Mujyt7nI2e6uP/d+zvm+oEMse8LvHvZciNG9bOSsAWn9T1vWHFD
1ssVnoFEqZGk4YAcz0JF8qDrx0OHoVvYvUjmr8+mGVePdPtdqBiJ5pLnfOuedxBM
vnUG6d1JyHM/45kivqF7lA3p5WK7JXhk91tVftDKvFcE2EyfS3/px4XUQbCIgAjT
aUHOn+hqs1jeCFIqgYbWxSQ82lmZgXYe7zF2btuzzPfqSPb898lA8ZZr8aE5ENH1
gQdKG8+NVbQiCAs3OwCRBhZ/OZV+sAiFyOpGhvN7YMyNMLvCfMJZAYlBwFor4Yo8
k1kkfccPNspLr2bwiSH0XDz8X1IGFZs8Dl8Ao2V4pQoInIqJIrCCheiCi7OIOrHa
ff+ujwZRc9QqrxPXZnt2FZWnxNXP2n/9Zilru1dhEIuxghTS5tHiAfauXxWIJ82Q
Wk/KIREvkJPDnGrSCn6NK+fexM3b8ABdc2exUDycE2EHDSm7K+4Ioret457vfpzR
gfQr6HsdZ5zDXsqJEsgt6IUyKMFmuPuLrDRU38qehWmFoJmFVisI8lB4xdvEphXw
o4uxG0Av1YkCHAQQAQIABgUCUSG9zAAKCRBybBznQaeXP8iMD/9fmn9gHTejDMEt
U6Lj2HiDWjvTzVjMtjh+USFo3juh90SdJMz8OyCHAvS5z48VKIyfTSdZHhm3xXjh
zH4tsznZx785+SqYwN+GktVSyxLihKg+3qa66bYyWamyS5dYQkM51ZTrzcdEZlpn
1MEWjHp3MvDIZvxuMXV2KFR6bATwOjZHpFZMUu/mhk/S0xgAx1QjGctCZh0a7jjI
bjB0PhyLMK5fyNbe16VCUje4hCe1vCuKq6Eekkx1pNOcL7i6QmkN/0zDt8pn3wAu
4ob7cGTv0FyNxuxaPrQPCyeMOC9UKLOfhClchD1Px4XVfENlpoBem6s8wmzJzKz4
AGktqP1giwM4VNB8Hw9vrbPHmr8GGibnxRRCwzUcOV/xS141j+RYyK3jFMYjAqx9
DhQbfV5Oz4PwOPi+51z5uHHIgI98Y/Gh3CBmYotBE5urzqLMLYallkvj1mioZYTr
gHZaDu4+3in/kOPnEK003vsgXLfnbgRwdQoyVhtTTsLF+DXm/j6qSD/qeBxY+qk1
GngAtZNbuhQhXCzGNsVi7SRcOrmKsGjvJ7NDj7aU0m00tJeIF6LsoFPtlrbR6cti
g7WSb46C+gq0pQQgN9XTfjb06Rjg+71n4gpZgvF5lWAWDIHDewOZr2mZ/hYj4y55
VCKakwKtSpAZDGz9DnjDUJoAM/E1yIkCHAQQAQIABgUCUSHECgAKCRB8FAcPJSOD
R2pCD/47+JBpi9rpQlsYp1MIhAlad+dZhvdGzGtz1RU7fURlVgD3Kxf7satg7x/o
AESLdjh02gTFb8071lA8gJelUSqznXLDv5xHLnqEO8VoEfU6ajxkmCBE9jen06qT
Q0V8ItOSLwrtpnb/7AwLk3mYMJRpURNqQPsUDvS2uxJms78mYWP0zspFhRNAlrVP
4rFFssyDkoRHACrzZSUjoKY4xy4mVn+uo7CCkcVlmsvozot/EnIAh2ZUNNYar7TH
EPqwPKmnE9ZoF13xGW+myZug1fwxe3+SaJoNCg727x+crpsdCX+kvucTYK9njaF5
j/3tLFBdg3hxcsP4gAHUB+BmyvqHow/WdIqnoXmpD65AXaf5yUIb3EA5YQJmTy8J
ARQVJ0uKGt9vlVtVcnWv3ylIZPfkLmfq6fC9opcIidr4F47+98ecvkHKxuqB7FPI
yqG0yTbWLBMzOuUIFH1qfBxjbhi1sO3JkNvqUCpSyi7cPRz69K6QnIJZKnx8lHEW
4fYj+lv+JnpQncs8ycBze6UYl0KqjA7ppM5PemOQwgqNJ4VwSbr4utnkD9vhhtDe
tuLzz/G221W/VKrYlZkMldnfvtXjv8x0M9la/YDs2/g20R33QxsjRqvjEpHygQXk
wm77X/gYjuDrUWwOTdG9vBarHZGMDZjTQ3UYmvhkdDwVQHbQxIkCHAQQAQIABgUC
USNC4gAKCRD6PaqMvJYe9SWGEACw3qWuKwrm8OT/TjWy4y92q13FZXRWIOPwmVyp
mMj46EoJ2jEITwTnR+XAKOWEEJ4MB/Nz2Gpxyw/cRk4+2LiWFqSMlaQMwKNyyDQR
w/1ZIeh5LX8y6lMZX+LyC60XmADfn9bBNnTxDDT2/OV7qtLMBTIWefStnxkklMgm
IobsLSY5g20mp1qRDo56reEX8d3J90Pu+5OCQiF9hfG92T6k073dMIxckSB12xfn
5iQQ+2wPYDSPVZmu3PlWrol2AkFMskLCX+K5a7Vzyp1oTdFXphA02cn8ZrL7VnrL
XjjVJWXOZgbZ3vjN/8K7TcdAb2UFxqnic/skYbf4owRu8CExRgMDwO+hzoIYb6Rr
xSaJKwsmkkcu7AXjgAVrsua31z3Q9r2BFfjFHRHLNBxtj7M88MrEe6r/dGwhNWri
rr/ALbCK4vjql9qsS0yo0bpRQ5dt3OSg5HX5lh7p2KrTEPd5BxqHIbvxY/hxgn8G
Kw9ZlMA4xYjq1GVqV8RRJj2+knRvsNTg1k21eTDD6MSw0qTsXsNldGMPT7a7GoIX
S/tRgHLbDSmYo/tNlfi6UZfSRWoKBWaoywbVH8XwUdnrLznhLTJ0Asc8QvMsxxOv
pNB86zcZeaqT5MaO6xjTZeI6wEKsqA0UFMYsQMBEJQgHXMLEUiFTRfuR2dv52w3u
WCBkh4kCHAQQAQIABgUCUSNDZwAKCRDK+r0xeVAaESu6D/4nBekOVm1jzpyQn3VO
nFoWHcjDMKxiIOpFu/UeV7KAY+6jhQeWokUiA4CQnW0vaWXVcIkOMDUr64PfXb/d
XyAbOhcuEfR7eXXCZ9E7ahpFi6grEaIGq1Tiu9tLxH709XUd+yP9v93R8yMLzLkm
LLLgIOpU6MzUVgjXvd77GIaxFheBeZvawgYq5ytNgE+q0akJqa1Wb8OPxXI1x+Rj
oyPaz5ruXRMwnlbVEsWCnINcF9lSbIeHru8WoN7Je0tPJCVnYSRTx0MKD0BQGXNf
DPmQKIPcK14cmqLHjpyODxZP1CCXz2FA/q35vzRThsWpqO8Ww+w/Tqjw2FFFqXtv
zUxAek8CgYbUeiAuQdJ78/EU6HOksQ7u5SXNdXpMKzqkXeIHb/4j25vL/wCxNNYW
WPy6l4O+1a5jDXQj7BXY2NvVSWSUhBlc9xt9JbPWMZj/B1DmH3TqX/mGZxrhkV3U
79BAEZ3FQwr0CbUoBU/qc67shKAO0oqbD6hUAJJm3oTxUv1NpZvl1Bz+ZfMDVuls
p8FvgIjCnoQ3ohTd89ZUvkSnRqrGvptx6TCeeD2Ow5wqBFBFTvBsJ4Vcb4Mnu74o
E+b5R6NqigBjSyuSEVDYzCEy/FkJuhjdABu92+Dca8twAzlGqCaQJeeMZqbZZBe3
VgDYekVVlAvY0psopRlQ2irBZokCHAQQAQIABgUCUSNHkwAKCRAOXHhcgE2C2cMF
D/0ctSUyF9sWFaCcphtXedNmyRS+9fbEUuf/jnOsRAHB0EbSIo2W2APJ47O86TZI
jk8Xmv+doug0Y5CilDXI2rzEm+vE+cOwLKoBDJMgx83K4Jau6qqle4dlm+E3P79f
uOVUl5K1nr0XdsgeilixlKFog7Xymugk4aHu/r1Uex60rO6bjyK7NCGtpc89xIpH
lrv3htZDJeE36qTdJTBTZ56Q6iBsxgtRgTqWAeocVTRNuQ+6AqYjNo4sD/pb5U/g
CdOY9BSgOqKHYm/THvlWSitDX1Xi6doUF1BpHN5JzGMDL+wieVNnM5Wnf3eWjgGB
E4p9GaD0wQadb0v1YU6SKzsJVgTuj8IniXqPufh5gYBgZtrij8QxT6w4SYeVzyYP
zFdP8wk83opqhQyNfBTiLKfk9n7L/xHQ8tkg7BsrLEFPO/6mMJqAHpgmrhhRUmUv
Kbq89H7l0B8ElezfKVm2PNg1Zei4FwprCeO+lJTrZOkyEhWR3HM0qsjhuWJWDEu9
lEKSmSZfKsXaBrFW6Xr5XAUwIqFlXoK5SqLawBWFrBhouaOB+9PBpsrjeQnGXnfe
Gpdw2iu97d1UpaaNw6dbh+KrB9AADoQJjtxNagLc2hd9qZqQOjt5wbzsqE/syR9g
x8BgrRHRUXS080WFoTJdLai0/JLr1unjQTK/wkA6kjUMUIkCOAQTAQIAIgUCUSEC
CAIbAwYLCQgHAwIGFQgCCQoLBBYCAwECHgECF4AACgkQAb781awuflvR+A/+J9XU
1K5nHYMPpiXNEfcWp68nVymqrnpD3RQwJj0AX+YHp2JI9OeypiimC/32QJIwDx8R
RYD83/2YLq4uh46xu0V69HOtjpqYDiCIbqmEpBEQ+LR8pidFDp0QtV0bETvhvp88
N1WK0xt2yAKyEzIZKcPX2DIfVxBBOvcePgtgnbdr6luGt0VYavjUdv2NQi9fRz7N
PCLeW85foDfHxduXTfESXK17SCYtqwGlrYaRv0BZBC8bLERnzavEZFyyrur/QBG/
WZWuKyiOUkiBuStrM5lq3f5kW3E2zmxsbwy9QbewUptaDMm3kpEz6M6IVvwsubqD
3Ae7MJE9BNkfru4AaO3Slbk9EaGe7KOZgLSj9g3GsjrmFyScxLG5a7RGXMkRGxcP
FbmFJMMS0KJSAMhV1dAzUltiZk/KxXRC1p6QasVejp+7N6uZlcERM7F+PM1myj+c
0q1cZwJL390b43O9k601U36E1B8gyPxQP1OSSSIcpvPXVSg6okKTylx8HkG1BosO
lPT8xJviYbx6o4KMTXfRjWdnhYxjSBrl3DQzCpnBQLYgJctYk+vd2aCV4ad+OTPR
wf0ymuTyVZAe6yL+Wvs6JKtbUOqH2rBLR9e+hm83nGl0y+UeMLpjfET70dUfj+XZ
CF2PzR0FGlCBtcd61jMwVNBLX19BSune/JLqnK65Ag0EUSECCAEQANDfXmsefZQY
DW5aZUE1BZJMizHj0yQGc5CHzieyyYnB7puP2OMR5RmONe6woTLxLjxyTpnJZNej
kdYI4x9f2wRJR/izYZWyUrluE0uVrCdPmbiZxzDGhRYFNRtCcidMBwfWtUKrjvW1
HqFKvi1qY9wyAq50V+dNREggh/BgmgpfHbZqhimucLbWo5crLJTYLFDaisV2uuS6
6Ewt8jPNSdappUhOpU3CV2KPH7BUgozzdfsUoGO3dmY/dPjrJJ/Frbb90ZglKStr
kKIBDzrLVsdd+l++Q2O146NScW9t9lJmjouvvAWu/JBR0ysLlrPOFVwySDQi13GH
H2iixeVAGY5Ky3JKGp+kCulJDWCkJVZBH/N0WQfe0xj4amsQ2qdu2qhT1nZcYXb4
j8Kw2GU2cK3y/dcyuOm3C7M/oV6L1ljqrXh3WHb/7nwLJZ4UKvqcqpZS1VhpC97U
dz510zC5m+j79itAvOrIZnBtVSVXDHb1efzSWSWS5rsUtFmVBOA60nmjd2ianmAp
h/j8SlExJ7wPYQKJX5GR52N80NG5XvPkkshEnTK43pEPe8UT3vx3SjeYNOhAcPlz
8tkT+n4bO6kgzce4CgPafalHNbuTJxkOwl6M2HfJKIQFnq8Xs3jxyyjmNa9Aupj9
X1Xv+py9F9lHi/tZfNsdxJdqp7QJc5BXABEBAAGJAh8EGAECAAkFAlEhAggCGwwA
CgkQAb781awuflv0GA/+IWMioQrgOEE9OAN/rtQTEImOSNVPkr6XFflDmbFO9AGy
55lTx9U/snZc8D2qVxlDxBZIzC/BD6NXXscPfWey0xkazy+A+D5+m/Q6wI/WjtlV
hP4Zl9jKdTPvHU29B36NBPkjXGcE2OGAlBLygUNl5sBzqSG4u1E6zmhRaX1EA224
GxIrnWJCgS+cdPi6DN40Q6GqIDQ9Z0ccjBecI2C/Z3klQug1glZzRoJfxUNXa6p5
S8k7mInyjjCAKQ94EF9GjzMIQ4tyzTVHedSNfzgsMb2Wkqm+a7oIjph/trty+JLg
HCa19BCEdcfOvf/07a1TIkzwdM9C9d81TUReeOh3aBd13wckM3Sfm9/875MuUELu
eNZqTSAUuFfm/+uHKem6OlFVCUxh4ulqNgQb38qrUHC3D37tb+xEC31Kz6J1e2ZX
ykiY2Gjb4Sc/DOCeP3MkkZ4XMp5AsFDi/HOaC3h/gzaFKRX+0VoEcg55d8qlKfYA
bjkER7kcDFvMCA0TNTmcRx9dyAM0O8fBWFN3y3nXBU02aFMqnf+of75roNCowCaK
2z29Y7pdkAPIkz9L/c89q153c64OWJNJs13vpQuKYMqWjrPLjlTdy4Ly/8BaPeQp
Ew58Yc6u5fnV/DUndKL116XTreVfBdtMEVbrXgd5bNMS4Bi14l5nSkVIgSznlcm4
MwRa115AFgkrBgEEAdpHDwEBB0AelYjOkjJgyeXFtjTj/4BUWIHASe8UnM5mVJs7
H/uWUIkCrQQYAQgAIBYhBPkoi4w5MG+T8Xdg4wG+/NWsLn5bBQJa115AAhsCAIEJ
EAG+/NWsLn5bdiAEGRYIAB0WIQSbzktlTI3b4N2jCihYpl2HPNQpYQUCWtdeQAAK
CRBYpl2HPNQpYaJqAQDdKBMAhlcsnNnDlfuZ6vfVbDoyf4v5RFrGJBkFS4I1fgD/
e9ERfxF2VAqswMt7JLoSKQGGd0Vl8SpeG5sB1vV68witQRAA2cQ4ESu2uLpDenV4
1pXAo84Ol3dgGj08OiNjEDDrnhmkKG2ej7q0uztuuncGV1kJhmiLZyHdVMAEj3P9
j+tQ4ZbwilSRYB/F2GbAfLg4eYrbWcssAUF06EALMkzPlTlg2A9zTOK8My3tmFt4
3JwQC1D05yjewQUGawNRUFHkbEJn3yNXXS6738jYjbGBCt1T4MydVAyudGKKdIsd
xXRsMJhxmsXAkuhArr5+mAQv1C+KYY1JI0tEhnaN6mwgP8ZIMgZXkXe8JQ7QonM7
UXNHFa827PCNbqktn35EeWlL2XmdLBc5ssJJwAE8r2XwS07Eei2+tiqdhLk5Vn6T
bXiyGAeXvrCd9l5ucPaAkWXks49KHVAJbGcmBcJMwCOry8qCkzdVFRUJnepeuFl7
6aa3kUuV7ZrQfzu3cKm6m85dobXt/BWq9NGPqSsJIs/DpJY3EiJzwujm+ZhDKU77
KiC1VpY8RxTiNA8AEFFlnIhCylePbP5xfIo6yTEphF2+EdosOwzxImmi1jTdhEAo
8eb+fcNhtNKOkiLJlij6rXnHSMB0fa4wrafBmnLUeidq9gNUubuEfYEkf8IbAvr9
oiU4MXrUWiWwDJ9k5OrkFAYjG2j0ANVmDliw8fuA6QsPJVzpQhL1m/7W/QWzEfOQ
dblVpS4GB7E7voJt10pV7FLkxmM=
=hUKq
-----END PGP PUBLIC KEY BLOCK-----
