pub   rsa4096 2020-05-20 [SC]
      CCE96DF2690FFAD6DE898CB902862BC3F2E2267A
uid                      Huacai Chen (Loongson's Linux Kernel Maintainer) <chenhuacai@kernel.org>
uid                      Huacai Chen (Loongson's Linux Kernel Maintainer) <chenhc@lemote.com>
uid                      Huacai Chen (Loongson's Linux Kernel Maintainer) <chenhuacai@gmail.com>
sub   rsa4096 2020-05-20 [E]
      A868546431F0AAECA2274B60FB5266794DCDAB99

-----BEGIN PGP PUBLIC KEY BLOCK-----

mQINBF7EijwBEACyUAJHSd0HKc/T5sdnqHYlLFE3IlhyPg1ssPt4vJ8yJSfDjsod
oRMUaX1TZ5t0RUpMfLsfy2uF2r77gooTadquAxMQnZnAZu+JGhiD9HmRTmhLplnS
EJ86llvTpSYQ/9QxqIwN0Fy8EDtTxj89Hx2J7F8a8kJbC5olRwKyN+Z9lUSDQdrn
qGZbDb/FMIgDfOEN9GTcU/wfC4bEfrfN+c2XGROwluc8J9Blcr966JZbUZDcebSj
0l+3aM+6pFM4Wo4Ducr9AZiopWZI82jzMxmCcv8ZXyUdwAyRtnOncQrmCQaiWa9m
FVxS82ygPIC23Q9SPFEB6j1r3+0dDARhqr5mI70I2feku00UhE6AvyMpvC2ymUhX
djwHcyp8U9dRz4OftxJ+fEJGV17O2qtkdHh+58AakH4yLiPxR4XGi4SBU90dX3Cs
Moq0IlygmumX6JQZvNEzXfzq8nEwU73/YcxosFWhDm55X09oAjSn0c3x2Nkeu6V4
yE/5zjIphCRNxj5SRPv3Zpo1lSI7hDcwST3bpNnO2GlFtg+V1E1u7/gvflmQpf6u
gQLNKkg1eoIrIN3RSrKD4e+OcROpZZOBlxe4HJFGkw9R1hThAqK+R/yyJeESL56x
ENm8iHxNiI4UaByTuIwhJcw3vgElU2KQqhURmDvQUZrBX7LPEueC/IwMXwARAQAB
tERIdWFjYWkgQ2hlbiAoTG9vbmdzb24ncyBMaW51eCBLZXJuZWwgTWFpbnRhaW5l
cikgPGNoZW5oY0BsZW1vdGUuY29tPokCOAQTAQIAIgUCXsSKPAIbAwYLCQgHAwIG
FQgCCQoLBBYCAwECHgECF4AACgkQAoYrw/LiJnr4xRAAlr7PVQdbHFyL+VjmMKr3
U6fkrHx5xuiIx/AbTYKy14RSdd/7CdtlfKqIzWT2otcSKtk1mnzK1ha1Els+itfi
IfEP7cnK2Ssq+JBQFL7erOXptd/fmV8jROfEVzqc7e+LwXouXCdbOWc7wbU9mqsI
FnJmSDO8ztsaflr6Bepd+fB7yjJPdu9iSFooae6WZNDKk4ByryjFzjmxoWvUOXqC
Uh3RvDjEbYh2Cbi+9Qlo8DC0on0YuYENuur4yRu1WTNRezztZiDQ4qzdFzFJEnMo
cHI+MLvd634FJw+ATScLju5Zo4MiRKqPnVIWZg5Utf4BOUR47yRQ/qOGibUV9tM2
7R3UPS581OsHm4LiGvZ0eJCWr1MsdprCmI4ZYnV8ppkyaVK4A+fsQy1QILbjbvZk
JGrpxeTrzOgM94ranyGha16Dpn2na4wm096KeMDLhHY86JvbThvd8VHLb2KUryJQ
1KYGPiGeX58GnQjZkMWMSSFd4AP6bIGh2jSoO6q5WA58v8wbe5w1yjOpYLlT0ERZ
rmVkK0sWKkDKTAekUNWWQ4LmTSA5N98R7mzI1PBjvkZtd2VbEyOTDVu4tea0SiyQ
KZkqy5mLpzw8tYnHldGuIC8h47H5J/j72Hy5VwUMaAAZ4eUjR+OC50ksUO2956jc
2twrFr/Jdi6x8AuqeG8tK32JAhwEEAEIAAYFAl7JO7cACgkQfn+R4DI8aa9ljhAA
sMecWpDvh5tcc4I2cOPUisWc63rzTEIgkam25pmaSOTIfEGBrNFIqdio97eXfli0
+1WIwRjLpvawd3O3nzm4iUYArv8e5TAB2vNgxzwffTlQKco1SQWoIgXjS0JIFvk8
5E8gW5uDfhLe4kmO3cMHG69r7A/uANKbyR52MjmXn/NDre9CUZfd3FVnA0DMcBz/
6utXLpOjgDnqnjxXviamZhrYbjLoCLPvd42oeRKGaATXuMVy61R+Q3VjDXosiZPc
TAwPxvQrTXfXcqWRydwIy2M7/1GTLJIAqOlsNCFfTMqGDn96SKfwGqRvMnHbREEF
UhrvGkxzE5IKuCkfRTtnWGQCd4PPrmmUeP36YQAk8Pvvpqvy0O4ciF0toKEdv9Q3
rX56oTms17+A5qaedqIuJBmu93/FtL1aeqVzTzaYCtVpWo2cihn2raw8DGZGFaVi
hQo4zEpMM8gbFaL+aqXtV5UceyPrOKopp0lmknVJKOA0TTug31Q4nQUwhpyOXFYi
T8Yf3PYsUBda8vcgagxKoZEiG58bCvLQdn3fOVw2Ku5xfvvwjzy0aKYl5EC5ZF9r
ZXFWSU+qH12yOQiNP6gxu06U68GvLVPtl+1zyKM/wLUFZ/1E9TndZtQz3sqFwSwu
vt0K4PmuVr+w5sx3e+P0C4U8CxAlh4nCovlMW8WrwHeJAjMEEgEIAB0WIQTqPkUv
9PlIYI3o+tDHOQeTa334/AUCX4wUiwAKCRDHOQeTa334/BGCD/oCWHvwXFzX5nHw
C7O35N+2I9H/rp5hBVupiko53XL4wMuMtHmXiGPeEAHlmpIhiie8txEA3AzMVjP7
3bupMDCs7+lTlUnZ2q4M1NRtvcW0JlTIqv6JdxfCnLcO1zEzjS+Xi8/CcaMzJvQ4
x6xSXNRI/0PWLKVDGuhCi0ORm9VvNo5sYiBdIhARYbgUz80tc6o8kswerXGsU6eO
g/V/PagRZJFs5R0Z2ILtLo0zOt+YPU+Ia7R57uK0cV1GXgfLLR7uNMRDBk3bVnS1
XQb72zL1nMsjH9d+KV85OFzSBH8e5QtqYMfWDvX6nfUjmin8gHa8STOUXLMGAkC1
SYdJUPGlvU0GrOg1PcdlcIiwQoTGQHdv9Kxbb4McJxT+5fLImBJGwHBA5VWOHcws
ZtwKhgSvQusLfI/nhnSXbKft4LK//y1BVzMl1RNNv6Hg+bCsn+bLdmv/TVGSeR8y
HOf0z+dKqxrcoXATwe1ZRINYSWGXaqJ1QaaPzi9bprCGEUlxWgjCy1wonB2tAfJQ
pLjjyZ5ktU5YA1sV8E1IWGer55/F5v4GbnGPvwOLIb01Xr3201uKgp/h3ikKjfw/
NsH9cR7vWit1tE/seeOPNli9eIEyRIY67qY8DxxIP2eW0oe4CIqRaMeCTnVCZSIt
CB0ja2i133/poJM4nXPLBlCQy0lBorRHSHVhY2FpIENoZW4gKExvb25nc29uJ3Mg
TGludXggS2VybmVsIE1haW50YWluZXIpIDxjaGVuaHVhY2FpQGdtYWlsLmNvbT6J
AjcEEwEIACEFAl+t7KsCGwMFCwkIBwIGFQgJCgsCBBYCAwECHgECF4AACgkQAoYr
w/LiJnrpdw//dISYV7xKQmmko/MlKkme8RvxuuGxa/nuTYMOH1lQgz75oDMrFsmE
McMZgNswoOxv1Lxm2X+NqTbJkREuDYYioRDkqss74ejr2cAGNHKsnOlCIyB6l5qz
h/6R9pIc0tg/Y7UQI8kgytMU8HFK/5V3Pp+lPDD+jl/bfRzxByud1sqEs3P80nph
HAIQ3SVIOHXV/eLOiX7SNFnPsnMOTQ8xpcjy654ozygm5yk8uEp50dN5fjX1v7+m
xrNhMi/rMh05q9pCgfnVYEG+N320ElbxRKfPvGVVwbLhNBI27i7dH2xpMCrOSlN3
rsICBRPu3gmep/ZsKe+dSEGenSeZ1YeTD+0SesTGfI8+5Gg5mqT1P1t8AYyb2XLT
k079E7HIjlJD6ouGFuSxFvIJMgNj9W1nFNozvwaRhJKAAzpDNHccUGbXvSl/jnrB
FFKbRMHIN93ZIIT3kHENY0MnbTCHVJraUmi4SyuYjQbJO/4JuAtSg51JUAhinbNR
9sy7FpfVVc8+yllLJysZ19fe6LG6U4fyxcv1/ubhCTos+zncAg3Qh03DXyfRuJcy
21iSF+NvB+Fc+Z3wrTUIptDOf+VNyv+cSvTJ4LZ5xhclDdqfgSh/Pr+GsLLwzrwd
g8JBY6Bh7Buezg5+HZ9L2mgWWTwzktCZYPm5TCRCGfrmUrDQ6LId8S+0SEh1YWNh
aSBDaGVuIChMb29uZ3NvbidzIExpbnV4IEtlcm5lbCBNYWludGFpbmVyKSA8Y2hl
bmh1YWNhaUBrZXJuZWwub3JnPokCNwQTAQgAIQUCX63s8wIbAwULCQgHAgYVCAkK
CwIEFgIDAQIeAQIXgAAKCRAChivD8uImerJ2EACY92a6cj7ZYv2WKrY8xxXvXL+E
aVnCFIvpVTdOOlQDB7GzW76bbRSp1tC5PbR+ZnAtc9VpJrJTyrW8vfsuc8X6LFtC
gqkFTjFzswKw2QcbqiB/xVqIiwLx5fSQAZRz9GL+dbvsbxOXidPDyqY1FTRYmu4D
5J1C+igMgmHqV/J5wDA3Vm0KGMx5/awJazpDxMsaBgFlt1sfxCnwCayluCAv2k6I
crOTC+WVxHaxuBKwGG3yo0I9VVhLPVKm6tIigg/UUr3Um4U1zeYTs+jtGfBvXpSx
ZsxftGWcs5iwTnxDuBSK5JcQ8lXPUxvi0a3rOza+UlfPkT6xf7QRYV0Et0JBbdAt
HlxjD7enVf1EN/L+YwpXAdSe8T2AWkcQAobgMS3Ek9mbkQH7nehdmq1JHAJDP3ni
TSAIrVFHkniDiGt5/mmdeFuvxLiUkfLafQB2+MvTZDLmB2Ju7w4GOnqm6dxzt+uE
q2S07rISg80x96hfbiXpx4ovFFTcU8mFzRgZ0ZfYh3Rbx/6VDRgjW9SoUNpUp6Sv
MAUuiJaOX8p6+QupV+TMSDtcbM3QnW59cHrGLtRnmjAh0ehsIRD6TU+PUUsmIdSe
qDeVObH/8BvPK5Fgs0bnEbrRW1V8mW9xmUsGos4uVruF4crLNc4EVzwLV9bPJ2n+
wA7sxtfXWoKgzDzHtrkCDQRexIo8ARAAr6KVHBybVc6UQM3S/8sC/8vZWX8R5tJn
RF9e0iz7JBWpgsiznNV2t4VKA+sd3aSYzLsFRkOffK2cySFBGBJZtQkELnvvkEmj
hEekRW/flEgcQWl3pAfvvRypULk+jf/K+uPlI+Hy3K00GG5jZXrposgJbZrQCoDK
PrE3Z11lYFYxeaksj4WiYBslVIDX5C2t/Q7vyY4uhXSG2pz68QMZqNQdpdt3g1vL
Lm4pf+2JhFGM3em/ZenwFrw84dwIshtGJm94zqcQ5WN5FdDu4s9oO6puv+INe4J3
oRJqEFpLQqD5EAYnQIPyqxdSxIgjpEaHtaqIUKvCU7SHJQOCaINlghkEFPo9hpQN
OgVLSwiwqCPzMGKyR3RL8/XtePaQUuDQVIxg7r5q/RqhPvG67TdFPLYNmsBGkYYh
V4de+d9SiXVD0DjeMtmikydFIS6Vc6Gr8V6UX4o71e5XE+XqrVe0EibXuQjr7wBL
UxoOrmQzbcKmhS2wVPxJdbGkWvvsk6ZcrfuHhB0qMnK45A4H0h2iiu84ZekhF3bl
R+ddq/Sbb/afwuOBZjDUB+uDijP1bnyg+jmy8WD73R+fD5EkPK6hcN3Uzwd0lliK
xn9SKHcgddUAELbvBw5rQP9GIHKnEpzkjrhsnOQn5x89zqc6CPBPAarj1qa8iof8
o02wPzSSm3UAEQEAAYkCHwQYAQIACQUCXsSKPAIbDAAKCRAChivD8uImesPxD/46
thB3bV3RjnbUCyQWc3DGaCueeYUSEN7ywlnLH8veeEu5lAdUJZUaqpidgjlw+X2p
yirZfO2QqolafWYAfCis9BCXhM6fypRk1rK0OwmNAqw1YHJpL9N4IdgQN+nivG64
RsfCPspSjUWYSkG0olYO5lYJu61nIT3OaAV+cX7yAcX7WPmAO+arGI9DUquCNO6j
WcsZvz+fMi23gNlJ/QCZzAR5T1C9WIll0SZIH+1gzIGpSf6QFTJAbuZRFZl7vq7a
pVLXNX23Qw8ZtKFQpwVoThapzK/bBtlOZ/Qc4khm+ACIUaq+RvMWCwgkiv1VLdQ5
sezpZQGW/9O94Uu4bI7dZgy0ad3RYxJo148WBaXwqFXGmWZmyDyyF8BlGehtJu97
32gLomX1YGTAlN9MmYUESHPK7wGSX3yfmcoeu3fGkptaH+vkJtxVyKsvN6ep/eZB
zR/4fZOts2lLbuTa96O3b/dRHGTyntQuPhOKeZZuvvPj03Os+sDOzNpugNrZN3SX
aSC01wUjRSdhVbiPgshGbiQK6op1UMx40OdPjhWWaTd9asnfaGi3n4wwbmjTMYUF
j41f0GDUP6usu0tjc7S9ptcU22yDV21mIa504pP+XvKKX5bbkzpaMHZSwL4YvVqo
O3Qd7mV7B8+qn5g0AmW8tB05pVatdYs36wV4w/izOw==
=d5Mo
-----END PGP PUBLIC KEY BLOCK-----
