pub   rsa2048 2011-02-25 [SCA] [expires: 2020-07-11]
      533BF5571A11AE1A733672A207F4DE8139DD5990
uid                      Nicolas Ferre <nicolas.ferre@atmel.com>
uid                      Nicolas Ferre <nferre@kernel.org>
uid                      Nicolas Ferre <nicolasferre@free.fr>
sub   rsa2048 2011-02-25 [E] [expires: 2020-07-11]
      07A68BA8681BC7F2BCBD3986A7596BFC674BBA6F

-----BEGIN PGP PUBLIC KEY BLOCK-----

mQENBE1n44IBCADSSKdp/wbkkeeQOI+4Ml5JdALkk5X7FHux3GcjBBVwd3jOtQHq
MnrQcz1NkZQmHyb2P40cyZTX2o4IfONvG2sbt2nH8lt9h8cfbBn0bTa6MwQViBk0
WyxpshtW+hIs3qz7N9/hZ2yfRH2dTVex3V4/1z0Z6ZXld4RKHVz95PgnbV5Tvn6k
sB3aPM8G9rMlpTvvp3Vvka8SkLIp0JH+agMYfYV6HclSmyobEkW+MwOx+3xRUAH3
3gIhE3qCMPCyvEf/lZ+cQ1ITYJFFOe8PQseF6PKmsSFgWBIPmorAbnxPrK8WUxgT
VQhHfoXqN18svNTtD7kcaObKgQmNfIfZgmvRABEBAAG0IU5pY29sYXMgRmVycmUg
PG5mZXJyZUBrZXJuZWwub3JnPokBVQQTAQIAPwIbIwYLCQgHAwIGFQgCCQoLBBYC
AwECHgECF4AWIQRTO/VXGhGuGnM2cqIH9N6BOd1ZkAUCW0dlaQUJEaHo4wAKCRAH
9N6BOd1ZkM5zB/47mEgJb/cJmaBBtfwTr1b3nJjHJfuvjOQoNEbRdqVmuWHNvpXD
qJHxyUdvb79Y3FDI9hV5nvJIszgoN4maxsszMqmgZ9lO8tAJSYQgOr9Lc/B79OHV
EAzvKAl5U+ZNNYA2LG/qYeIIefe7iZboHxT2aVbXyaoMRfk1wY7t0SHUPPxpHVLc
94KbH4wYYiM0b02iTIKWb3x2yc3Cvr9/J4UgG/h/rWEZcFUDDtpr1AvmP3tK+OMx
mtjGRIP4yx+ITBajNev563QKgQY+fadgNfVFK/LRo3UKDStXMfJ7/9nDjH5WuhhB
tQB/bCIFHIeJrKaQdGGougldr+ELrtVYeC87tCROaWNvbGFzIEZlcnJlIDxuaWNv
bGFzZmVycmVAZnJlZS5mcj6JAVUEEwECAD8CGyMGCwkIBwMCBhUIAgkKCwQWAgMB
Ah4BAheAFiEEUzv1VxoRrhpzNnKiB/TegTndWZAFAltHZWwFCRGh6OMACgkQB/Te
gTndWZAIxAf+Nb/YqxtWlW7hHLsRHaXlxuBo9WtYAJIWLHutrRj9JKHQajCvBPa2
e1eyaeQ+GYhmIqq/ba8FsplgsD3LeSTwO4btQ18xCQmqZ36fvHQX7ZdkFjSGrBXh
LYlLM5E3HnKEIJLwlZkkA+3bedqjq0Usk0GvLtR+yI1JcFGdIZsNgxCQA22SpZxd
3sNTq3S3p97hgb9jsKiVBAsXxwQpb3tCZOOGu8Bs9I5hgQ8hRCCmsTHbsS9qQikn
QKRNnpu1nTtFQEHX3zV9SSoQF9ME3AERFtcTPIqlhGHc9zALBbknyS5gXouhvw7B
5lu0zkhSjb3/B8pXRHEoPtWV3Wv4ZRwqJbQnTmljb2xhcyBGZXJyZSA8bmljb2xh
cy5mZXJyZUBhdG1lbC5jb20+iQIcBBABAgAGBQJOpsdbAAoJEOrjwV5ZMRf2hjcP
/0ppnt5HPxMJqPML5M52fgUg09daHnArNfhhEdthUcOATpmzkgZVSlDjZhmhZVj0
4TfKHepz0yaUq4R2dtbQYxUHTWXmWYv/iUWQOBapqtLOPIqx+y1vP9dDqGKpZAwt
zzsS5d0Wf7M/+VB2sLnr7/FuR0fD0qr6K1s8HP1EwCu40Hf7w9gRs2NmLN9+1b3d
yHMfY3e3sVpwEgKVZCcspQwe8UPTzBXQeCO90KLZgE+xOoGOKhPL2+7NzQzH67BK
fVt3vMrYc84EnWKcPBAp4/csQbfjDxhU+bJOtNbDmBAEcf95R+VsTMGbXvTfarbk
fK3xtEf0qPq/l6/0J1crqH6Ao0ndJlE9J3ON8BjeuqWdPdjihHlJE3dBHurR23RY
ixexTZvZDPzAgYUUc2pcefFzNcIWB9Kn44j3c3TeLPH4OMi2p9gN7s4Jdm0kcQzE
ufXSCYSokZ4/CtCcvwE6YHg1yA/RAI3oH5NdIvkb3v7SDWJLeqzfqxBAqGrNzSEI
nXWJ8tw1gOzX5vy0+ubg7AvjVWzSJLwR8Zj5NjCz+sS/azk4iwV8afcNoavWb023
J0Jw6vfSRx7NSRFWZPGrkDVXuKFaHigtpku5yvFbwdMvJwbPkSvRbprBbDHUA5N3
UtE+j1Q0sNVspqQM+iBJdCMuuTgaK3r+pDlrQqQLMgoNiQIcBBABAgAGBQJOpsdl
AAoJEDnLVE1lJ89gSl0P/06BtW9Ntvg7ZbXr5h0AHsXtmNb64xJVgoNAUqTu0lFd
JXD+L7jouhWIhwvejAAp6b5fci4dC/XCYQc3uaTHXcZzhOvFm4FsUMbHdnw1JszU
Y77reJmrXpMaJuq5COJ6cRbOjv9NPI4BkQ5fHyiP6tMSgnL3r2L+TMeUKRjgV49d
pmshgkcTlMvBjqDV2uj/uBDIRFsgzXtmOZmw50qVT3eBCD8EcvUDOlyZ3BASXBFN
+kdOjGcHoG8kzG/eqI9En295aE7p3QhNjWP9pqJcmc2TASPDxvcDbugFI9p1uYSY
VwuuybQJIu6wTysw3dtnAf6OlfKOAtOdwyt30HRIzLa34R3HB+EEJCt0WmpGzq0n
pNAXKuaOw4EX1fqC1QtbZ3E8n3rSPjY2gkFX1BwiVbBbnublYP9nRhlihDbdEXpr
BeJ1Z02Y4m7REzfZ7kZhtO2H44eNz/oVUIE4D2bkx02SCWLFuSZ33Dwfg/cdezWe
LAqGz6WfY9QU6iugGrqTa9V2+Pu9lxEhMC1kF5txdskfD+145VjXuCMja2Tt2ETm
4pTIvo/Y9ktEBPAl+AFodRhuS2Jl73uIX/iUpS7r6wkAyUz7w5QRA96qltkMunJ2
BMzPMW4tJ891w4eym5KnWUWpTZX/aMQnMC5EehT6SBGsGbiz9AGMUp7b4ToNar5k
iQIcBBABAgAGBQJSakdtAAoJEDjbvchgkmk+GpQP/1uCydOQC5SjLZeTPEs5w4Xr
zDzNWSNzZYK3acZIKLLc97qnwjYwrz2O9pRWHkZ3VA884CoaOjhD7U0RB4atuPcx
7Ka56+G9EzFxMR+zCFrwtHOnTAvS4Z4vXhnVmk+rEdzZ1odL4t5JZFac66Zhl9ze
Iamf/x9Phz3GNa7WytcvptV4tImBMw2d0MDbQCKOTbunfiu195kaK6buUdlJrgu1
IhEtzWUdzrHzI5uaSbv3fwaMQKuo5CVgrO1cCcIHlceKzc60jp0dneytNHxc4aB/
XB2G9zQscHDD7ooKUU17JyOgmaTPmoaHj0tbivvRtoh9pZRv1tCMUJEq7ByXx3Cg
I17AQzIGonqN8eVKrUIIjxWhqaK4Czt5sI9IePa7Lvdup4Ajf/z1mZaU689AF+bF
vmmIdmAnoPMib8E0EOa9ZGAHlai0vVLJqhAUqU9aqUJwIyUYygM8fK2rRkwvv4AW
dMbS3M6f+KTRIfYg93vUkfH/TkK6TF7uyk+fN3+nd0MaXYXvQrJxSwrWVuxGJvih
Tu/GljGHTs5Buu7LlIIZD0RBF9Y/9SPyFCPPfGHmVr90DaE5OFVjfS8FN25Tr73J
EjXStLzlicgl8/+q+bnld31za4Igf695Eq9cbhnD0JCQeUbXq7mDj6Y7O/952jSb
t835FNhTbivV9cpPJXt7iQIcBBABAgAGBQJSakhqAAoJEFk3GJrT+8Zlr4gP/jZ8
KqI3x3v6jxlKZefjqS9emTmNtjak7MH1iJlvkLNm00bO9shsqqT04s4ITDWnqu7+
AvQJX/R/q7LghmQfUtprhHDP0BgEg5mUlfXqSMMJahe1xyzFBe5leIjVv068amU8
uPhzXmlbL8WA2WdcFARW5afaW1LDN3zyOQ1G0UnK+WxirPWMXyvRBwE11EFFLqDk
5bQ+mtm1BsfdpsBXrJevVwpAuI4AgOqpyhfx7stq+VeEY/5lHl2sID9Rh9t20uXr
A40NUeO28tf+YwaeTtcpq9DcbHTpdsTeH9pNtX4UGLjp3c9ZPaiTlrXg6orELmNl
iZ93geEAjzNZLo7vZgtdh280uwHBzohers6zG4mTGvo4dtvvVqIYkJTKDQKHePZA
PzYwMIIKamIHo+cz89VMDcVLqua6vZiQqiNr9wBnd8RUKW9ZTR7tadpYMv9ae4iq
RSUSj/UfapnxmlWUIw6qowycMjDbU+kmPLgh7qfPz+7RyuqgHRm3uGW+3uxC/usP
NtVUPaKmiTQOQdtkx9t81pFsbCCB5ZTpWfWVrnfPAG7oDljABoHih5bow9dTmU0Z
knUCX5trbLPtd56a1QPzmsbo7Cf2reS8lSUeqME9Qifk6qdfSW/0cUuqSuWPK7Pv
uX0XDdoAsXC5FKqPE4Mi8lGWghzVaRyowNhPxjiUiQIcBBABAgAGBQJSbjPaAAoJ
EDd8fyH+PR+RFc0QALluyhb2yNzqRbmAiOe3goPwvU4icUJC8Tf/HzZq2Ftb1XTl
2nat1omdNVsxPxhl4SZ0lm6c3AlokrEXu0l86UUw1XGlZ5PtTF8Ej+BsSw86Vv/e
9sk24uM56qZRU5VqydOT2RVlw6x2zlCQvZ4dmwN9/NaDLr7CmVDLFtPD/bLlfwio
vH9zXaGeiHXdDX7d1VaxCHJyiemOgISWh7F5JMaJVH2YUrWM4y3WzLh5wlonuzui
DFwlrw0X+x+qtVMpiPssqnF4v5UkIXjHo0540WQss55TTdHhw1DUiqxMgEmHoMmA
/olx+LbzjpyZjr3zvc4s0KCQwimmmS2J6NPSbJaraRjprOrd5DuYsKwMok6Wdgbv
0q27HwXn3JQ9xLjlw+WGaDW2ByQZ8I4YmJ1/gVx4DOCSX7a40xVCvvMMGOk+R4d4
SMlJka/bCIlr6p389F3ChBd6HblJmx5KPWsWo5IPeddrpNa4E7I95G61OsdUbP0E
JZEGwhDMSVq0CtRp91opzSORrzaeYa1zDUDqqC+jeza0iu92K/hrCgigQEVsNAEs
EGy5cd7HIHdJewPmoSkrFYrr+QyxGds6uywnSZ/BRwAo4eJa+xmnVVFsTVwiQfD0
l1jNRekFjHdanQhkahPSVOt8Ifsn+groXVFkABJGm8agtz4eUN6ZuCvx3UuUiQIc
BBABAgAGBQJXD5ycAAoJEGXtNgF+CLcAyKgP/201jXrqbJuQbr3vQCLUnicIIb9R
WeWHdu7iAUxnoP+YT4lynccu1k2+yNMBIp4PuahTVHQwA8R2pcz2PIVMPW8OMDLI
XAg3Oj2vYhx576e8SveMkP1p4PY1k/B8m3EMV3CAr7pP2NMLRWKd9mioCiby04Nb
AbYnPV3IjN2N8wX4479Zb9epoYdHBppfv2JDYlbOU0499CwKXwkKwNCah9o3OTWB
5D1E1yDcN/BXK3srwofvUM7wLNOaljAcxaBsO5DYo62htKrCpPmO/b/D7nmsv3eh
nImDvVLwHSvG69E3NwmbzUinQJ++83Bqhe2MsbQxZcV2UyC+cSoWOPmKtftP3elB
t685y6y0e586vPHkl6hNNN3Pr1Yr2TS7WA2vY9Wo7u4JtmkH5ZmmWFDjXrbe4DNd
6wLs9jCBOZQP3rJQzsctb1VYm8Y5riYhV8sTe6i9nhQnY+kAgVarS0dXw/ijUxSN
DJZeReYGldlt330y5OdqrB2Zuhjrz16DX23pG/VdmeY3ZiifprabR+CqzfuUdsJY
hnYVkQappSNprQOmKO9idPrLiNfz5zSNMSxfKsu54nowtFbiyKDOyK26nEpdxlDq
EF+PAalWo/aZW/J7yWRngbnAQruuQIehOab+EQ1qvl1r5smu9kuGnFlqQad/YDGV
/hP23WmJe0tWErI1iQFYBBMBAgBCAhsjBgsJCAcDAgYVCAIJCgsEFgIDAQIeAQIX
gAIZARYhBFM79VcaEa4aczZyogf03oE53VmQBQJbR2VlBQkRoejjAAoJEAf03oE5
3VmQwIQH/0MWQ7eOQZ8U9tVPwUL0/ng0gDKDI+VbhUTXn55LqMJ8oEl3qguMDsUU
OIAQa87vWCz0azuyyscuifNOjSgByyKDNRBYcU2OyyoVf4AkPlo8c5A0sTL0iAGt
ZzNsTq/wh60436z3kdc36LPr3pGrXP39w3fIuOzhx11RewyMbNq9+ct/FO8zLWyz
EFpusx/QFRHa6qd6RRPPFrWQmoY+DZcG78HpvHNWQ6ZsTNkZWCVegQo2hzHXmZVL
k5MQNeGENxYniAs8bnsSDdhaDRD8Srih6aWTh+dCxa8hdqFAMdLYUqYLDkHYKc/C
lnJ90fRmdmgx8iNqb5SfeGe7LZirfme5AQ0ETWfjggEIANgQYfygXKOusbtk07Ej
p4MHBVg7ybbnN8htF211wxSEVYzn0PiEBVTl6hQkbIS9JRv1W/t9RBoVUIdkliT/
BofmYnknp83Ef4b6MD7oIjD1OqYUW4IFQagtZTtf+bwySxYojiRQLhNwals/YNsK
K12STAjeemOYqJmY2LGDGShtSRGgQhT6917bAvNyMBtKK1iran8P9eLvQWyZm0qV
MkaMwrbyGAqsKM4OX12fGv5T+B1cVc2Fslrl22EAICm62faMvq7aO75KQeo6iw1V
DzjV1Ide0v76Bn25pLVXE7u+MpTkZRtQT2+/n1EWyPHfXnRllqq5G+LLa3cgGFJY
B0kAEQEAAYkBPAQYAQIAJgIbDBYhBFM79VcaEa4aczZyogf03oE53VmQBQJbR2XJ
BQkRoelHAAoJEAf03oE53VmQbRgIAI7uQwQv3TT3H5Op4za712G1ctN59sJBwQLo
50wVLpTb4WDOezrJAP1rDRuKVV1r8Blp/xicBasaX7eyaCIB3Y5kYdqEWv/g/eQR
wMd/aIl3tdNiqIDv5HAXZSARx/Y85XzJXcZX5LHnDauGP+PrZNLpyS58SvB7Gfxd
z/QWDWGYo+4AoZ9DIsBHSn5RPLf5rTk1KBuQM77QCMJ3J2Y7HiHumXZZcECOoESs
474wJUzK00qdCKlw6p6R2Vw43VyXa5+utBBTwQC5y9mcEsC+I5fkgjN35eHWF9g+
YwcRRdm1I3rzuHLerRm0TBnGY2KmfjjBZb+MJhi6ngTCP87RnWQ=
=05iQ
-----END PGP PUBLIC KEY BLOCK-----