pub   rsa4096 2021-09-13 [C] [expires: 2026-09-12]
      DC3CC770B603104977685D9E082D13D4438514CC
uid                      Evasive Earwig <evasive-earwig@kernel.org>
sub   rsa2048 2021-09-13 [E]
      ED38A4DAFB131ACB568B4C6BF63F76FCE385B470
sub   rsa2048 2021-09-13 [S]
      1C690F3E59E5EB7EA3BDE09B67427E3E939CDFE1

-----BEGIN PGP PUBLIC KEY BLOCK-----

mQINBGE/l5wBEADBjKpVMwlrqD6uVQ8fgqjTdGWfi6ua2Wb9WG8rNlN4FmY+CT8g
uVmtJhKjAAqwcwP8OBc4XZR4x4ayB/ECabzgAPAg95P0WHxn/TquSYG7PI8tt93a
S8Xss7bwuY7DIh5VuUbaqHQcSRGyDO/w+2hn8hWo5tWuEvMYdWzNq/xMPmlGY85n
kxkqZFeab3wioFuvpotzPqGk1oAoeyZUks3B3fnVUOOFz9JLfShM3VDa3Se6Z+vr
5NiE9NxEKoV16HMCn9JZL0daS/oy7pNr17PEu0tqrbKuM7J5W+C0/G7HxNVjb6WV
FTqH6PnSKjha7M7SkNfB36m2wH/25ovdDkpaJREuPcyGTXXjvViNaNSk9ic7nvoH
aD/ht+cshFqwglRcErHckUdKw0KOdeX1PCjBdNySKbPekb0UOuNw9nWlxNF/CIZL
EcAmlFxQ6b0XfgBeXJ6+Ehj04rGWdSerblx0FvD8S4LGaADMB82ehLHrjRIFxKQs
zUpNO/PgabK0AmmpyBW2RafLb90EmRyWuM76vYg1aVUf89wujN4nFnq6bYWb4fYi
kHTMT4myoYtizqY/rWbVDAIuNDpzlcJtBX44TliHf8j5uNw20M/v4BXkFDZGXsdV
DN1zO5SUcJ3Tuir8UH57HsxQT8u+PcXF9o8AR7cEh6HalIREIm1NzI+SUwARAQAB
tCpFdmFzaXZlIEVhcndpZyA8ZXZhc2l2ZS1lYXJ3aWdAa2VybmVsLm9yZz6JAlME
EwEIAD0CGwEFCwkIBwIGFQoJCAsCAxYCAQIeAQIXgBYhBNw8x3C2AxBJd2hdnggt
E9RDhRTMBQJhP5eoBQkJZgGMAAoJEAgtE9RDhRTMAQcP/0q3hyl5AAgp5g7jKAcf
q9WikYcDXKko2/ajiZoyRV4i6J7YF2cGxR0wGG9KHU47Y1tA0xWpVJ8aFqLqaxyg
//pQRON3CZpesbO7WUelNsk8xmWI6A2GmUG6fCZ8SF+qfUuy4ZFR2PasgJEHNFL9
CfA67nVCvGoBzzghTpKu2AYyCM06GfuV41kLPUNnYpCjDWeaNUiOpq9BJdVNARqO
H4z19s/DHwwZ5V2G7xVlouH3hSQlSe9Gfq/zkX8OTc/b8mBq3wtf+NOYtgUMz73R
cN1UN3kO+WzaK8ofgm6Jj35k9E8kjgeLVurux5nkL2dmZMPQqfBzQMc/ecQzzSPB
LD0zTtdt6tDwV+6JajFYVJ+CMyJ8kgw4PxYdC058BOjtui2j2P+i6+8DCFhxdGPk
MyC0hhmrtJtB2e1cpMOk8qGrrt+ZTNjM0JCg4oE+X1lbjSQnBKB1+pfdyhJQdjRp
5lAlfKB3jxi6sse9rjJo5ej4gYP00lrB6IY03XjNmv4uCipoQ8imokgDw7Z6Njft
49ShGWZZ3EHNpxHun2s5UbNIV4bnPlJ1qBWkEp8ALietzoge+hpcnybXFtk0CthF
1K5yDYjsASJ5U/Hoe7l2EriskrvtYATkYiOy+FK7CG0RhTTTI2kHgycMKEEdsr35
nJn1aA6yxasxTPOi36xZ8yZyiQIzBBABCAAdFiEE3g5m4y8f3QkCZmuW5j7cqTKd
0H4FAmE/n4gACgkQ5j7cqTKd0H6lnRAApmGMZgy9BND5zn3swSfMp0wislNLUWaF
uAFiFKomsmI0ORwyNedTVlrkYHN6FtLOrk3jfPuYY3DWi5DRRqWETE6NBUNI5Yht
seySeDOfBb+bVVo6R7VJ4b7nQQg1YkwkawfTb2EYLMIZQc1yIY6DPgSHaGk5VBbu
QrpxZdsCl6fTdYtZRMGhzeVh6BvTDqxyxA42WXUSNgpjQkU6eJUegRSDigwv/+W/
oVsNQycpf/8xIDCvkDEJwEWoVyZaZUWhPO6jIOihy0vk5qK1r4cOJGlmkKbqpsey
mgdxM9n8Kl+fWnOGXfK274fNMf+dTkwpq6HezIOkwKI7Lx+fCieiQNjbVSRYAoz1
L2+SqToxFKXDGVSd8iFHda5Ir/zeoqFz82pmm4xmcBU/L3RRV/e3Uy7NRPd6rL9E
rHlhkE/bmARt1/vHFQ5BS/TjF7M8ZAxH308B/+hj47FxqBhiJPvqRqzLKN1UA7IT
wZxqgl1KcgE4vBoZha6Fv7MG4pA9BW3IhjHn4MgHDOpppHyrHfgMTyY3Xm+GXrkI
HlSB4u1kZlNW6Sj2clPOQA1O9thQ9WrFElNJEMARr/PElohIcHWqmrcxDglqksPO
ZLWPOzACZljoAE1kP1GNV2yEZpo8YV3s2IXDz/Y0i8dzn4CO0HQHSbGcqFbuys7e
NJxO+pWy0/a5AQ0EYT+XswEIAN4MH/B6RfUxZTgEt4NHQjcGbkMxsu81dAVZ4JEF
vkBiYR+nQozB7ohZGaDq66Z2f8Z2WM4+DxPPWEdqtY0W+4m5sxjDELrfwQsaQbBM
RBTD7rqKjzFwBK5JCSYWQ8xBcXEFzSzE+2s6WDZIM6tFpSk33YXci4hqYDnDzvpV
O1fby6oU1QTcWbknUGJ5pS9Yc/K3E9JVi9VEe7K2i1uHmS/73vCUNO+uYruC39zp
ejU/m2L+BXmkkCNl0xAUPG9eM2HEenQcMhvpH6g4ejbQGL4DUZ/4LnpUJFAMNXax
GhN5FHKX3mp0IVPncDc3GZ6bRuFlxL+V9zAKmRiOsASwth0AEQEAAYkCNgQYAQgA
IBYhBNw8x3C2AxBJd2hdnggtE9RDhRTMBQJhP5ezAhsMAAoJEAgtE9RDhRTMTa0P
/RrqATq6RnVQ1LAvshwUXuuZGLOMeYBF/9ijBOabMIWl+WRCBidAMPpjl5wBwzSF
UOeLQryAgGUNngsXqDB/eNhHAqO+CM83iMagbBb3asA33idWhbVVMf7mMKPLIuxU
VZ6xyhVzZU4RU6HuDKiRgYbhasbOe749tsdl2N0kYHZW8AKePqdayvAA3UnwgqBs
X7PDj3qtKi+msL3VLaPCe5ksZkX0yKgjXdUPA8c39BmD2pGhVnzAtxLjVB71yjrL
hHWqwEDVKm/tqG48DgshdmwsMhIqEQXlaAdEILjj0DMmc2xzvLWXSiseSBsz31pa
I47/ZWjq0mCeFkMQsbx6dfxUowHxce5lEFonZtwCdH8/3ZJevBquu9bkpUJgi6K1
MhRrejKnb0tX2mLGlEbmoFU3T989q8ofPXan0NNsqSl/1W2xdMKnzY+RBs873Ygm
XBHwvRgdflMt9juCZzSFrqzC7gpVjlJd2rb9NONDK5kHIxVBnfmMrcdTL6K2rNr8
G5amrisZnkQ1QOHNW5x7cyQHv7AJKItWJnbko2tjlaLbHyy9V/o1PkAov2oM87k9
Ir8Wt/xHkRRMtmnf9fExkKAbRW8XPb2l26+lWuqMfYD4/F6lqeSzKgFkaSe8PzTx
YGusYCKv6Fk4z8YMJ3KmOvNyhM8sCglZwWvazuIwsN53uQENBGE/l7cBCAC7jiKX
4D8lHIq5Fk+O07PVww1/lN5plQqf80810wx/5xuPVRka0DHv9TEi95S/ZQqRFwnD
9/yRBysQnVh/6Gf/NP/ca3OCtHU55YOfzQuI9rVXpMIpJJ+JhupWu8pYU2hVZzqY
Nj3uq6ZLb5Fq1UufzcSMr7REfAyjxgSjYg24DR0Da4vP4tlM9XctRqqNAafB4pSf
67Xy2UsQ0XyU2LD6wDe/Cb+hZepicYu0Jb8PKxydFxVx5bO9sJhO8bhPijkmHNBI
PvAx0wUbZeZwZ+cYFALLpKR4RQWLzurTk6vGIbeZn6l2Ac99dHhvJNoFoBt80ZsJ
/e7pdz+4EJGQx0PhABEBAAGJA2wEGAEIACAWIQTcPMdwtgMQSXdoXZ4ILRPUQ4UU
zAUCYT+XtwIbAgFACRAILRPUQ4UUzMB0IAQZAQgAHRYhBBxpDz5Z5et+o73gm2dC
fj6TnN/hBQJhP5e3AAoJEGdCfj6TnN/huToIALl0k/lhyig67Wk37M7GCEVxz228
kYkkFrCZ+r2pbm4xEx7ukN67+/tGnCC4NwaSDem09aLtRzs5rOVsCtgskLwXtC87
1Nwsv1nmAb6yGaLSmOxguWLaiW7zkeQ2p/7eGLfEV4khBjWxocVLlROZPMTrIDnj
omv+ALd3KbflO1qWuDsHAC+rJgbgiGxH5WeEg6uSkuIxwld/8GPJgTG/Y0n5iF/I
PI311k3K9PoX/HRZL5hTND1+YROFyTu4sTdgB41pZFwVXJWo6hFgCpTOxDchxnTu
ALjKQm8Y7LZ2dMbLZtZ0T7BNLXwghw6kWLPWeJ3yUWRF9eRsYMKfjx53vsqwRA//
UyPVbNBMoSflq/6A0itodCA3phlPaHv7ZXOnuA+LDbea4Xj7guC1QyotScEJt1bz
sPzx0SS5tn9kax2XzT1KWejF1BHxwxJ/ltBZVPWiYPab3RILFUBUPd16kvAhoilF
q7ucw7dVyBD/88mu+W5nbGw4wY2G9FfMfBKcEO24zJwX247Ks35Atd5CXkWWjr9m
NEe3aroSNT1MspcGjuHDriB7DohOjyagMt8fKlYUBM1NBa7EMV9kc0pNr7yTES32
XGwVfnrgSR5WLyF/fBHKFItQNL8qZgyXw9jfObfBrjLqpksoOCk19rTmPPoFboVu
pSEHEIjC7aNSj+1wzR26j3IGoazp8XQJvVoFA1l4PXXQZgJP690wNX9Y+FKSsa01
nuAyeB+UBN72x96pfiBqPiElxoH62qgbUWglqv7kJymZl/PtWaz1ymVI/1fTT6yc
c8893cwtGgdG1bakpmRnnKZSCRNT7S0XyLOwD2KPaLgtJFOO9rWCfoZ6MKNwWJVR
i/bY1G2FUuLVem243YkPaMLIlq4NKkOvQ6+AhbV8RcskZdiKjCGHSzV4KIIqx6V3
OwmK+FpT2t4LdWAN5XMDBIAKOnorHuuRdege2bFHoxQ/CmGnJdBPW9WAE0fjkXLn
PdSr+GpDPulDM9VcXd74Sm79x04WWmQLjnraeB5Kttk=
=jFzE
-----END PGP PUBLIC KEY BLOCK-----
