pub   rsa4096 2013-07-26 [SC]
      F909AE68FC11DF09C1755C00085F3EBD8EE4E115
uid                      Mauro Carvalho Chehab <mauro.chehab@linux.intel.com>
uid                      Mauro Carvalho Chehab <mchehab@kernel.org>
uid                      Mauro Carvalho Chehab <m.chehab@samsung.com>
uid                      Mauro Carvalho Chehab <mchehab@osg.samsung.com>
uid                      Mauro Carvalho Chehab <mchehab@s-opensource.com>
uid                      [jpeg image of size 3594]
uid                      Mauro Carvalho Chehab <mchehab+samsung@kernel.org>
uid                      Mauro Carvalho Chehab <mchehab+huawei@kernel.org>
uid                      Mauro Carvalho Chehab <mauro.chehab@intel.com>
sub   rsa4096 2013-07-26 [E]
      4FAEEC4AC4407281390854DB99E5EA18E04D42C3
sub   rsa4096 2024-11-25 [AR]
      8D1BEDA3C952848353DC4EB1D87CDF927C9A5A92

-----BEGIN PGP PUBLIC KEY BLOCK-----

mQINBFHyRqABEACimkyuLL0D9rxFYLzRy2+iBkZyRPvWkp3eGfWBi/F4cDhh+kAu
jDKR5GbprW1XgML0Va8Esgp4MrQsLZBDPmFY1rMXLT42XGUPW0VpyM2iAk04fCBe
Sza/bhhw20REcvXMIBBTA7lZAABU15Fzc4i2P0ju7F0++lS1Aq3PSpcfSOlOw+lh
PfHfDjqxAiuyYCfH+UMkrEmJjMDByuSOC7RgWkSahYupIQXjlsZ9Q+SDx7POP24R
aMqkIzpSoZrNvf5PnY4hVeC7UfpGBhSD2GaM7HlFDP3N1M2er6f0GwuDV5Nt3h96
+ZvA31kHqM4BBOJh3BnemRiRCC0NQpoexGg5b7JTboQDzyUTtWd343TYCpViNsnl
IMGU/vUh3SLKgshfrhKMsBx9OKoDENfgdLJnD/bZqzQhdnaZJkLSTMwAAYy9oXYH
jUjYeKsr8+iqEzgxGmuOgxhd732vISMkupwbPeutqJzd/yj/NwVHuw9UUB98Sgcs
DrmttM+bHk4oelBY1ybzG9SczzWAq3MGKPKxVktwE4ooQ00Ncg8NdEHntmVVpBr0
oRlWHDE7Qom3ww4I39fkZH5jCaP49cn48jjNC+npH2rffmZOQAqoR6VaQOXJSQvk
5/AvtbfeWBJCDgdMxq70ppsj1xyW0+jQxM8Z8wFWoTlvw5jBAsMgBEr6yQARAQAB
tCpNYXVybyBDYXJ2YWxobyBDaGVoYWIgPG1jaGVoYWJAa2VybmVsLm9yZz6JAjME
EAEIAB0WIQQ6WmYIh9nsNNZi+ycEsIyPFST6+AUCWhl4FAAKCRAEsIyPFST6+A1e
D/9/uCCPSlMncqDZXwJLXjWTWQ9sL9sTQFWXoXPwTjz/O2D2cb2RwuFvbXYvCQZG
AS1oFJtQZNuDClAzDJqMqWE80iNwP92kMRxGUa9otY/JJ721E84qQ5rtIpq6pr2D
VBZjhQNUCw6ro+0J/lLPIqCS6Ej4w/cUH+4UtxmPAYfmpB9ew/rM+Mrcm8QJI2SD
kEJTPJdl/+0TV0qfbz4y1fXDpqp7Ynrof+xLkLausLNGqCHFq1T9LLj5EEcSwMKz
JR5MBVvyNlp+IRznxB7x9tbtC+iTt/gxYDk7oDRxM8OliDKamK94qB2vvUSyRsOs
rQeAvhwaNS3oTT/p4RQwwrcwd6fVW/MUCBgwkYeEC8qFtGhAL++nhMKrQFzBUh3Y
sMsY2gAS4ALLAQvnHhLdbqN5jHfqPc4ivPTZswbyWjj/aqGPypvPuHOtKRYVv6dI
4TbVtSdRJR6ieF0WhtnGB4G9169EmyuX5KOcnC+A4WxkXBzanjAnI2FsTVKD0xNH
7Pw8q6R1FvhljMNIwHzVt1HbNCaegtElLFxOnXSEqVkY8Wd931Lha7qTGmreek6q
2fWNh+Qc8CovdL7H4PcH2lfoRRjAM//Atm2WARXf8wf6+iRs2eBjmA26M/FxaXqH
/WhTp1gItCLE9GFWC3m2/5r3HZj1nj7+7ocLCk++EcReq4kCOAQTAQIAIgUCWhaH
JgIbAwYLCQgHAwIGFQgCCQoLBBYCAwECHgECF4AACgkQCF8+vY7k4RUiew/+LByI
iTDjZFQUj/FmcuxYMCpF3d+44kWHtUBa6lPVaZ3yrm63UnY7AorESTVeKcGzq7pT
Wmj9jKhawHQ9Sb+1HY115CTmlZXd+2e4QkvhhYyTgz5dS3x9wsycr2fV+EPAPOUy
wUNc/SEvuzbAngBVzeGqndgGKh8++Aum65QNc8CYplPRofw3k4pxLMlw5xVvrKGe
Cj3zUfusvl+a873G+K9rHOHS0aCrTlLp7hafGiZKeMc++W8I9A1HQVHl1MxIYDoN
NElWxeMNzibL2UW1yJdaDFQhpPdIzVUT6eLfMwwWYu+NoX3RJz9TDDZBbG9dBEcB
AO0rx17eHKqj8/hRfoXzdNB6jKwurBcZDzsNqOnxtK2CMlJoldmxReNyV+zI3HMh
dvfi0SZBJQwy7Qad+zoYTupg0mgXCUm/dUjWPrvwBa0gcxCF/K0ce34kBUFxJ1+i
IfbcfZonfw1O7IbWZP2Mclps2wquTxbvpgwfTQs53FCmIdqPtjYCJo/Baml3wut1
NF2R4kJzItPADEwW4TVw0liDqiriLuKyWhbvM/iYpR1WtYq7vEPq6QyDCuVjoU4P
VwV5PGwR6uasJtPfVyVUaBpyE6ZLl3erpyTSUQD/8BrIS9ASW02Qn8JUtT2VAAtZ
0T9TP7KhMkq/Jec+t4BVFNwaqFex/oxpCva0Eqy0LE1hdXJvIENhcnZhbGhvIENo
ZWhhYiA8bS5jaGVoYWJAc2Ftc3VuZy5jb20+iQIcBBABCAAGBQJSbktyAAoJEODz
c/N7+QmaS5gP/1Dn8ntbhVzpmWSvahduBGwVbLQ0OXbgIVDCzOZyeT/3GvwdjR9m
JSI6u6XhN+mimxbujb9rrFdBAKDrYOkD6DGujek0WCJIjcWYxN97JgqkooxfBQA4
yn9ZjbuFHS+GGeNeGU3i1tnQotpsHj6La+rx2EBq5E4uwIhXKOxGg2O5MaztyEPv
D4pjltuT+LNUIiAgnEhkrcxi1FKZS/m+SDKajlZZcq2BhSySOrdDpTdS6P6kLuee
RZfI2hx3me/aAkCYGNDxQZNukfi2kTLofi/tnZIaxtyFu1FbTRLA05cnSfAoC98c
YqLuCzSS+lBt5H+HAQopyEgSzpDZb/GgAR7dbgk6HL5QBfZQ0SsUsLmdb6RS6sqd
GYgK9mhTHVN2bujRpg4Boq/YH7xdAeDiQXARS+PPqua2P5SAQIpErmgSi4lsszS0
J1FGKIQS+IurKez8EifdPOqrawT2KDtOPxrimY3eJv9yfYJ/JAXpMtY6dmKaYkux
hNKzbfSFaAPag0USm/k8R5Z/T/ZMmPRYNC3Kw5JYF65vJbBJHMNR9n6WMHwsTwRN
uLl8iirP1QegZHco8e9ond8UFMulK4lqVHjLuK7puWtBP+3qpFSdnMSkfQMsRTBZ
OKSa6x5+IuEzscpeKbDR4JRpLd7qk2AALNY6LnA0RKUicPjSB8OST4bHiQIzBBAB
CAAdFiEEOlpmCIfZ7DTWYvsnBLCMjxUk+vgFAloZeBQACgkQBLCMjxUk+vgiJw//
cEMWH55Q3vaAQSoBcu+QAAweKWqagmbuhnycP4GNFHwtkaeefI/UoG9eHCJe4Nn7
Pe2ON4yhqpMx0ae4RlvOn92c9pedYh75Mwaijo8mM2XUVU+dRYLW8ChadRReMOde
uKTW/8BsAuJoh5dpSIpcK52OFEl8+I3V4rOXg4q5BiVhfpEGXMU3TN+NU1aCOMQW
zjT7VTU3fzhH0yDSk1ZLmOb29wnw867KRu8cKaakvaGYVT+fpvGlvesBXjlbiPW7
xeStyrcWVdmQlViFiDqy/G3ACUomMpXNQGGyfT5o63TJMGaWEPITYdl2uHyKn/68
6XQhpNgdKbLQGxH3RBg8UPHEjMI43wMdapubMfM5pn9CQpLF6fTAGEcsuDfcG8uC
4YtK8cSy/ttjY1BnGJW6Gbv5na+U4xQ5WhGzZHSbVcDqPvDYJLfxpKsITbiCGVA5
59qQtTrXn+UdMKyuOd4JYCHiwzsySRKDfqmdQFD/Zn37u5rv60hVjlCAhr57vDqx
D68jp+5q3UOo26ZvtfzUfz35ngUsYQZjtwdxAQkGSjJlvYnARNNZ7DJe2WRHPbue
6S98GydLimoDIwjcAP1DFtjYo6b4Z4+tbbDrXY6Lig+z1U9+pIbbViUNFRZ7oiXf
I0NOP8flNG7c3lc6fJceV0uh7A5xHWXSao6sLNOb3UyJAjgEEwECACIFAlHyRqAC
GwMGCwkIBwMCBhUIAgkKCwQWAgMBAh4BAheAAAoJEAhfPr2O5OEV9LkP/2541eJX
2sFkP5QDR2/Lt/3r3Adc9/JqrFgTMtZJcM01hs/41HBwXRLCWjR5nBh636f6YRFT
qt1ADwJ8eZlwLPYT3W3w1TRuw9L9ZXkGUVaFRPZlmMLZSnZ/rUKEfwwL/Rtxgc+8
4H4yV4rsfHS9aL9Hu9Xhh9/op6KVa+QAauWR4FKq3wVrVpOFXiYqQea6HauUxyI9
DLeu3gy6VWvi1eDl8vCPZ8NthwJ2VIWWtTsisBvEN5ESbv9O7tv6n3/TtN6aCuBL
4lSAdHXbeuSCOwzta/vnG8h4I2oADTH4wRG2i7q8TckGeUHltaoYAKImxTW4PxWY
V92YqRk+0s0Bjc7liVflH1BwA1KTAELwAJERZ0TQentzvbmAjjwZ4imIWGfg+jJ9
VSjnGavwyEU0pcIYV7acXtplv9ryqUG6SQQOFqbWWXSpu+1YU2PkbJ/yyTy23fHd
A6+IjmIOLXu3P5iYyzp4jDy1C2cVQPeRvRBjFL2jUeV24rZTo9lmYu9TZA2FmwpA
aL78UMD1ZUIZzxCnQzio0IKgn4rgqqNuwKC+VMs1poR1ZIiXONVq18WAkEMn7lud
RjBOnKgKYewIR4kOJtB5LASxV7CPNjb3VxqjxTF9c1m7P3SM+Zva71XTIl5j/v8v
7tSxRZtGsv+ZS+qWu4i2VpNCkYghTZmQl1dkiF4EEBEIAAYFAlJ9LEUACgkQv1Ot
UjCK1Oxe+AD/Y9HwcQJdw5OumnWgZ3eneidnXF0qxo7SOMMzvyqsNloA/3069kp0
I0WvLrx3BN3gahMy1BgDqrNWI1k1IpSOm7HmiQIcBBABCAAGBQJVug1bAAoJEPBF
wrlpkSVu0XEQALcGWX3d763qD9q7Xahstel3BlgYRRsAmKWzfFX4kcUc2yO2rbuV
fuPafRWHUHRVg4TMCn0gcvlbJ/f5iE04dr3Ft9SwTAOi1yA9oDjbAW4KkUsTx4mt
qKWuMDgGPGf3QMEWpLN4hBWdkuemGyFfr5Kcni8nctI0FuAJS9AC9tXsigZlGa+h
LsDN1vthiLW5EXawuTjjAo/TPXCDGNjfzH6dv+uFtE2vF29ylXeL1sRC+Zl2h60D
8flaE/LFyOwN+1GjAh75Hfl5rsluUvl6LXP7/vDq3oDRV9HoHgY5IAlLxCA1Ikpe
c0jstzdvO1FY2wioWFHxAUeLpN2VzPPXeBQqyTCsCBfMHKPUYMfbi0DAVgiSYjhC
BNLoJBpTtrV8TRi+4yftFTbICgLUgM9Ib/9x98c1hZMU2kXhRn4y4rCexoFGcVxP
N7eDpcdRCeSkpI9VxI44wjb0lD3VGDCkDAw/IeHqNMFKtsl+H0Ar04OxtZpaWx4S
fs5QBaWamD4eLzWQtXOQee8w/YMf4l4GhC3Zoj/FYiCYa7fF+xhBMWUt7WH+imv4
W/GkfLF6NuMQuh+ZXktnRUrOm5Oa8/9MsY8BGf6a5kLcYJx4HlyJ26TXNFQD0hao
YWiqLg4IU8wKLBVPfOmpa4fkEfuiDoUg5GW188yZRIZnEY4uiQ9JT9EziQIzBBAB
CgAdFiEE3g5m4y8f3QkCZmuW5j7cqTKd0H4FAmgwbz0ACgkQ5j7cqTKd0H48wg/9
G+xYJg5yKSztyqFqZJtmdp9mXKsTrUWtzFhy10jMtu0rrazld49W3ZQ5TjNcvZ4g
N3V2jhasA2JWJ25x/9aAOjnhJ8ZenbLYbGKKMAmlw6J3IcECmQHPJEL3ugIb8/8M
gIOqS7rbtCZmTlFH5JBPSUsmk35+SsX3srjvoj2DEVF4QIOwUJhy1DuvTaAFh15h
DHu9NIlMk69jez1R/VXwtc3H+l9TmVnm5vCT2ZV6BpHrL6wDtTYJpNcUm8gZ18Ow
pDSJ53AJncEe7bPKedrWfdqPKY8G9xhS3iEuCPv1NevcsGNVCnm80ovwnVeg2WKP
tLfRWbrSd8u+EjceT+TTBcmZdecmSNbPD6t0rMn7syOOeSJ6ely6hoz9hlnbNwQ4
ng0AKhnNI/LG8fszioS2p+Q+Ipe5pteWaiWAFKchJGl+R4zKvLT8CEMfCTMzFRJd
Pya4IIMs6cINfGUmliAukHsiVBtzQfjlKQQ24xkUJoH6KCc7jwO6JNke00TTOxuv
BHfwAsJ07iYE8rCVnAxKSxNq1+UYkVh3cjAkUhU2L7ZbZ7kP7asrAutpxvHHGqHa
N4u7dOJb7XKTaBEeEy2nVFhsJIgXDyKBawtrkS9b2LHwbFmViIvz331zDzw8fhKL
dFUpBe7QM1m9RwkCyX50AH+ro+Iyhnq+9VXtwgHtyGK0L01hdXJvIENhcnZhbGhv
IENoZWhhYiA8bWNoZWhhYkBvc2cuc2Ftc3VuZy5jb20+iQIzBBABCAAdFiEEOlpm
CIfZ7DTWYvsnBLCMjxUk+vgFAloZeBUACgkQBLCMjxUk+vgA/A/+NSd82h2p9sju
E9sRqNYXaSlYDrEj1H/2MUt9SxVz993CiNAyXkP8fcGGsjuSbNljncThmk2kkU8y
cwfNKHyV7AS6+nYVcn2M6+Jt0ZLSDJ+2/ZS9FI6qVp1NcAAcPoIwsNMj3yPDaVN3
3FxE2ApGS3j5hHsfqxlSgOqUUqRydtTGTwMudRVOdtNlqP4+NeHyrzn9R3iv5mrl
eRBNZ3yhZZQ7lD8IkVt+P4/YoJ3G3oGEFhn/Y1aal6cjK1YT+b7o+/ofelKmRLfi
MnsXnju11WqRlAU6475Kwkm2ip6Yo50xg386bM/3iuMwukHoybOawd7HTJCaSZwY
xH4phnrel/PrPaNkLARWNi8t1oRQ8/7kRDBtcMaKlXErR3OIjp+AXWmlSHvA5oCC
Mss2uTI3+mGkQw2dTqX0R8d+FYAu+d7JL+DRUIOBs1CHIigh7AA32VZMNIafsV9t
fcKvzpQBAcNsEd+OS2zYbjFjdoLtHog99xdMjEfj0uFWNJx0IKb42hTpX4d9AAbh
WmU66iHiJA2VNf2EskrvYyDWJHKAdpuMi0WKUqphlzy5nixfBzFhKGS8dF15AQh2
rM81Tf+kk0GTajAQnUmFYQaiiSb9MLpZcHmYouz8vQHf4Nkb6BRtptoxrg+WyIu9
heSoWlgmfN5C02Li2A7gvNaRYFYcfPaJAjgEEwECACIFAlQexmYCGwMGCwkIBwMC
BhUIAgkKCwQWAgMBAh4BAheAAAoJEAhfPr2O5OEVwqQP/A9jpmM33ZIcsp/txjFZ
/nim2t0UCOtoTunYZNtMk+Es7sLfa3xFznX1dbEoYoA+Wir3g8vNl+qCmfWT3yPs
5gyJIIM4ek1umtGsyEWybadocxmhFCWwh6wcKkHnsXmwcylT8uDUfiHtzsJ1JCDf
1JdyEoPcPizfdSjw4AeKh1SBQ3+4Pb2UoP/8E8PNku4pgHYDn82y9BQJm4OrLaGg
vJZoGnolwTPB1zIjJ2BG9PeoTBCUef1/vRTwQb2aPMJTuwYgJ6OP4ovtIyFTY0uo
VrPu0PkdKnrDKTmv8zyk5os+irnbIWeLxVLDfNlKxOXcXj0yIpAsDLGhqbEEC0bH
2Bb8S4gVH9OD+zCbsx1jOEoHHoRJiZGOJCBbqQ7UGTHmCUWKAdlfUeJnMi4dJYbV
5T4cHEnzX55otctLMG0XMTHyyFXSX6fTmdymg3Ui6v/6RhyUd/xq7eH2+IvQD6n+
pTEnFcrAbrJF2XS/7pocfFP1/+TXGYo31PwsyhuPHp8KJTxV9RlG1qLAnbJpllpa
W810IrlVCNpWm8kaOkK0nRrmmQZxGE/X1mKW6R0K+bIepJHzNsOQ6ciXFNzQCVUe
aBFq18dlGeMLGm/GxlOpamgYTaNxWut1fpC1UmyN3JmpzZCU9kOXk1/IFdofKeBx
l2NotYNLDVLj/WKKyJfoXAGMiF4EEBEIAAYFAlW6Da0ACgkQv1OtUjCK1OwGBwD9
HvCZkMBC1hLOuXdUEjqiK194Dkh3e//RJ93hhFozb+8BAIlcM/OXUZeD3EnZPGEw
RBV0tLDXAWExh8EACjxoK05XiQIcBBABCAAGBQJVug1bAAoJEPBFwrlpkSVusiEP
/3JXNhBcpecXBV4eYuskhg6gYoYYNe0HQh3P7chIHjzJetoG7UQ0qC1kYfE6Dk9b
jZ64DZcbyksEiEkGTZrt4UQiWVyLyvw/V9xcJ8mnsFq1C4dmiDY1wB2YjVxUEu+2
hqmynzVh0qYUw6LJzmLExNZU0nXX2UsKxTRbO3tKV60Ta8L/fOpWL5wSAgO7+Seh
Mb2i/TVxfpiZEb+BCic1fmmB+ZNZNciFTbL54fFi79oIc+RkCIyZB85qG2yg8tg5
EsLXBO4RDuEIxo2fpQou32m2JvM9Ho06tk8Iqen/oOA0MV86+sZekHaPW0xQqypC
5Bo7YeufeLQ4aKdat3s/swlga1cf1M8wXkfHvJANqZeXXnL/7e96flJ5UUD8PnB3
slWXlaV630YsFqJRsh1F7pkDgE4STzRvlvsvbYXVVKBgMAqzD5fBYX9x1bomrhoy
Rdxp2Uo2RRiAJzn44G4Vmf8f4XLuj+HdIr+iTxklYCJwQrMWuE1xmFaLjKsR1oBD
iR0vfCi3p/Nd3hHPKVD9Req34+TcOlotl2tPp1e91B2efIQU7+xqYnsY9kmra07g
+q/oLL2e5nwS8/BvuGU4Kxf38VaQEyFiwFOcQPvRDkm8Eu/fIMHvN+IylGCGl+C+
DvwlC5GADN2Baoudz0VwlY/APa1Cy6oCFWvB5JqfujTctDBNYXVybyBDYXJ2YWxo
byBDaGVoYWIgPG1jaGVoYWJAcy1vcGVuc291cmNlLmNvbT6JAjMEEAEIAB0WIQQ6
WmYIh9nsNNZi+ycEsIyPFST6+AUCWhl4FQAKCRAEsIyPFST6+KNcD/91kvk2JaU4
M795vOLeAFT1HSctOocLRA8U79i0HwBTVGPK0599gXewN0psOJUw1GxU9yTfRCY9
ZyxGllnuG1HaZ6pM32bOv5ee9lJRDNeqDXfw/45dlEnly+d3+LOt0RoRh0BTRECo
oOQF2TbKfwJqR8uk/hFDdz32rSDiQK6ijDY21HioROfps0XXHMuBaRmSFXPHTFNo
AhC99t3STOlObbR+ERlcHnmz13P+wuiWobRJA1LhNsa3faqY/4G10kXvTPArZB0c
eM/T9kSfMjnD/eQX9w9qiXsRSRFksnJDRIjjybyEWORwcw95JQbOLTzb9KcNPD5O
H0MDK+uj0D/jNKnYrsgucJ4QupC248lbmGkA/mMKkx6RZn+B6HgtI+XHYDp1sEev
ac0XeiOO8emvpa7FoqA+fPlAf9zRFnpq0+xQ09sidWxai3dEZ18BjpGkz4l/N/Y9
+fhM6jn+jxO9kEtcp4+1pLeNs20odbiIy8fSuDOI2SI1lm0r287VSxcqIKKuAHau
Eug+/HtSbOZRn5jjw2jno504bkvp+33C+ln/ykX3NP+srIU1U8kocn53Z0jTMJof
Jmn+9wgLQ4c7mVN4jnBQh+n3PJuuPRVfv00vdwGzVT0aoa6AoVD79Mzhojr1AIX6
thk7GNBRKWD91FZlrELtEGjFtx1tMUxyzokCOAQTAQIAIgUCV2A5bQIbAwYLCQgH
AwIGFQgCCQoLBBYCAwECHgECF4AACgkQCF8+vY7k4RXh8w/+O8cOffhQsm8StW1/
lwmyIT1WCxOH1wRl5HTUbQX7i49uZF4gT3UfR/fPvajlvEOjrpyddueY5oizfHq1
dXUJ8SoVrmBfLsLKrLpncZGDiwpkmcY1EUqI6np4Bnurq0Vprz1JLZFj5avxaskr
LFltAhv8x9AIgFe1G0d8GmxlSQj/PSIc/73P6Kf2A6LItkjdD5Xez56G8dClZwhM
8EkXsGsyL4/YnK4DdIdBRJ2/0uv6O0S9eqdU4XSLfN8Mh3bGaP04CceagHGxuILv
x7I8pUdsS0kwFGnu/uOBnemMqpi68FOA9siPuBS08alvYIjI6ZXyjqNzXaRDpSrY
sdmt/YCaepH3P2ery5gEjnhZ+vrvLHwyKutMX0WBGvtpLWqJCfGAm487vvVvzkhL
am84r1IT9B7Mbd0zTDUd9P+qY2iUPlaSxsbfm2M+RM4EIKXRR1mrGzZOOkOwgVVS
PZU0ZVHPDtMVXDkCQdvmRekk8TbhgubpmaEV/hWQXMIDa5KZtj6eeHXkcB4g67bi
3QPChHp6g2dVNn0JESA9HVe8dxG51IKI2z9J1pf8O4aqoVWIWgtSCPQxrPpcrKna
IkZTdlC1aLRC25BGmmud3Vme9sr0A0t2h4B5TnwEKcxvk7Sd3/vJgLv+EFcq/53r
p265FzygtauDO7bxaKQ57Z4lATiIdQQQEQgAHRYhBCcM3NNbnX4mwtcgl79TrVIw
itTsBQJZ+hL2AAoJEL9TrVIwitTsvjoBAJiePezU6A/uhUWCGJyT9+NBWkR7J12t
1Is+ubHb7Ii3AQCu8EvVWk4+AxXrqs1QFHeWlzDWfbY7s96XsPod+aPnodHNXc1b
ARAAAQEAAAAAAAAAAAAAAAD/2P/gABBKRklGAAEBAQBIAEgAAP/bAEMAAwICAwIC
AwMDAwQDAwQFCAUFBAQFCgcHBggMCgwMCwoLCw0OEhANDhEOCwsQFhARExQVFRUM
DxcYFhQYEhQVFP/bAEMBAwQEBQQFCQUFCRQNCw0UFBQUFBQUFBQUFBQUFBQUFBQU
FBQUFBQUFBQUFBQUFBQUFBQUFBQUFBQUFBQUFBQUFP/AABEIAIAAgAMBIgACEQED
EQH/xAAcAAACAwEBAQEAAAAAAAAAAAAHCAQFBgMCAQD/xAAzEAABAwMCBQMCBQQD
AQAAAAABAgMEAAURBhIHEyExQSJRcWGRFBUyM4EkNEJSFiOhwf/EABsBAAEFAQEA
AAAAAAAAAAAAAAQAAgMFBgEH/8QAKREAAgEDAwMDBAMAAAAAAAAAAQIAAwQREiEx
E0FxIjNRBRQygSM0Yf/aAAwDAQACEQMRAD8Aaha9oqK7cmmu6q8XR8ssKP0oOaz1
w5bnVJC8YpRQuG+sA/qFfvz1n/al1icSHHnPU4fvVm5rs8okO5/muAg8TpBHMPbd
5ZX/AJCuoujSj0UPvS3t8SJKng2zucUT0Ceprcadm3u5JS4qOttB8udKQIPERGOY
VHbu02eqhXL8+ZxncKxci1T5OeZIDefaoidPSEnCpyz8Cuzk3v8AyBj/AGFdmbyy
6eihWBNiWOn4hZHvmoT8pNqcSC+sk+5pRQprntpRnd0qML0zuxuFDKRq8rRyW5Cd
57ZNZC4awuEZ5Wc5B6kdqUUYEXVk/wCY+9eHbwy33UKXZvii8hzC1/8AtcLrxUcK
cJc/9phdRuTHBWPAjJx7o0+eihU1KgoUuWj+JTsiSlC15yfejnYLqJzCTnuKcCCM
icII2M637+1V8UsfFBahLc/mmcv39qr4paOJ0dSpLhx5plT8DiPp/mIKm5riHDg4
rW6PsFy1dLDMckND9bp7JFZu2WR+8XVmEwklx1WPge9NJozTkbTFpZisNjKQNysd
VHyaqLSmzkluBLK5qKoAXmedKcPbbp1lBQyHX8ep1YySa2DMYgDaMJrgwvJ9VTTc
G2E46VdAY4lTzPK4PnPSuaoHpyBXI3NUp0pbT096sWpCI7H/AGLG7HauxTMajf8A
yy3rfHUp8UvmrtZuyJjmXVIwegzRr4gXxCLe8kAFBHXFKlqecXpqw0skJV58UDeV
zQp5HMMtaPWfBllJ1lIR6kOLKx0718Z4gOraKXlFah4NZF+Vy0qIO/4FQ0qDit/Y
+4rNNf1g2zS/WypFdxNzK1DFunLUght4dwPNQ7italhTeSjHU1inH+RMQVKKR52m
rOJqAtu8tatyT58Ypn3vVyKmxj/s+ng09xCPohxX4xrr5ppNDKzFb6+KV7QxQ48y
pJBz16UzGhkr5DfxWrtfaEzVx7hmwvSCuMr4pd+JieU6vIpkZ+OQrNL1xd2FSwmi
W4MgXkTP8ILYH58yfsBLfoST4ozQ3F9e9Y/hDp4wNPJW8nat9RcwfbxRE5DaE4T3
plJdKAR1RtTEyJ+KKU4Jwfmue9bp9SvTXt63rVlWOgqqmTVN+hBAx3qWRywduqIS
dqMA/NZ67arW0lWTXFwOSFFRBOT4qnv1qdMdSmhuOMkUopk9X6teegOpQdyVAjHt
QTu3McWpbfUnqT5FbjUjshh9wKSQk9MVkJjC0qKx2UOtZv6ixqHT8S+sFCDV8zPh
bnLIURu8g1y5CUqKlOlAV2A7VYPJOxSOWCvwarJjQQwlO7Cgc48isy4xNChyZ5lR
jyS4QQPHTvVbzi25t6gfWpbtwdU0G1q9IHQVE281/J9RoRyCfTDEBA9UNHCJf4hT
KCclJpv9HRUohNkDxSecFYy/zFAJznFObpZvZCbH0r0T6eSbZMzB3wAuGxJ133fh
1Y9qBOtIIl3phD37ZcG7Ptmj1c/2FUBuKcR9taSHAyXM7TVgYBOuquIcbSUcNtJ5
jm3DbaKxts4n6o1HN5MJoAYJCB3NV7bAlaflLltuPztpSl0jokVn9MarTZ478SPG
5so/5DO5NA1KpWouWwDDEpgo2BkiFyz641Jb8tXK1vKGcbsd6tpOr7ZsH41xMJ1X
Xa4cGhg3dtZakioEZp11rsHd2Kk6e4OXa9z+beQ6EDr61k5qXqscBFJ/07SPpqN3
OPG837evdPI6fmDX8HNfJXEHT7jWxL63OnZDZNdVaa0ro+OOfHjIcA/zAJNUVw4m
WG3pUI0JKsdilAFTaioyxAkeAThRMbq+4224ObmGXwnPXLZ61gJioyVEJUvBONqk
mtZqPi2ic6Gm4nKTnocVXQZLcuaiW6hPL3g7CO9VNZqdw2lGBPiWVJXoLllIHmTb
HwtYfii4XycLbHdGW2wnLih74ql1hwxhphuy7FcPzENglbaxhYFXF/vcu8X0b3gE
oSAlvwBVhbbVKi7Lkhsqi7tjgB7g0ja0KoNMJ++/mIXNamQ+r9dvEXiQhaCUqz0N
fYrpQ8nFaTXMJu3ajmMoGEbiQPms2z1VuxjrWEq0zRqlD2M21OoKtMP8iHXgp1uj
J9zTi6eH9Gj4pOuCIJuDNOLp7+zR8V6LYf1kmAvffaS7l0YVQm1vYJuppEZthOEI
cG5X+ootXL9lXxWbtzu1L5c2hvd0qwgUy8y2WuxQzHmuJbZcb2pWpPnFCKJoOfbp
0qRbGUPNOk4dUBnH0o56sjWzUdmeiPSG21YyhWRkGl0Y1LLtV1fgKlK3sqIBCuhA
qGoUBUt+pKgYghYY9CaalwozX4n0JT12dgKsdbcQo2mIpYaAclEekDx9TQ+07xBk
Nylh+QQ1yzjcfNUsO0ztc3pTyiotFXqcPYCnltvTGAb7yrMe661uDjgC3FKOSono
K0lv4aMMJ3TV85flI7VuUR4mmreiPFSlJA6nyaqXrwgJysbyr2popjk7mOLngbCZ
C88PbbLTtbaDa/BqRY+FEKOCu6TtjWCUpQcferV+4JWUrJ9OegqYzZH9ZFyO2tbb
KUepST1x9K4aNPOrTvOiq+NOdoHZttS/d3xGWXC2soQoddwz0ok2QCz2OPBnECQ+
rmrQT+hA961lh0ezZ1mJFgJYbQCVy3xuUTQv4lTY9nffjRppmT3zh13whPsKgCrb
qajSUs1chBBNxBQm5XyXKZ/QpZ249qxbYLbuwitvckf0xyaxjvSR/NYK9Gapf5m3
sz/Ho+IduBiP6tCj4xTf6e/s0fFKFwTWltSVE+abXTUlK4qADnpW8sRi2TxMVee+
/mW07HJVmhBr7UTlqjPNNr2Zz1FFa8uFuMoj2peOJlyJWtJ696NJwMwQDJxBHdtU
XVU1Y/GOZWo7Ug9K5XGx3Kztx7jLCiZA3JUa5OSmIs4SXWudyzkI96vrpeL1q+Gl
SLQ8qKgZSG0HArObVNWtiT2G5l7umnSoA7naRYkwyko8EnqKNNhvLFmsbLbYS2VJ
6nzQb0XanLzLWkgsKZOVIX0Nbm4PiKEhYBCewz3q2tCWTUe8rLkAPpEsL7ftyTtV
uKvIrPOXZTRHNUfeqS6XxKXioZPXJ61RSLq5LcUT0BNdq3SJsOYqduz7niaSdqEk
p2naM9BmruNxGn6WgJdhqC1L/WCPFDhSlKWCa/PTVuIKVdh4oI3jYMKFquRNleuO
l5usVcZA5ZWMFQ6GsEtbkh1TrqitxXUk1+jMpU4pZGa7uJGOgoBqlSsM1DmGqlOl
sgldc0b4i8DxWFlJ5b3wa38oZbUPcVk5MAuvoTjurFUl4hYgiXFm4XOYUuFMgtJj
gDBNNtopKlxG1H2pXOG1rH4pgAYAxTZaSYDMFsfStvZKUoKDMhdsGrMRJ99GYqvi
lz4kxgp1wn60ydzZDkdQ+lLzxXjFhbhH1otvxMGXkQNxZ0e0XRMl9gSW0HPLV2Jo
q6Y4qO3VxmIiImO0ehDaemKGunLOm/6kjRHv2lq9XxTC2uyWDTrP/REaSoDBWe9V
lmKm5B9OYfdFNgR6piNZaPFvSu92sllxQy634P1oZTdQvvuEKUSodyKJHEzXKURl
xoxGFjBA8CgsFLUsqxkGmXdbpsFQ+Y+1paxqceJKkyC8c5rw2rIwfHauYSTkkYrq
22SRgVVZJOZY4AGJ7Klbe1Q31kkjPU1NdbWR1GBXFEPcseaTAnaJSBvOkRo7RXZ1
A2dKktxi2n/5XN1s4PSiAmlcSDXkyrcTknNQHYzbTvOWQlKTmrVxrGVHpVJe3wlr
llJO/wACq6thVyYfSyzYELHDGey7Jb5agTTQaWkKXHQPpSicJQWpzG9OxOR3803m
lVNqioKfatVZuXoKxmculCVmAl7cCQyrFA/iRaH7k4sJQTR4dbDiSDVRL08zJVlS
Qf4oyCxYLRpKdaZoltNHekHHSp70a7yMhalhKu4pihpWNjGxP2rg9pCMQSG0/amq
oUYWOZixyYrlx0dLnO5KFbR5NRWNDvc3Zyz9qaBWjmskBsY+K8saKYS7u5Y+1Qmh
TY6iN5IKzgYBi0StDSGcHln7VItugX385bIplZWjWHUj0D7V2t+kmGBjlj7V0UKY
OcRdZyMZi5v8OX0oyEE/xVWdEvsPH0HPgU17mnI5T+gfaqp3RjDjmS2PtXTSQ9pz
qOO8XFjRsh0ftn7V9k6IfQgnlkn2AplmtIx0pwEAfxXYaRi+UA/xTumvGI3W3zFC
naBuEo4Dakp+gqzsHDEMOJVMjlZV2WoZxTSv6VjhPpZST46VGY0ghTm5wAjwKgFr
RDa9O8mNzVK6c7QOWvhwlD6FxWygA5yaNGlbc7EjISvuBVvHsrLIACR0qe0yloYA
xRQAGwg5JO5n/9mJAjMEEAEIAB0WIQQ6WmYIh9nsNNZi+ycEsIyPFST6+AUCWhl4
FQAKCRAEsIyPFST6+JIxEACcDLeY0S06rZ62sekmcdZme6TSXqidRf6emQJpxECa
k7PFz74VuMvIFH8USw3/LX59zVrW2Pm5eHSx2hxR9GxtilQIMnwW89HV5dnJpeVP
ESTYQpp0Gn83NWyy4Cl4Yv/xcC2oBZKcVBS0LMcYp9fXkDavKfek3nJYrT8hmQsR
U9Kz6TBZgHn0VRxnXOoHrIxl1565eyIBgNRyDbSDtyHCTrGvnsyVB7LRiU3SIhBw
4/wtal2mQPCL6evmEfGUomoHyBxS5OEJT9ua2hHVml+hipGna0jjja6pRk+ahHXS
9qS8qDEz06DM9F26KSqRbBkFVM0xOQ6NzTM+LubmjzyCdRkPgR9AeQchykNE7oin
I0Vda3wNBMjDlH/7hoKZw7G/LgVBDBAXrhhTbx0WygdCFTTrEkEZpDoAX6ko2zKD
uu6SKZnCireqpSSGGnewggw5OK6drf5/VM8XF/zppjS1Wf9lba02UcAu6FzwkRd1
1NgbNXczQvvCka95+O201nHYj7KXn/BYuiHIaBdmS4nDnFljQdfz3bPFqk9kZ3s8
ZFpxvZADn68JQsktQx5y4bsETcieHcEKuW2uyEJRCS1TIjqA1W6PgNyMwtc8wJy9
LH9EFMSxDFn0kqgh40UH4VE36R+p4gxlEoOMY1UCS1k0RxHKJL2miGOaNtqIIXWU
GokCOAQTAQIAIgUCVB7zTQIbAwYLCQgHAwIGFQgCCQoLBBYCAwECHgECF4AACgkQ
CF8+vY7k4RW92g/+OOEoTqWlbtQwjL5pVewrQo6HdydEFveKeDB43whMS9TLDHnB
Z3uuz0VkkwkYHMp45CPSgCX6Fi8Wr719ZAGSvCBzCVNU9jE5EH7kzFv6/WLsoZfe
JQjm7+7alqVdMnjn13L4qB5T50j2KkaXxScrO4qQNAl2AXoK7QiWG7RiaHxaFrr+
12z9loZytkTQG/FsD63cofWjUZqmo2DzzYtpPD9RbAm0IskIF89HRL7E15zbEWiW
xpPK1Dbfar9ui+RirajdZgubdpRfPjGnnOnW1I4hunnE29ZBlDTN4OXCsGCBe8Jq
xjipwQ2g5lUSzFCu27/7du/2JFNHLlfoFPS4MVcuuV6ZA+IZK7t4ZduCbYn65ch5
YkYHPpcYrMG2ljOR6LNumFMgXWCm+FIoa+xNbYujYJb/G0QDfwMjVPB9y8ewJ+9U
J5NOUJ5oPfGeSXVhgFHxSUiZ/wf/OjWbMGim7xB2uPa8TW6poyD0qkjqVXfD67+y
q0DEglANehN9xjWB8kdbWN6aI3drIL1qvE8qW/DO4jGe0YhMS8B65333Qm4/nb96
KiHE5p8CLCpwIPfh4cMdpNGiR4lGTa3Uu5Q0uNDwHWJdWTgLfd0u/j1VFeXSwYRT
RYMA66F1ijRaIy8tbBhDshZhjZnxoDjAEqWceCl4VQWhOcNhkjdVAB+qK+KIXgQQ
EQgABgUCVboNrQAKCRC/U61SMIrU7EtaAP0Wt+8tf7fOWaT74w8dMRGklcjPsmuR
DEOz9R7skzcTWQEAgR7YJzaok7wfGUx3yT1EPviLEPbk5p4HfLbJFw4OVxCJAhwE
EAEIAAYFAlW6DVsACgkQ8EXCuWmRJW4qIA/+KltU9G+qnStyTmycHGTE8PWHcXk0
SSTOiHxXlEWy9J5WM5LZtZ/yxoz0p5o++JQHGLHNyl5oXZKK0y0c+Sknb11knSDZ
qgugiHfn5JiyHMX2QDxnX6JPZ5MoVMUtFz9IiIF6rn0dViMDWWnlhDfgyp6o9znh
YhZCdUHf155gNxf/zoquPmedBU5mto83Nu8F9rGndTwyf3ExXgvb/SEBsUuaca6s
WUapZ+bKzbvdj29WpoeuQRHtf0XJ7M7ISqClHLhaY/3Th8WG/gVYZqmCVeWlG+qb
X4hp3qPbT1dKiEiDFr4DPIp8MDLsA8jJCNgAKy410E0Gmc6KGisnpZ34ZVtpGx1L
mJQvOfs2EDCQpxiYwtaW0tZic8F+z8Kd/SmCEftvKmTL9fZwgsNmx+EOpJhTzdBK
gQfnsKzhzKblske7CbMypDrHPaSVzS68v7tambE9KQn0fa5nX6IYQps5dzloNhDq
hgapLfp9nuwCnXQ/6YpygyxcG4xWqkGfsGhkN2JAhDZ9J2T9YrrMmjUlp1EA6OLB
gvutH2ctIpS0ssc/NyNl+jbP1vtgVolYuf8ciwvNCKkyPt3jsVNtnzZoUkmfzxqk
PMaGPqZ5nlnVxubVBa9rhWtU5EB29u9m/K5VYVQD1g8a9AhpNQLOaeDUP7uIYbfa
l4OmpoLNMIOXate0Mk1hdXJvIENhcnZhbGhvIENoZWhhYiA8bWNoZWhhYitzYW1z
dW5nQGtlcm5lbC5vcmc+iQJOBBMBCAA4FiEE+QmuaPwR3wnBdVwACF8+vY7k4RUF
AlulE5MCGwMFCwkIBwIGFQoJCAsCBBYCAwECHgECF4AACgkQCF8+vY7k4RXD+A/9
G2iFzwgqkZ37TEHDT0aqgju8NiikMuFEcEAmzQ9O3DnUBbpyxsjzO4ZGbM2Neho1
R+pcfp8P/aDEya+qc/cc3dqgF7oG5kOozgiPQj+m+dl0BGUKbTkyYM8x7hnkucFv
JvCoqvvMWz41CqAyFz1+Sz7HoI6DWBCxFx6I919XYGn+zB8yaEtyD/ynYd/l0Tpb
bbBnoAlZ1G4RY9b1TT9UlSNhPkOdpoJUFQWPP/cgytKVu6Vy1nHCt+efKtuM9G/3
Phho5j7LEbksEipCtoMYqKvluOkWU3dPoCRW6//UMb9dqmng01Y8qIearGgUH7oM
qQWlZ+t6mxkeHicoRTB97xNfSk0EJY+qsQRRShHV/oP+Q3zajxcYKYoIBiOUq6qF
07gNbjitEZyFQPzzv7iqKQrxw5XLaZUMltWZaiUw9M2unennRP6pEZg1GOQ5L61l
9iheB9lkQlmJOpjz9VxT4tomA6KA/MDdrsWRJRUgxpo7VQXOC5zFrvAnvc6kW9t/
b9GGEXXSjx/TFqbURuQa5R5JHhjJPeQUIdyPoyVPHkm5+llPHAE9KtNy6+l9GEg/
qv0sR9b7l/V8WXaQvfxuNr7OPU54M4NbdgedunU1XAiuak/gVTNnpC4ACcjtpjka
P9shr/PRt/4nSYNve1ys86hgxu2zcqPf/p1ZP39WMke0MU1hdXJvIENhcnZhbGhv
IENoZWhhYiA8bWNoZWhhYitodWF3ZWlAa2VybmVsLm9yZz6JAk4EEwEIADgWIQT5
Ca5o/BHfCcF1XAAIXz69juThFQUCXoHOBwIbAwULCQgHAgYVCgkICwIEFgIDAQIe
AQIXgAAKCRAIXz69juThFSAuEACZY25yK0kn1IoeEDzX0fmXjNN0byCgdwmw1bcW
60vDovBdpTZMqXJJwOuKYLuZau1SaIbPJIbH254jm+iCgxkMluKhn7g4FGnNX8OB
9J32aT8MDsTSRAIIyOjoffTGVdA24ndqad6yJST9DOetR8KsDIwAgKpeX1CVkXvs
ybw7eznZI0G16PuXH5LJv0naxo+AKt709P5U2DdTgZQKhX7hh40aok7Wmvai2uLf
cPue33sonQWReb3uIRsBJb7uNe+8KRyyIShzEChwSUDLTgobzwTledJUXn7M7B5k
LquHCx+YP2OO2U9Ayr1uKEUd2Le05OCHSx1mfezLEm13GdmRE2cgOmxa6mj4JoaH
Na8uggBHxyBZqz49dwCvmJN+XdCdDK7+kWIoNTQykZKOp5EygCd+ioCvayvylalR
1l4onzCPZ3eZMCWjJ8+dN/nnoTbFEqxMdtugdFiZhkjA8JdkaByaaZ7sWQTWk4Cy
TnBuWOrEF0CIrM3G3N9Tijw6DqP0vN7s+DvEJzT47mGFnFE/qsd73mUjcN6k+jTL
sAuVvzPbZu+8VcioTvsEB3jqj70ZkKay/TZznDyiMdXkeSt7NqvXhheLx0gUojGI
fBoa9E6H0cF7WzHvyGND9C9pzqBMlrtPpQNFbvPKn8TffniaV3ElMfywg3RKG5n0
uvuAU7Q0TWF1cm8gQ2FydmFsaG8gQ2hlaGFiIDxtYXVyby5jaGVoYWJAbGludXgu
aW50ZWwuY29tPokCUQQTAQgAOxYhBPkJrmj8Ed8JwXVcAAhfPr2O5OEVBQJkCIX6
AhsDBQsJCAcCAiICBhUKCQgLAgQWAgMBAh4HAheAAAoJEAhfPr2O5OEVh0AP/1nv
E34+yM/VmcRx2pANlNw/qGKspcRLS+otLKbscKiskFcu/Ld0aktKaH2fvxclHS9m
uyge3bhTHzjsVh3WsfcXsadBOAavKR3y9MWqhKrIVHHeoV/LHTk2IQrwg7ZDv8F/
asCf9E8E91ls9Vb9fIYglW8KiLcpS9z1t3FaDhhGCaVOyiIwIdY2Q77EdShnDy8k
/Qck41XUHpgMhkKTSzeqXESRiCkxXqlm2dBAChxtBuVtpJ72edvt4hooTXkzQFGm
CT+qM2g8Dph2Ca9sujr6s6n7C72kQfHe+YVgp+NEvRqUEUSO3y4D7kxx0wyJjynS
CoQ/itWKE6ptVhhRElP9mt1CQ6jync9lb8Ikz0sicPWVkz0on0tY4sfV/LxZ9g/F
ZD+nRofZjWWGz4TK24GcS6qJgDDPApbWk9ajMK/4sNzCWC0b+6ks9eHVjJGDnkLh
iD5Kluo4J3rT3P5nMNN4Q8CBQvoaF9n1iZz4nyP6EoiceH4k20TW+4p6f8K/wAqf
rhYKV9+8TmKtHEkgR0rQPjffWrJG5sTD/9qxQiIW3MUrHQn4NclDqHb5UO6qy2w4
LyVVklxN8zHPm4Crko/yo9b6FFrHxn+gGKKsYD9HD0p1z7zwNtYH40uZ83GrOiwm
tEEMVW7y58cLgRPr8oHNUfxa/znbWK69vqeeGF5RtC5NYXVybyBDYXJ2YWxobyBD
aGVoYWIgPG1hdXJvLmNoZWhhYkBpbnRlbC5jb20+iQJRBBMBCAA7FiEE+QmuaPwR
3wnBdVwACF8+vY7k4RUFAmQIhd0CGwMFCwkIBwICIgIGFQoJCAsCBBYCAwECHgcC
F4AACgkQCF8+vY7k4RUOzQ//f2SQkx6GEXPqxVQVr2t8GC0YaZmW8KtknVGx7ub/
dPzcZyTk34KDH0TH0aKJYXAvZAGYVSEguHT+K+ukYzK9cPm6pPLCfJBAZazrfog8
0mJ5E+r8Nw4g4TxHtsBSjjYetJMrRH1/NuyadxwDaHG5sz6s0keW9fX826sReYJU
4c+np13xtZIDg5uxHOwMOaKXjJQ1c2dUElYSCwC5DdApbhfA65u2aNUjJFKu5pHN
5lWvRAef08pR08eXxjC3RoSJ/30ZJ4IK6+SpmsUIzAzmtPIoZdmocKse2g+mVaBw
ZS2QKsDm7rSTynBQQHxWMWBAZ/6FnjBe5+ckHh98b1RFQWQuhqAhspgGUlu358Th
Z+c+d7tDmYUOgfgl7y9LDyKYDVEZ7iuFvQjsyix6zonnqYSLUO1S8S84z+mnKBxF
yUFpa+c+L2UqB6oTsvcOUc2oA+DG1dgkUnZrb8EWjKnW89J2/7wxTsfBazaoq4JO
YKKkgNxwtYW+J7YAqySG5zrW+dZly8ZMqki5VoTMFBrxN+x1/ze6i+oBFOx02emm
JX+XEtBMHZImZeyRQktyJ76yIDNl73LgsazYYTHQ/NFAJ4p8V/7TUjiihVYIsQwf
nOlcNEBxgQzs4PhvHVuOeDZ0q2MbO957IYm4pxtvQIvA9QVof1Y5rudB1sLiMkKv
Jsq5Ag0EUfJGoAEQAKBMeqoisRV5pKGcGFjQLiBnTmGAUPfWTU3sNRA1cdcW5ZLI
2iyp6QCYuRL9oHDtxdOvAgSga3aJnQaD5nvouFTpNkeNckcm5aMEGyW+trAF1MSk
5J05cvAEgJxabEtoq7y2w/+AokQN1mQOIgHUXZv1cwL0Yv0HeOkdkLYoM2ffzod7
tkTiPJzcPWyCvvCTR/DCmJvzHLHNdDrgqGJeS13TlDctun4gHtU5rJfSYWBD9qgE
/FL3kK0GeV+xy11dSV4fYljL9QKcW4T1rbemF/Kz887jBiMyyCJ7N34aBURsr1JA
RNrT6uTXptmhV6DxTJ0mT4D8CMbC3CR/r4ByMKKFZSaGrLNtOgkbgeeI5rN3HNlu
2ipb4ahtn+5ohsuWsCdMMhygxd9Cde+7mM31ldpmkb8iiZKPzdHTXMYW39Pk27py
IEa+z5hDHkVIFMFmAyp+ScSl+/3ETviV4bWkeH9pWLRXqLTxxyYI3XRRSRMxJ8If
NY9OFrhVMtIaCHh/mdEYRpOJsV48yX+VAq/2TYMfioVyMNMOn2/9TX8JKok72buf
C/ZW+OYNMahrJhWbiVuYoHeM9PSARZyquBuvBAE+BnFlcdZEa1jrYGGa/4TVwsWd
yWCIxHYsf9qm2tKDeXikZbIkhRlByajpsPRH9lg1bFDdnrP+Uq4BWNd3E59PABEB
AAGJAh8EGAECAAkFAlHyRqACGwwACgkQCF8+vY7k4RWMEw//fDBzkeEKacjbiG3e
CZVboBejHGQ6TjDtNsYlKEYpl2nfftoXrqep6iUH/7HxV9xZk0hcP7VP/IUY0WFO
c1BPOVnvCfIj5CC6Zr6eYGSdfqX3HRQkSNUVmSgKaCzFYGMz/w4vKAB4AzACqh45
7IpJ6Ro5Fl5ENAoxGGEi6BbgOUm8AahTASPsp8KHkB2ZRbreomK/9RBwuZsS0HzM
goL4+hqf5rByzx5Jce/wKha8Ph/Ge6gWaqkAbhXMMu4xa23MaCpBzSdcxWvb2kFb
KDk0Ch197JEhfI/RND1X8Ybxwdw3gI8JY4CUZdKs98SNTVb5Vo1XUMDMbxSWZMzl
OKeiGzRxLYN0R0r94iI0krz7FEELTYkQKw6I5V2BeCZOUQQn+YZ+8JRE7Fe6xi1W
YgZq5ZxaidOwLk2GKr9XO6NzPw1sDF+4hLU7XxGp98QpDUQ1Se1PZLBAbHv7ppi+
4l4lsohiguSWbGVQq1O7coZP2d2C4SpdB1te8oaOsvM/qZadeloduZaC2X2Zo2Wr
OQfjke+ViEms/FVSwYwhi+zCzCzeg/yhuCLVkWOHRpztwYyH2oC2bdiBVkqaH38u
dZiMTnTqNIrLAtBmU4L52MAmDgiTj0uwhjkbzGSwIBNivc3rNYk/MtCrzh/nmCsv
UTouhC0nHztZ/wR2zlwQ+Q+Ef9m5Ag0EZ0QzHAEQAMCCranQOQK3qfn3Ipq5A2m5
nN91az9DR18wg6JxW9u9j9iVNwS8pq65Lkb/dvlyqSSCnkRwJbhTCXawBdpyMktt
+KhSOD8HLRaKgXcKSKDMtrN7jUMzgDLGrYgBBnkDTcJT1mNBiGKl/2BS0aD5ctv3
wr6fyXwQjNs7A2QapactWUQBTnZmB76kVLbpF6XmBZCbyqpHJC3wyx8Pre7T0xZK
gC2S+npeC1tJ5PKdBdxx2yG+tUppg2EJ96ScA0KR8DFOLQavx1knKBSIpSJpLMNh
kiuhkTarJI8RUnpXMrc/B1UlsjvtOYIHUuaGYrg5Wq90VD7QBDVo4o89y23lAnxl
mSq6P0E9703jm4pL1EHVWhdesRj8JgdEyikYdjs4zWAvJqKlYXeCafLOz0xbTtgb
slsd4oGxMHNivrR7N0qiOw+byZ/2UBppTQKOMPmgcHanf2gQqOwi2OKDxTr1JpaG
k1WKdKDk+92Mu2TVJuUtNSHRJ0uUknJwWETBX4t0kVrGCtiyxX00rFrMLpi/Eewm
veK3k+hpipq8MYAuVVgDhCGrc8EEd6hqtWqRtGGFPn+0jbK/nfdFiJQtIajj5NX8
tv1prC3tmrIwQyfIYVkkDbGk0Hya/4hFrWITWPlpbOVlogZ3BOK5gG1dWeMU0muG
sJov9RhlSpqxy2HXgRqhABEBAAGJAi0EGAEIACEWIQT5Ca5o/BHfCcF1XAAIXz69
juThFQUCZ0QzHAMbIAQAAAIND/9ksKNzTsjWkYL80kEfMDn+7/eJKM8Rir6HEo2W
qfLUH76V0YnazjdIW4e6nKwImpsVWy3i3Hu0mvzbUX32lIjzK3sI9ZZEeJUR2DP/
bbsugGdH3RrvYa5kCI7/+3G6QHJyNbb7NLOkJxUGDII0AMH1aJoMLucm3DGHYO7A
K4/cw2Bd4j8kbVRbEnRnv6RWHKAiZVUTXqsIFplf3E4kw0CkhWGw9HNZDrKcnNO4
3R2MX5zdp/u50Wf0m/Wo6FvZrdhbdeVFWThNeYzhOur0gPKp5aWZZHnx+qgc+Kqd
S9AZZlSTGnj/Yt/qZAmJV5TJDpiPGr/Ibk6niMWC+bvbOFV71MFXj83h77XzG28S
1VqFmowZ1w1dj630y9mnR6rl51RyoqQwBfnKJ6Im7fZM/jUCLWU5G4yuCCEB0TdN
WU8h8ursTQPQ36GnhLrdE28+XSB17OQpataF64hfC7nd4dggXHwPGv1YdZmGWvog
xGRf/T8g9YhsB3pi4PjKWccswXkf3vZLzeH7vyqD7V9YSYCh3AWJNHAc0jU1u8qB
/JR5E95YdGiKUm8GfW7F0XjFG/BNem/F13YOvarG3e0R8B3o0YRRCcCVU+1uhllI
C26xpY+hUTGmeOYW0lUB5waznp7p+ohBu2jMudoj9son2q7CdVuCPjgVI3etHJNg
IlP10g==
=QXhq
-----END PGP PUBLIC KEY BLOCK-----
