pub   rsa4096 2023-02-26 [C] [expires: 2026-02-28]
      8CE1527A4F9A2398C379CAD50BAA159BA80750A9
uid                      Andi Shyti <andi@etezian.org>
uid                      Andi Shyti <andi@smida.it>
uid                      Andi Shyti <andi.shyti@gmail.com>
uid                      Andi Shyti <andi.shyti@intel.com>
uid                      Andi Shyti <andi.shyti@linux.intel.com>
uid                      Andi Shyti <andi.shyti@studenti.polito.it>
uid                      Andi Shyti <andi.shyti@kernel.org>
sub   nistp256 2023-02-26 [E]
      0137CB0D498D2E56F5F0A1B5660883095B896594
sub   ed25519 2023-02-26 [S]
      9C0DFAE341ADF8B8E95DD552DA78056626D32D6E
sub   ed25519 2023-02-26 [A]
      3EBB79CF2ECB7C0C81E95E0CE324667B619C6E26
sub   brainpoolP256r1 2023-02-26 [A]
      97A71D25906CF88C36D86BBD05E2609B323FAEED

-----BEGIN PGP PUBLIC KEY BLOCK-----

mQINBGP7OAYBEADJ0dCLk8kZ8sKQVgJ5SzBPkh1MjK1/9fGOIW203l/hYwF+53L7
E4dPt383iQOY/dye6+7Kzdg7B+SyC9vJlk89cJMN+CRT5CSkjHli2Nz8VL+i7l+I
NPxFdjOEQP86Asq5VXp8I4ONS+aVdWbWFtYFbWgHVJWsslg3NGpv3JJPDyL/cgsj
jgnjNsTiHX/zwBW/oa5jFpLEgbL7kFT5vQ7TdjqySwYdhP795QboR41w3t0OfXBX
LXWinhFqB0HiW4621eIR9D9JQLcuZxPMXYmWHRbDOWZ2Ps0hvctAJQOtQu6++nDQ
P/ov1cMi9LkftwwAv8KzVYm10sKpCtDZiWOa7JxQOu10qT3Vn2A5coRG6mBp5mxc
XOXrun173JQLNJesnBnInb3dOfqMqimAqxelPgqjO0iKdUwiC1UHXcOjAl1vuTUP
4jWChBDFrbYctExMizaKsFNtuPb1PZwVKGLhg9olwJ+7xHEiuqiv8vHwm9hklGeA
/SfVT54mtsIUeTCSe0l68Hu5fKCRxtatkiRso1LXDVsEtsNm7I45EdjGj0mtwE81
sybHP+xqfmr7EjfmDw9KMlR/S1VrCys2yYNKdTeEoSw2X1YoiHv4JPvQf4EuMWYU
H6ib8m31FmNwHW+LYymKbZTFflcH9BIuXKKiFHRlwLAVnIJB6A6OkLJckwARAQAB
tB1BbmRpIFNoeXRpIDxhbmRpQGV0ZXppYW4ub3JnPokCMwQQAQoAHRYhBJvQfg4M
UfjVlne3VBuTQ307QWKbBQJkAlCOAAoJEBuTQ307QWKbjDoP/A2YktdOd1QgU3Ej
KYf6GFJ4kwv+9JByaV9rv43irNrNa9nnOzqsU5Nit58L+rddNwYK/IpPptml8g/8
mErkFuhZG/HlUWQEBPym3TUvvE+7UoiKQGXelocmM9+z3f2hmJWHn44lj/dmTqwb
Gdj6WXXx4o5uGaDHcV8EbDp45TJNhc3gUHhhQVnWwlDG5NFX0wOmiUf7dYR8ksYY
cctO5XQ4ayagz8EsJDH5QG8e5QDDIscv058grEDrC2Vi/I5XfdyuAlObQZIuq+DF
EzMSF+nKhyCik3yXZwSIky6Ovap5bfFX7ueS7xSBWR0iJMBBXOLcQZZnWsULdpP9
lF7pClvXKpq4PNZfb3ltoZ6QRDD/PQoKYs7ftR6JGJxzvFKhuwVADV2v8VFsXucf
O4mzo7t/OaL2R4rF8HnMmXe3aUf+xWBrJ88d/kUVXDWvl/3YBRmPsAhMZJFSAbt5
TLfnm/eFTCHlGY3vQswH6eakpI2iok1N5dcBp2ThuyFIPiTbXkQwE4kGOBb97l8l
Q786wY7019IKevsG+T3IAN2/Vt+mPrkc+VHbQLaNuwavPpgKtFu7zNWt6vddsdVy
Ic9UofrBK/hbHt4b+GY+Cs/0QPAUB9yWwo//NBLCrWJhzHjCOcDK+Abwg5I3Rrh+
RrFf1bNfrXft0AytsjXR4xvSWcZHiQIzBBABCAAdFiEE+QmuaPwR3wnBdVwACF8+
vY7k4RUFAmQIhwkACgkQCF8+vY7k4RXOkw//YFB3rxqRJZ+KREQyFbAhaHpCEnDq
3KRTASJGqBB+ryiCyFHPXzWsBxh718Tkksqj/6P3iE8YPEAZP94ntBZ5r3oK83NG
mVm4Qr1gZGAvEfxteEi+sBMZK3ypem9qxbN8pZqazzkj65v3XuvF93aGGY1VPK3B
UhMxF8tbtHyC6Nu1r1+J4snch1hHq7BnUQqpg2903fw9Mu1ZDo+yXF5yU0uwmKWX
SGnVeetUAQYRsdDZYdK/eeJDSFcw15ykBKAsfh2242DGsNfK9V3bOup8xjMQJuFe
VqyXzFFPt2h0CsiKTv66GvgGhHLaMP63uAmHG+KnvYHamdSlwVisLC0RKPZCIb2o
9eoUc+ofb42PPJc9FnC6WV2k4P/WZCsQY9Uzu0D58r9XfPYpjxB9GBsvnRMsK4sX
sX9F0dD3Ij4Rqf4HYmJEJz0/uECwJlieY9E/W5qSopPfEj2LJv5UMvbShBlOK2JY
pZ6bm3a8/oLxxNKTFieB7RW5uf0IWSK9UCq44UzenhyldfT9dRJdkWm1hBZNPswD
dF7HcVupyirjjldjFk9Ojf4aaeyMXg4lJSk9wNzlZBu4OKSvypvYUEy5RWKOiCaP
OnKBmJluoSe6+eTralUyc6W8yepHwAE0i/z/FneIowAREXMKb3wXCO9/3lf+U8mO
FTVVKwgZkVePWH6JAjMEEAEKAB0WIQSxKm6oG1ta1F7issaczd8s3uvPUwUCZBjP
3QAKCRCczd8s3uvPU5EFD/99k0dISsdHuQaHQCn8bMCiwOiWThBIuAzbcWeMKtP8
sXAb9kH21WF1WY98UPzSE7P/AO5kPTCxS9Gth4vtmsr9Ysuhtz4N8U2zTnFRYgV1
MNjnfDhGJuNJPoUq6xaejz86/Fdc7B+Pf1b7BrJRk58NioukmP5K6U8wRUbwatBQ
X0M4ZSzQVtySGtIsCMLP5Nipd0oZwqf3Bk7HhaTyKYsuwllHin+XZVeZMRWv+MLS
CeX02T022fcLp7NH1I1lAuzyVh/1bxdo9cxUIgs8CBSVp1Bs5KJJf71fuaZHOy8U
gkfzDXqQ8rzgnYGQVYPFom7o9tSCydje5PWcaIZ4q1oO23bWXqE8yt5LZJdBZn5x
bh8I9dF/mjGJPUOkHY4PqX4eemgOClGuarC/b0q5MAcwV3jhRUXXIzMAM4//v6iN
6coxC3NpDTI1H5HbEytbnyzB//XDij9SPv06Kpvykjuimqq4WrG2o11cSvup0y2P
DltH3lkummQ+L9+Sg9p31LNYhdKPc0JNopizl+ZorGLyIxHljgQFsgh4sxTrai8C
cVXk/SZ5u5lBOyNwQpBmylgWJYFMWoWT6jRN/cCBVYR8huw4IOXid8P3TZnlyQIS
5wpfxu8T3++vsduTG/rUw2k1SLo3lDRzVFz26ZSfHv9JSLzjXHQMVEsNIDayz/FW
r4kBMwQTAQgAHRYhBG0gcGju3WUJHCzio/piX2QO6xPKBQJkLvDeAAoJEPpiX2QO
6xPKPQcIALvUb0mDQkXSeKBcPUjUboj2G22k+Wp6Mw2ERtZEiJAm0rx9VkSTvfNp
XFHSocACBSBO2/ZQXsfoSGw0evsnOcXEABTB1/mRj9mvQfarrf5NSjmP3wBk7WxQ
MoOO08CtlvamFwLANiVKLuY6UBdlQBqAUJOmL1IH7/1FXWtSkzelfZtz5PIP8+X/
EjJhKkpMWajScEwcyyWhistN40bTiggwbiJ4hsvGJslczcNaSYZpOaNf6aXLK0uy
WRu2IT9cRFTiiEXnS6wRM2tvqHCJqQ+s9blw9Hdqt/PJD2iWvCNO6xL54m0xKFHS
stLbVzDQZEYqIaMw2dfutv8COwYPZJuJAlcEEwEKAEECGwEFCwkIBwIGFQoJCAsC
BBYCAwECHgECF4ACGQEWIQSM4VJ6T5ojmMN5ytULqhWbqAdQqQUCZ8GlmgUJBaeh
FAAKCRALqhWbqAdQqf7cD/0dO3taKcWASMBtRdgN8ZAMa0Dd82s+FfCgm8SbnFbs
fj3LdPYoC8uNWgN+t7E9aJpgU7UMTz0vzINUl3Yih+opqGE3/4TQUx3MrC5iCv2f
q3/5/H4PYf7ZOTA7gsz0lRePhPKQjg+iapEZ3S/9POgbPCl7/V4g0zj01vsb1amB
SmNc8xiR5Pyx182B6HDhrR81DLS85pyNLH32Qul7RuRoiwAU+3zGlzjVojs3Y645
5pZv3a7NEI00ZmymVZ3qsqDrVv/pgDG7A+pacQAaRwtZV7BBa5akzubHkiYyYOmZ
twW++weqa6kQeV2rawbp3Bo5mGS0PSBa1EjTcljRFwWDVyM7pWRRAEXiu5/rxTGp
6RKwKXYpguZOKceJrHMZi+8oQ6R4Q8Zyw1agxwsQ78sBu/rWTOB3fgijGQte1jHI
SeKHTnKrekDPznK5GDuxTOU5235GkMIc7V2NvFW2lH4enkc7tvzZN2Tx2wukjrhP
qBNDHqkllW7oXwP2AUQdqFkYzEg5PEYoGOuBIQ4YjEACKOcbveMceRoD3UkvPwTw
pDWeS2/C5dwmwMS4LUK249qRElPuGpyUUpYD2BA9V+4T/GDW/+kFDIZuidTWMzFd
vpnuyz5sOLfn7jor1bTipIHadX07DcswYG+zoMT2e5mrEzBeKIzugyQEbEVH5Wye
jbQaQW5kaSBTaHl0aSA8YW5kaUBzbWlkYS5pdD6JAjMEEAEKAB0WIQSb0H4ODFH4
1ZZ3t1Qbk0N9O0FimwUCZAJQnQAKCRAbk0N9O0Fim3PXEACkF3GDXkiJUyTa5Pt3
ok+13JMUilsQ8Bs7i7IavwRqlggQznS8DsFA3yTqvM8AGQ/zHzZ8Wp0rgJwfJ81u
xg/crB2Y3zTeWLlWrEtFpf6fKHJ7CZjxalKTJaE+GSai8z0LGcE1X9RMm5NYRcsd
yL5lvfIny1/r0YfL9Bh2UMZSyrhnC6l0QKq8fITj5dGvVS+QacevYP3flz0MXqKK
xGH+M9J3BiJLbYI82BYHmO8tB+nkCDMrfHdXtJxj44A2jDYfCob0diu1suYQtjMx
ykVAe61yBHSwWgGPl6QSLtO+En7MZhn5vpVpsLDnUS4OFZ5kYZj1YWqvDVn+Ns/h
kMcRgeUOFkfg+JXj1oSEiiYpDEG+9iC7/F56gTdfyd0QxzrcvZc8jK5mu6fMsgf3
CU3SzHeMZw7dkFGFBVW9DViMoeDUUHfgc0DaLnyK1IlTLk6xIqSqnqStcGFzF5QQ
O4A3fmsjHON5PdBhIesA2mrfZUJVnkZrjJAmYqBoKS0r6JM+HIvx87G6NzC1/M0K
boqqc7zT8Upe5s8mGZpm1/SZVK+BMA0JJohFXAg9BsstGvqZ3YJTLVFjm3qP7LxD
++fWaq2+LVJpIllgKWar8ddJdhBjoepYV7OG4sttvLt8HrNeXMt9KZaGR1wtW/a3
laiXX3GAG3+896stdDsylnfhBokCMwQQAQgAHRYhBPkJrmj8Ed8JwXVcAAhfPr2O
5OEVBQJkCIcJAAoJEAhfPr2O5OEVeAEQAIAvmSmYZJzlTxWdjbJjvUWOagbg+cS5
pWMs8Lr8GfiDevuTUzQGxElPw5dqYrtzcT2/7aW1unTTbjq8WmFcuars3KqDRlO5
g/GGHEQU7BJ6uYBeUZIGX/qaKYce4twRjQp1nSJJUECTmk3FwpUoMSX7bV/E8kqQ
yL20Sth3ugCroZNMpXE0RTABVnvlP/EZeMKY5VgPhSjFDrE2vHaATIWdSF1LD5Lw
af2bpQbuNnPsAqCIPvPebsFxAiIgumHHfAB9ipWrUz7Ld8x2OAH5ACe5kyUnHaUI
H/rLXWUAtO5EnnQq1gWchkFVuV7TB1IRAzhOiImtRU0EyACuZCxrC+JytmIR55sg
MPErTLwe7abXc3GxEUc/jyY8+zpQ2jQSzcytAHYvLizhD4Q5dleQJvl1TK5RfvAd
w5zAKFM/Ng7qY6eUdAzfRE9ZcxtMtMjDmPBCLpkwr2aw8O5/VomXaUDt4cQ1egwF
bsrcTPtMI6N9zscKHVC6HXPghGC5r8lyW8ZjlASqIpJC01vwKG6Re+/KjtBmw/02
wVOPyB00rwiJx50c5Lutu7SEv5mjIKc4mrwwQXnSHq9doQ21oSWTjQEoQRch1coK
kMCLuArq3Dh4U4M+yjrO67QBKnGRrCbwam1rukik9kFDCUGDG0BSGIN6n9siiA5u
rGwM+ojfe/F0iQIzBBABCgAdFiEEsSpuqBtbWtRe4rLGnM3fLN7rz1MFAmQYz90A
CgkQnM3fLN7rz1N+3A//SMQhcayq3H0+LvsA6o2abrHqa+BL9kfd1z1MEHFxyyhn
Ev5n/p/z/GTtrFLNNJ0HX513ayaQl/DN2ZgM2rsZ3/nyQWAcZipk4otkAhuumb3i
E1Jiy6oFV15yOjDPwkkselKLCeJx+bqny7l2+vUTbcWmRqyjp79jtSradSfb6tIr
KclI6S0WQLMmvb+8jsBF90BR3/A2HhaTJN1dX7w5G23cx9239VrdC+M4nKG4su/l
p9/dOez8AYAvoZI9LsdhoKwrGgOqv7Wyz2ZfjBCNuY23umWNct1rQFqAr4t2o4Jt
0XPQTYbgMteGqYMtu4GWz1k3H6sW2inUNwxO/HRzQ4KtTWFDOlcjkthbQClBiF3T
LU86Dq0qTRj4Xu+HOqszFzUVGK2MGzk3PirpllEyflULvtV7jylk1Mh0+riCNRBm
IqGP1BjvxwRoX4ZxuM1sOHdFDZwdE393aN8k3ORZjFRozxU8z09/7/zxeG31im/S
YElQD50ZdiWbo5prwUrQnltF+aziX4nnL+NNPOloHfPCZXZjvga2DhTnOMkQP5/5
Dp8jQX5MwmSq9p54ICNbxzHYwvKTYjj0SflA/PIksQ1dGnqhQxR1UE+GsAbYalwS
2wJPoLU8Bb/lVEjdfEKsBkWh7nhnfZPoD9WIVATlFJi12QenB2R0is823VbfwwaJ
ATMEEwEIAB0WIQRtIHBo7t1lCRws4qP6Yl9kDusTygUCZC7w3gAKCRD6Yl9kDusT
yjBoB/0ZUJTxtT6PQjYigqLuLi5z9GgCNJbxI61za9F2r2dH0gXo2aNYhg6Lq27J
y47WzhtP5YuHDeRolVuA6Vxgdq/dJJQmLc38aALS/E6odsjzUm+mRSR5dUogC2FZ
W7E0TWC0NBw+oexYJ9jd0anESHB4Zg+wF6AFxiV+KxyxTx5uKsc5YwlQJwz76DPd
VrF1FPhbI7HdFMaMgP3p4MctzUWYhkGIT5xc6fRJGMUtUGtsQ7ebr+T8gicMQcaJ
w0XSqQG/hZhvHHMlIr5oQEFkWmGfBEmisBw1h9qvj4+7//puXTPpK1CWRIIQ5SMQ
wrhkGZidMKmZMwXZGm2/1HhCuJZDiQJUBBMBCgA+AhsBBQsJCAcCBhUKCQgLAgQW
AgMBAh4BAheAFiEEjOFSek+aI5jDecrVC6oVm6gHUKkFAmfBpZ4FCQWnoRQACgkQ
C6oVm6gHUKnjwRAArQ7JJkZD9N5iedfAOwjN2+j32SeRYJCGUUr6c95gyB4kVO9b
MI71FbvjmeB92m1Fwaamf7kCennoGoDi5tnL9DDNbKLUE6u0FXgA4VCo6JHd1U9m
KqiSsKNzvEDRvrSdpaUD5oV9eFfgxpmi5gS0xUFSOTcrsiNgwMAhC04qM1eSZ0fu
sinCnV2ykt7dRZcsydyCly4WbPyutadacscp7vkzdGCWE95oBejVfRqVjDXkuSKE
2rLFP3WUzuGTBrNSBJpkOluNMHBkMaV6Y5ApzeM+/QuYUHOkr23Y4ygBAT6uwAXI
8RKdeevCWLxxGSdHRh2KIpNHs5r1FofaixfTMrnkVIMLnNsccdlAMq+QCwMK5sEo
yJzHcYvbuZ2arw6ZE/TkY/DnnJ+l/piHF2Q4Nn6MOzvJb97k0lpQ2dRHjiRd9kOJ
cRGvaVRW1i0EGOkFRynmojz9P3zxjxRb/iSoNXl0HAoRw2pQZWMzBglUTce/TihY
kJse72nDUevDaLLRz9QntoOMoz/xyAlBiw12DPRMX/+Ga4ZFRpkjQH+6VUmhA/NQ
lyPSCHV2fJVlU5wtT8IxvMU8Z8M5snFOKJJwRBJRJtmlu/ELNZUtrfKenzQW7plb
gpQ2qY9qF1HRQDRvlROU7OIcRKnjiHF/GB+/57/3XsiAyzxTv5P8I0EYLQ+0IUFu
ZGkgU2h5dGkgPGFuZGkuc2h5dGlAZ21haWwuY29tPokCMwQQAQoAHRYhBJvQfg4M
UfjVlne3VBuTQ307QWKbBQJkAlCcAAoJEBuTQ307QWKb0W8P+wdiDRlriLW3f/WC
zL3tGW5OZwHuGWmWlcxz7k5O4qCkzh54YFSAwgHYB1F4a2E13HU6x91SRbq12gWo
s5XhgMga7o0hEQu0OhCzBviT88FEAkOXn+6Zda0SDHv985hi5gcuWu4Fod4s4jd4
+uWS2tSsmfTdAcGVm0qTYnFKfGaWXkoNhyPTWaXoSrAQtK5now7lgk9T+B77fr1c
ycZaMmhrLi7rPXH6Sho0MyzFVOLxV57q+nXssn4nd0ij1hrA5pdZJP40X5D2A+2G
zSlLfcefs0z0WBBhM/zU+yo2Kzp1aCGkKgxYGd4K1reuTRVBOJ413i83cL2T8A2J
wtauqvSDclrxh32cJpMReZ9mqOO8rtq646wsk3aSQ0Li6a9GiSwN3ib9JrZxZaI8
VMELw+Aeq4OZpm00NVDfmwWGM6wvuJ5E40K6VynXGf4HAzxdU9zVHSCn4bd9yoQ8
dHprPpOQSzKkOxKhQJDrp31CYaPTojuaVtLhGHzVrpxzdO5wLYIpox0vWTHsnH+q
NjNhmDTQkn4Y+X0xC9NuFH10MkkeQ44wXMUV5x2kSFO435unz4zeqDC9T57ortqK
rVMbhNjIQGJ3ve9RhLk873W/KAzW385p6WCjxU6WXdRbArqCsZKRYMxEwNnuTNAg
KFMPrBc9rMv8ijjuM4TJ11euFRIAiQIzBBABCgAdFiEEhiZOUlnC9oKN3n3AmT3/
83c5Sy0FAmQF7IIACgkQmT3/83c5Sy1bVw//QNdzAJyPwK8nY8HTEAgXSyuuBbuV
1QI8zFmBr/30W14VFKiHcaFsmMsUYyIxI81ibwV8TDZR65DlR/Dkj2BC6RSAA1Kd
ycmrZ4yNi4IBV8SojDGbTcSeC1wCyzw5uhqw/j25ZoTecHb9YMmlSdkWQ1LALfdP
npEKlHcaAtwtoj4fNUox/wwZJ0D6Va+24hqfo684ly3QQWVMlIOZZ/F+ULVoMRd2
5cofUZDy6QNoG11AZQVuAOlz3jAQ44BnDPONAsCdEIAn0CfYHlGz17KSY44davi9
PzM6Hg2o2MInyx81zEb1a6xzXe11aHyxIZUjugntid6F2w4HENZpph1jrvqEaK1U
1tJg3jqoCDf6U6OspFzjZ2l/ws070wGWSeLeNGIKS2TzP06AZG4eLfy4Eu5J4edQ
SY8jF02JGADKnzluMRuDybwmn5w8uc9hjA4nFOCrXTiwskr5E6AoCArVpSy8wexE
HK8yzH8lZ3thSAOQQ5xtRVd7V5+KKttC06gV/7KFchqAUiuRTcySVPlMlBcGnFrh
GktKqd8dWl+rcx2JMXYpZZEQA1CX3axcFBRUVkBChClT7aFxXdZ3tA5GHUU4nJQZ
b90SpKvSb/UpXkN70bluqFLVzovKKoLD6Vy44029LPPQY32ccJYqq60IvIsjNZFD
Jk4cI8yjbi9ZGxOJAjMEEAEIAB0WIQT5Ca5o/BHfCcF1XAAIXz69juThFQUCZAiH
CQAKCRAIXz69juThFeMNEACOqaD+IuPB7UbcrlyomEX8cTBbHkbgjnPn0qT21+tY
4Lh/1NdHspbWPZHTljZ9nMCNizCfDeZVR6ePeVLiR3XYuJfNas3nE8dCwFRxzdkR
mHE+xvCGYTW0aHuJYvB3+6ZDqEK7viBuxwyvSFjbGyQlsEEyojogYdEHMXZODEkb
Bmn16hjE/H6xMdd87bm9j4R/QVDnkS0egvldnJl5qv5fyM3vdRwn2em1uP8P4ERG
stVCO3lCOirTlZgLtM9HpaH5INEmRsMXZ18vyyDb9tc19Vne+JJRMIeV7mCFPQYw
73/QcIxaITSLLvwtEG76cB2MAmlLq2YagmbvhgHV3dP7DZDFTmgMiXwqTSl4N2vy
KAnWE2f8uJocoappbChhdKl0FYSY9SCfiWaiCMPVW4dYaWNrlgvuLlAt2Hnoayzc
yKSzk7yiuwUWRW0JsU6jigQg2AV24Uk7IlAXimQoPgBh1aEbAiPxrmRKq92L/DaC
Z8jS0JucYdipB+4gIluEUMAybv4uK8fuQ3Fwwa8kwRu1ypXWARMXIueV8QZlu9S3
judUHGoQpXzku7buwH1q7YX7Z+7sf8VzmHEJU6zHbrBcYq+ziT28bDiRE8zmufq7
iSJRwXuYCZsZ39Ngl3Bape0EGgAVBSi5NBCiH3OBAW+dcLeBlyP3KZ2/1o8FJhWs
0IkCMwQQAQoAHRYhBLEqbqgbW1rUXuKyxpzN3yze689TBQJkGM/dAAoJEJzN3yze
689TlTQP/1mzDHn7Ic0O1pl1AF8Fn0r8XaIkUiRphiRbkyqNCgcIplEqy6Xp4qt7
+k6toNMYi5yJB8kX1l97InrBAEK9VY7o7hBhRxdBEKmmxQkLaTw773zXWhKP87w8
Al9UiG9b77Xex3JjkgAhqtRm5L4GyLlY+7Ud8y0NFX5VvDG1951ImyNXIkTNj/YA
0xKQ/y6DuHtzvotKA2FDWNSR7aTSMCDfPcEdVnlZya5zdrHDEeY5e+mRUQFpaS99
Hx/lpaSvXuETdvqv6Q7Ia6Q+owb/9lJoYPTSLTQiljlIgxsxZnTXmb+gCRTI+9PR
2dWdw0prBXZz/gbQ7TUGZiJdz5cQ0rnhT4w+uZr0yrEZu1dWi0YQUCZBpEePROm4
Yd6K4ZsPyGr4xlVZidkW3oLAXkUNlVpw6ZEPt6M4JcNk92Y1rZqM66siXv77+wMM
ALZTMYfxqzYBquMO7O/agvAfNrlDnlpXdY3hGSTsBjdU6rXKfq6DOs5uIwxUdMWx
UwMesx8OJz+r9r4t5NmhVUiSL5KHvUycQI2r5RsP3VAXpfwL7vO33qX2i+79wj0v
yU0VhvsOuMKtMs08yES63jZYrm9WVJYuY1SufdnYbgavfEPeGnFy15XrQs9kwpMI
FGkCxaPgjFk29N3YmwZeoE6sMRsDFMrqG5zeefyy7ReowAXEsjv6iQEzBBMBCAAd
FiEEbSBwaO7dZQkcLOKj+mJfZA7rE8oFAmQu8N4ACgkQ+mJfZA7rE8o7yAf/UXfh
JfAnx0IIhbMLl7bxtgfSn3ZTwKhuCYhBEKZtBmnxNsETwTeVWv3ylBn3XCEZXVAM
0Cuec6cpRvMkSBLrlrOsBhrf6Xex3AsfO1wmXbProJnkdn7qnRB7PM4Mcq9RhR3A
+u14S3kInFjSLqc5bO6UuK+7TcwHd8UoxBTQwP6LHeLXQo/MW6DuOckokTM8Ld8t
l1l4rZsqFcnnU+Nq8N2gsh7eZpgSLigwCz+tvYomI3aM1VrqkCdJzvef2eDUNOyT
qPPIId6OnTKV9oM9dbGwPprBAAzZr7EhfTx4A4Rn4QKBX6wRCKkACDim+uFJqIob
JA+vtVx8LX5CR40IsIkCVAQTAQoAPgIbAQULCQgHAgYVCgkICwIEFgIDAQIeAQIX
gBYhBIzhUnpPmiOYw3nK1QuqFZuoB1CpBQJnwaWfBQkFp6EUAAoJEAuqFZuoB1Cp
PlkP/0sBRfbxzCi+yBT8J5NkuSuAELBvSwamUg1Eo3Ph7JZNv6JAwQliOASJi4W5
5vppLcJb+vcYeQhhg7aX44Wj6tO5b+Pp27BmTd5XixCU4Sku7CxFOsmTPR9TRIny
HVMyxG4OI/hvbH5BrKOinfKVWIF6WhYyOVRdDASAdhjaoKHTOsODM3sBzjecxCON
otT0IkKzNYTrKCfVSKQ7U32gz387SLxYd46B4ZqgiwrTNAXszgCgfUYsiQuD1gw2
he4KPLPpANimt6tGA1yXthLrbS4IRJ5jtlUkd2J1i073GmK5Gp1yWV3rrwxlPayV
B9m2U1erlYgC6UGx2wFQEgqC4QaISYzCnAzAg/mvekb/rvO/QicVi0aL8UaZkxWb
tATSzLP/leHhsW6r8P7CqJ6rzIX5cV+Ypv+sWwfxM07iwrsYqBgqrGUGYPRqtWJ8
Y01jESSohJlqeoHX0ZGUSjNb4iR9JmH4GkVSxMzy6QKtehuNrwftnSErtGlcGSBt
ZIE06TJM1Tj/3t8+1NypJSYcESK3qxMuoNZXd0qPwPFDFZuprEBhO1eGX1cyyu2t
zAsamtqyARfKn8TsFeTf7OeumPHjpdF1a9sWMOnfEbMBKfA+HOH7zws074xf+ZHn
s2B/p3KXdqRkO9LnaFIHkmvOSuOldbVja+i6LmuwDnh+j+altCFBbmRpIFNoeXRp
IDxhbmRpLnNoeXRpQGludGVsLmNvbT6JAjMEEAEKAB0WIQSb0H4ODFH41ZZ3t1Qb
k0N9O0FimwUCZAJQnAAKCRAbk0N9O0Fimxd+EACRgtlhY0G+ALHxiljov2q3rtC/
vmJORUTqF01LUkzK0c48TQHHf3RWUgYW3oQ+A18iegAyNmnhM5hGsOgD1Md+fCQh
56oWnrjgjdWWrsESlfMwoTmnh2KRluREiYY0OWq3MUOk8FJ3s8QT36F2M7W0+xcR
AlwNsqw9+otjcDbFH3BROO4Muhxz6qcx3zRAtkcXFJkht7Ujw1JG2quJEF92w56O
/9y8i1jfzaLMoyTX4l9Mr3KG+FnJL/g0G5LIFC49V6K0R6KhfoRvJVSYb9mpHq+1
peW59weDK4pGR1uQQywryKsbuH22fOinMmGYfNQLJTQSYopyKBe0zxxyoTESfgc0
xC+T3BoyWHrDLOOr9eRmngIoDFGx2cfjn0TL8SQsWqs1741O7l5RM17KHU1jPXYD
pwOFOzYKvQnUDbj4PiTFgUR6STjAeyO/XvqKsam8z+xC4k/ExZ5jkCFRXcqZmOpx
7demW+x+n5sdLOxad0Iz8jqwCttvLwKzAEc6CgIorBpQoiCiXPuhhpo0MkduDpmA
e+W2BYfwO7hqY6rIpaeK39JYlXazDS7hwcAKCqysVXut5H1rx+48KJ9id7QddCjy
Zk4LCd66P8v4EWnTCy34ebvHbJpVWZJs3HzsB0lOAgILNSsAIs01urIz2dmtdDL8
RBBTD6rrHNelhw8u3okCMwQQAQoAHRYhBIYmTlJZwvaCjd59wJk9//N3OUstBQJk
BeyJAAoJEJk9//N3OUstANoQAJIbh7xcF814Z3ic0ssaNkSX+VhNg2RgLwb6Vfuu
KF1YA8v2hNzjkvAeaT0H1CQnzK+efNZeuG7uY5Hftaz4fU/4cV5RqXtXYzKguIbB
D6e5V+OAwtaFdz1q85OWVqGYQnKxKI3VtHwdaH8Cyfvb8WylfeTBC9PJnJVltpfn
lIepg78FBPH3ozGromoKWCbj9yULrxHEHXUww5wSJ8LLayOqGqKNeHbZ314yo6VN
oKWjOJOCO72gwTQE6H7PTmpCHpI5QYH6EZ1gyyXD6a4XDKUo+QhvwgAUKRjeUakE
RsoBHX6+8lWZMAv1k0/kYWeHqkaUikF67SlpWvYlG7N9ySrHnORxzOp7fUA0iL2e
HBuD5+zhkcXq3EoVbnvZs8uqRF6HRCcHh6ICa3Uta2NndstQosbQBiNMOVOjTrFU
69QNjc45haJHtBZ2ePeYp8z4qX/5Hc9A8N3Qbq5w99Ec3JTibT3n+nTQsJ/bcTSo
xsxB0GleWPF8MGTvAUmjgFtfeL02HNLVfzHgwz3Ym/onZE1BaYVLB3+BZsGioZye
HGYLgHlBqv17CYnzO5WuzS364HrjYK+p4/pcGwi1f7asZxudjuWRwxZdFtfh2gdJ
ZE0vw7kRAEfy9uo+Jt8rpcoQIVAzLAiLo07mtcLsn4qP5pS6eNor+u4gXxqTe9AC
ou9hiQIzBBABCAAdFiEE+QmuaPwR3wnBdVwACF8+vY7k4RUFAmQIhwkACgkQCF8+
vY7k4RWc0A//ZY1UGYe0IEkwpD9yeFaGDhpYnGv/8IvHLlgzZ+leTVS95GUIjZPp
fUOakV5E4Qo5e/68bghv/qUZrCVYzaiw8jOp2vSfHU6rbfV7SfibAiW43ygNGNWH
BhoIbZ0F4fEV0Q3moiORFOV5OaxKpfiTFgf8eVIeft57uCMmsNimXUa9UsPdqiPd
s6OswBlSNmUooOXPs2x3kUp3ZAK5NNHlnUez2AAWrQa726FTgMeaihh/pZKlMuei
1EHCpka/PJ+sdB1rVKJd8NEp3iLYIOhJO9BYUfwbvh+T8Z6C7228D0rqsf+n7D9G
/VQF3qm5CnpvCOOllKS91KHZP9UQRwYL6J7hnNpjx9Tr673yqOG1ssq7+J9g33jV
UEqX3qvQWokMtIzN0uvuhxT66fJ/5RsNdJAZzqCRN2j+KrBToJbVa7OtvOdsIkZx
YmYCye6S/FLhWtuodQpLznoseOdxB7x1TLcP+CsffjRdtMZOfml05PqrvfoFZmsU
j2bYAQ4S0+UzVv0wPE1+qiTTIDtm19iyGhIBCCgorAjqAzYMhOAdDSDvCT3hGDwK
wWP907Bj8peC6oZRIVbR6fWMA7NKUxUcv3N8YFi+wXMzh9tj7NGc+WX20+g3HB1s
cZfZNYzELl2tc6oGC4uu/+ruEdMHOU9SAzSscEwVLX4L1l/D73fciluJAjMEEAEK
AB0WIQSxKm6oG1ta1F7issaczd8s3uvPUwUCZBjP3QAKCRCczd8s3uvPU3EnEACC
0UhoxyZypi+zYrqtyG/vfGXF+ZRggSaU7u0wmn6l0XOSoFkerNBJI1RoRJtVZGlp
CbLG3XFA+RhbPJJS1sw4Od23poTnU4uILCiS0u9++IjiBcjrq/s9VsEvnlZRWPGO
KVg9md61kdjIsY199XGyR2s6sg8RhseiAd6GVUX83qcaMSLvH829Dn4tI4McFntG
DoxsYGthn3lMVAny1EzTszOMle0TXfPVDr3BqJRBsKe76HVKF3uEkjsey0p2Xmq2
KoszrnSSsVdniik3odGiNAdzlM1xDu5k8ViaCNeAlUVbFQRjKfYHRU+n0/ZjTU2V
NmXnSOzh49iw7W1ntM9SjS0rwF4o9CD9LnzzWJnTcqbMOnLBLyA9E71m99MfO0fO
bUmZ+tPVBwR6uXIcd/xGejefgCZjUM5c7rhIMQffeLzCNPguhc2+nBt7E66T0hpF
J53EHvjnGKYeMGc7DQdAgcEqhG0UF08fDk8oY32DxunFFCUNr758BEGJQd0QkGff
LQ228TDpI7/VBK0FFoxdHM9L/G97BO4YwfjgcjYscOhXvKX/UO+kHKWOu+gEJYpN
IEyGemvAGnopIAB0t9TZSkXDmDPBtlyoH+t08UjI+UIXgr7yq/IXIu91XC92Jn6f
50/pjGPseLGqWv5KTkFhSISbcOJl0g6TYIqeW5f/LokBMwQTAQgAHRYhBG0gcGju
3WUJHCzio/piX2QO6xPKBQJkLvDeAAoJEPpiX2QO6xPKosgH+gJBVMw/o4kfJLxX
ZNi8J1CQLZyrXgCi1X7j9Z3j0XcgvQ7V6Vd4Csx5BwRqvucaXEBujhyJdTHlF8Lz
rfG8yT5ynLBtIW707o8upLoRuaIXo0Dy8iMemZy7gd5Pvs/t1+ySMvKjMbENPgAQ
YvWPHklSH4BjH3fQP/Sad0a7IePlQyhWnsyPfDSGl7Tw0PLEcuWT4nva2lpmhpLl
zFMIjZSDN3kZmK/s/TFuCtDpnJ3b1cGFqV4DxBiWM8TR9EY87WgxnzfZRfhLJXWy
A5KNp4RNgMfClfQ8ZRKZFpVQAsVrvYAPoh8tbvgSydo1x23bPaORrEt8wETJdOwU
6UmGKQGJAlQEEwEKAD4CGwEFCwkIBwIGFQoJCAsCBBYCAwECHgECF4AWIQSM4VJ6
T5ojmMN5ytULqhWbqAdQqQUCZ8GlnwUJBaehFAAKCRALqhWbqAdQqQWZD/9dnbuY
z9r2zKt3HEvAaTRZUmacj4OIUDz1rQqDU2/wwiecTz5aE7KvaS1oM+TSrfRBCOyi
31SsXhLWSCR/b99RFZJZeZPNLdz6UWXe+ArXAwddyHFk7fcu91n5yhO0OF4ZOdDT
RyTAoDKYZ+f1qLLFkx4a0uXPIEtqqLEVRJPFcLC1MSkoarbdKwnXbH3IJ74O/w9c
a0iC+c50Zn4Q0R0vZwT2QIg4/QlvSTzT6AUaAbGBzyUwyvrS/tWqD7sY8WjLP85Y
n3hN/yMoFNTLjIIYfk+fXliwWMIBi5xAaI7nQaL1PTn1CTmFxkmatqqGNXBiIn25
1pcdXI+b3Pz/tEi6Vns0f/nMoFRIlNli2kjC3nUknUVUnu7JdXNeO3i3QKsnd6kw
lOp8jLskT2d/5385S9TbAy8DP15fyxJl5vCuc+Ufyu4YtQCoR6MWbQlTfkLKE1iq
p7kutNmCqZcdM1C+0FVO4SfAD8Ql0t2wcE/UbyBr3o2uyq9FMp14sQapTSLDylky
TXQGWoK/fTwALR32D0WMkc/a5yQEtzMK8cnH6TfdwAb1TGgfZGqTDV3T7j1vooXx
LVLPmXNeKzz2q3tq+cESUgHjWdA5m6+qS8zygysDoPQVU4lpYI7OHc97izrTGMtu
5CuvRrCHbnC38t42y/jjSrEbvUVylTPdfEkb3LQnQW5kaSBTaHl0aSA8YW5kaS5z
aHl0aUBsaW51eC5pbnRlbC5jb20+iQIzBBABCgAdFiEEm9B+DgxR+NWWd7dUG5ND
fTtBYpsFAmQCUJ0ACgkQG5NDfTtBYpudfRAApjvw5Hw2SFNVhR1OrUo+TG3acK1c
wbNTdnOo0usPVqzP0VIrA6Mq1STV0hv44G83dHdaG8brDpnWF7KL3S5ecG5fm/K9
n4YcrxQYGowk4MM7pjQa7QVeQukYFmxiCCkIp85Gtr9+QvyAvH/xRqMRlOx4pPWj
zF2C7Vfkwkn9QJrb3nSgrVi5Eg5R6gFFuQ7RMk3vaC2J76Rq+9QCJ4BvjHTgTeSs
8E/7juOW8rlj2b0mlupWwIPDi+wBMBAP4SK42VncNDWhT/PcgJQr1ojMw5zcH3mE
+5rPz2uAspgTpa4an7wDzZHWqEhgXnHPT3v/2NU+T/V1lcCdfItpR4F8b6Yp5qH+
8l3I7eZvPitUgL8M/NAO+alfZfwhpcVf5KZ8qrO7AW/XTHHY0r4XdtTdfsP176h3
wPEPeBynW7A3f+NY/PnqQYRf53ZAcRwFVYn9NkIXMHZTvxPQiFw26DOzqA8s56nP
tD+vWRDZMgSp85RCAITz3hbmK1CNWsV55mg8n6yfbPd/YP3fvujufMAjehdm/dwT
/gfBddr+B0LRgIxFmpYmMLZ3oM9so5Zy0eXtsab31qfHJXsShvQcV3OtWSrwxkfk
h5JKGRqkleXrXDfpTrvegPQbMlvXbk65yGzritCTzQD29hgdAzH6HEdknXydSfKa
wZI25YFgmOL8yjaJAjMEEAEKAB0WIQSGJk5SWcL2go3efcCZPf/zdzlLLQUCZAXs
igAKCRCZPf/zdzlLLc0bD/0et3x21e4nR0ZrTvi/M0CIK/X11KFmJWlaGO+VY8Ad
AYzkkLcl+qmFvWrx/TuYu+QTipjFjjYf4/4KF4GKPnMWxtvzXIPgbkEGs6/X5iU7
Hx8/NPAGkHC+pPAWZ0zXSfscWi/m51L+lgHaQXKgIQiJZ3nHbT786Vu9kDXxlvVF
yXwDmyUG7sqSLvpEUqoBYkcZhShhgzH+ka05VvayCXY6JAluDvhTe68bH9cmlysf
XK+YqzPiBSKwP8W0D6AwiyIaB515W9af+am8L6UV7SHg8C6MtuTIpQ8oMoJBHnB4
/XoN3fLOuCZzgmgImLN5o/mTLrbmhkieg5wIzQySzOZ6AYLybb3TIyi0uiy8B+aP
+j3xQE+qEZJ2SatdDZ1a9DiA175bBBTuAe1hDLgUC0nXENwuLEPyBuIpjyLhA+S1
FROrrhas1/46r7nHgOUz+8aDsN+/iGX8a0k9q3cyuHsWaQLqo6H/rAZ8vq/an8hx
aQD23eiHszNgEKqrBcYQ4aOuRkU+HDWEGWiM+VhfqckDiqSGuTp2sJjCjxHGPlzV
avCVCuc0ZsZqgtOfRdHlUtO6yiLFTsdJa3IwGXF0RLDhcLoKgfyD7h8WI6TmUhQY
Rtu7Wywsgsij4APpow89+PoPfkh4WdiHTh8xwY3ttfSUqsxi+8K1Knceg+z4/5CN
U4kCMwQQAQgAHRYhBPkJrmj8Ed8JwXVcAAhfPr2O5OEVBQJkCIcJAAoJEAhfPr2O
5OEVwnwQAJ05rhl1iXVMfBY/YYx/6USSOstgqD65uKzgnWANH4uTi8TawmL3T5Jl
dKYnJMh/V9dh8UrxUmAiAZgFrKaRq6t8JGVqNMtao4PTd4AxVNaFZCny/2umc2CO
bA7VvNCULj3YwW2ZDZ6smkDyDXm3jkSdUFSLp9Flcg+ZcV1WcX+Lz36AmNP7U4UT
Gr0i1ht+9wgMwVu9fkcw/PVLpg+nL/UAiXlmEf1PGZRxVW2SliJiDU6W2GpDjwyK
lRBHENdZYbWYiH7No9eJTLVzIpWT6BJj+ajvUTebW1XKA9how+5DkMUIywggKKr4
dv0FCnn1sYeUsMtf8elDnhsU5EXIDIjIoxeSzIZMO79JZ1Qj/R6hyMRuro2bbuk0
G33D/bNzEufgkJnhi3WqOsEvf1BLUU7WUR362nqROsfbi+NL0WANok3iCDYnONU9
xWQAB5yvwlBtzsaYEgQp6jT/HdW/xnnWh8YiFYqnWRBi0ro8IUEB+JxJDhRKkaji
CAWuZFlgqQM3izaPHS7ScR3uPA6tY0hTWhoHNfRGP2vUJJJahz872DEzLd8Znmuc
mcZuHeDefDoubU3V8+dfKb6bT2+jV59lC+o7SVGjIq490Key/T8stevllNZt23oU
PH+7fGVUSsmM8Dfbl0eUZvsDmC3aETiQyFTcfrxfSeldvj7yPo1niQIzBBABCgAd
FiEEsSpuqBtbWtRe4rLGnM3fLN7rz1MFAmQYz90ACgkQnM3fLN7rz1P53Q//QwTX
BxphByWZT3p/z3i2F6lMRyX4JsHTNJahotgZ6yvBFgplei7WKMToGO4HAKJWKDrl
Wqx3VieKc8IYCcFT9xBNO7d/h25P/1IvHZPa9qLZDdXgNFGQyBAu+yF7WOs10DaZ
CNo7Zbgz2h5iSa/O+XakdVpO8mWJohNTQ8d55VJdZixGXRMzCxBha8gKDSOcYqiP
hhArCbvi24KrkMhVp6tMFZxot16Ap6fjlETOJie2VVuBjXV6QkYtoksknY2syKNv
i7Ag9VIuXUPqYHJOyr0So45pH4m4+sLn618WdzyPyv+EDfd3yVh8zns/0AZgdQ8W
U9BgLGRAjm3jpcR9R2d1wxF/rrMTPG1JSZwqMvA4oVR9qanspt8+hK5ohrXBpzOI
MZ1oqu+wJ+qtTGIfUpFgrY3qymvTRPLh1b4TMyYH2mD+QD6IlOphyzaiST3r0gpY
dc3MW7dRAvN7V82cxFGrACdxQusxxf6WHbysFxP3HqxaIDijyxSVr7iQlcTflp/x
t0BVpSyBXt3sEHlQkxNCNlMwqzsRo3Ib0NyX6yWM8LGPnLbFW7ulIsiwzchCKi0x
nUgi8u5glRxa5z36f/fHKokaqweGdh7n2dh3g8v6LU7tlvqNjOppcD1aYEo5Jz9a
wT1+4BM/4z5IvJerFEsGgBrDA9Y2st8UFO9Eq96JATMEEwEIAB0WIQRtIHBo7t1l
CRws4qP6Yl9kDusTygUCZC7w3gAKCRD6Yl9kDusTyqv4CACPAyuJjU5mRq9l/vUA
gA3gg1dmJ6U4hw3DEVVGS0wUthKYAl1pk1XvzQdoKso1SHAqxM3bOjCio4EULzAt
xAdDQFklj9wAT1crh8z3y8+TMuunN8saH0NaeFhx29mJk6bdeuHy0YOO470uGPFU
dpyl1c3V/DurHl5OhzESEunqWqE/PMv0IL8bagkVg60ODp/rF8Gw5ampdmXmgd7a
wOx3k3vvHbTCV+FIy8lxoYY0D/ewmKz84leHcIipschCxcWpolSboKWn+cdfr+bt
lKdOAVBAU1LeyCynOGL9NcT5U/OxmvZabI83ZcOEJ5gZK2cQ+RxxtM0QD6Ayn8i/
0xfviQJUBBMBCgA+AhsBBQsJCAcCBhUKCQgLAgQWAgMBAh4BAheAFiEEjOFSek+a
I5jDecrVC6oVm6gHUKkFAmfBpZ8FCQWnoRQACgkQC6oVm6gHUKmXBQ//f2LRYCUY
3k8reNCtPkk3I/P2ZJLmBO3GFD5hZVgWWao6wuZ2biL1EYpoKzDLHrMkoSx9n0b5
otmaBNkp2S46aBXdlYDsaczRL/yNyLA6dZF5vYaKeiykC4gu9F8f9TtxgA/ZnAMp
upjdNtK17/CBgvl960oyiULUkDcAIhuFXU3//lFFaoLCmw3DQ6c2yan4klhlI88c
ic9oLp3Gk5vjohoEo5+JcGvSroV08m3bIKPp2W2S2XpEDgY7FJee7cs/YUXlq1+5
ZZmpSS9zPXn3Y487I/tEHDtW6O9aJv4svIxGytDoP4hY5RT0t6Rvo8iY2fGkGHTN
MRPLqaTewXhLZ6j793T7RoP3/PCxCry+POqS9sZeddHCDh+DAHIhSQ88agFUID8n
Osk+NuR+NQHlqrEeXb7MQTy221Ty9kjDTaJWbfWczodjzybXu6qlMmG2GuUocVEK
NIUeQ+yq3m8iTu+2EoZh4BZAXINRJvo5bmS4pfohZlLcxWxzanaSlUHxAS9DmF9R
8D9BrxaQ/WwqtToFLXWFHPwYhWrHnjcaVhPl+4nq7YZJPYoO+rrGICu6DJZofeQc
Yu7L8algNw2mWU4OvCEpp3K66Hz0zPykiTCzXKnxx83rEKkUn5H7gi5WEydSsClk
cZCtyjUgIfzrAfFtsuLAeZCpJZMbgT964xi0KkFuZGkgU2h5dGkgPGFuZGkuc2h5
dGlAc3R1ZGVudGkucG9saXRvLml0PokCMwQQAQoAHRYhBJvQfg4MUfjVlne3VBuT
Q307QWKbBQJkAlCdAAoJEBuTQ307QWKbHYAP/Raf41bomnRt75DVWxalQZYKwNWc
nA8cKZrL8g49LPMWNG9IWHd8Uk6XEG8z7qQ5KxZBDzfHhbKdT/+r31GGsAAyydfC
NberGQmFlmWpdVg2iuCKiNbK0pSbAe4/lzd2rjOIAdGLjTzTFayKHnYdmjZ0YaAy
SJhHiOrLCOXzn1vyvWW3v9r0sSVMB07ypLHpzOvHBoUXuy0rXPBTlJ1JOhqHa7aP
rQwma5Cu+uIbAYoP+hLPoebHrCx396ipJBh0qURsU63MXch2oUCzEkGXb1ZOryzR
bRkDHqvarbH1tjQ3+ShEwEtxD2lBW8KpkNW7s4wI/G3M4vWugA/ldAlaLF1ZHshm
sslzhiUWEXlkzFOfcTMKWLA12aYBdLcFFrJJyhstxAF9ic9JSRLDmMMLa2Ld2KoY
noiHcuCpEPrPNsu5VHmpSnkHlGt+e66GcnHm6NMWGiMJ1Rd2SA7Y1ryKJUDkXhdc
HxcNW7e5FH28CTpXke0ZrtDY4WI9v/WMs5ccw+ByFQqWLYOz1tNcR4yTPKjZ06GE
NhSO15B/4dJq/J7thAsi6YvK14CRh9a87H20TjFLUlkmFe3jBeNwD3Txff+Lqhkp
ggJRvBqEoisFnVTxPg2MmhBFrVSg0DuxpyKm4KY2cY58PHNY09kC6XfY5Cyoz0wP
z8GkQee+fcxzahGViQIzBBABCAAdFiEE+QmuaPwR3wnBdVwACF8+vY7k4RUFAmQI
hwkACgkQCF8+vY7k4RU5Gw/+OQT8GeBTpykYiEnO1khTT9c7BOZftauMtgMeqBUq
75ja3FUvOcA4e7GqtsYaFoR92YPqJBx34HPw/tEWXMhfv6RyskCqcHPbZc5apT3S
oUR3HnMSNGQEHUWO880JSTnTAXDhfr2BLibPQirc+FadHDJXuvJrLXFSk8G8p7dN
97xyFJ6LK50Jwm/KXG5KjJTv9KonZh+KGz+750GBAQzK/1YPxm2WFXvoOcirBp+M
DGSnBc/1vUUL5hSQ8kIH77lNjtVgrUp9jI7R5cjkF+RaIAyeAscLLY565qRIjrtU
6zNWeHvqmXPZJegEaqNBmsAo0Tan5DaKOd/siiJ4gyC5Z029U5xFTZSwo+1ZaNG6
LlZiv0tb0g1RLCREA+F62w8Auz8MYYo1M/8CVKYo9TwJjMouysYjWhk6QOp4YtnN
fM3K1PQEutXrBpcjmVoKHJnJi21xShXxVcXTX1x7nuhcyfjv4brrJ9h3PeV2MyFo
2OXxbfMFRdXM0i4FArK29e4jLlpQFCGuuh5t5Jkc95gs8qD96f+qDVAXt34M4tEV
Rdev0WZfgLFjpKDZFDks9GFecACxHXZyBp2EmRUmS8nfEcsDNzPL0pGGOUV/RVlD
CjkaAWVPlGaFNdt9O3kwNi78AZs2MxCavnUBCSqHWKQjnxDaHTF2PntnzFvxKq7d
XGWJAjMEEAEKAB0WIQSxKm6oG1ta1F7issaczd8s3uvPUwUCZBjP3QAKCRCczd8s
3uvPUwAgD/0UWwDXoCYbupZU+YdRCW/Haj7KAYAzeC8B6Ck3mX/t7/TqgejPVUMv
Bd1sZkv9l+AZB85B7ujGiZgBx9HwjXbGM0Pa4UNjuUYe2tnGly7mvnjx8gc8akmY
/x1IxCYVYtKw9taA4Bw+NcE9p1BvthAOHtzTxKyMFXoJG6zB10eld9HBqsMO2LMI
7ohCnheRKmGbAD6ij5Y3PRvAapqgM+YBJgnM8WgIYbnSBiFhLPA5cpbex4ZRqTKc
eayOk5mwW7V3S0Gl64sP0y3D8rS9FusGJl962FJo/H4UDOF5NS5MgjFjqNB2j4aa
QTIWKflgF2AfoOnUs6Y4wcl092fbLpp0Go/uoTSgbACnbyYfpUuPCQlym18TJFFv
nk6ofHnWjLtwf1N8yyQtUwtbmmreBRiBPtv7XasZa17S8Ti1aoy3q8Qe54HktDiN
J2yPclvobA0xiKttZa58eaZS7cqPJk8zplL2hcutqCUos4fAilpT/EvrGNJjegIN
8D+4wjuv/lWyL7RfxWIGt/GA6SPJC8jQTWibPw9vAZUvt+nMlrNKB4akkFqHwwMg
JZhkIX83NBylU4PmtL7q9GJnAd13zfcYNhErOuLfphhV0e2jIlklCT1TJwAGx+yN
W2yarK1ND3/gt+xEfpz4AbDS42eEFk1U4CgJk0wSNpPe/jjj64FecIkBMwQTAQgA
HRYhBG0gcGju3WUJHCzio/piX2QO6xPKBQJkLvDeAAoJEPpiX2QO6xPKlVwIAIgS
Vnm6IblxQ20ezdfNcqzEAoakhs3JG/VyRxW4sKgMRzYXwMkPDRNZxzJoeuxhQ6Ck
64Qg7IWosoAmiPNxkFN3PXKDe+ZkdhcT27XutHFkO3OS7bdQHxF7g0rPAkFrnJ+u
yieHWIZFXbHKtDWt7gGi/OjHVoKvv9ZrU46upZqL3cASTc0+KGQMjJjHr4hJ4Lyi
K1DMoAjQQk37WJeyfgYCK6sM0GO/TYvGon7O3FdVe8vHKhPWzZpTBjnH8cEUkQYb
NhY78fvgkJaGX67+zs8bYO1FZoiFIBaZdG3fDTFAwhK/+xfmETvDW7HpJU4xopoT
hF158KjHb1RN9bWokD2JAlQEEwEKAD4CGwEFCwkIBwIGFQoJCAsCBBYCAwECHgEC
F4AWIQSM4VJ6T5ojmMN5ytULqhWbqAdQqQUCZ8GloAUJBaehFAAKCRALqhWbqAdQ
qSXtD/9VaC6FAGBRHt7zyOSH+yvusw76S2J0Ky2lvMObTLcHlQLwKhdXOPtIIhUW
eCqxl+bWlWgAtbEHUVQFAPEJfHl+aEgmttuva+tOIkL+i50Mw0xfOfzrs1Q52PFR
fqPLXaqSC8gtdnbpBslyPl8u8lXb3k7IhdzYvZZ/XcGgyGSFam+hbzkx1rLKA3k2
369eN6npDDdTsYXyJI8O+Y/+snpX8ZaYjAsmUFTCdYBfXwDR+GB3hVqtmsKZa1x4
QclKawgQbJz1hX3JUa/3AO9cd7l0RpGitMM3EuYqbe1vho/K3c11fB5yXRoiIEGD
ZASOWU4Xxk+zTBqeBW4O7TZv76JriasXk5TINDWY2ESma4mLw6tUFYsONJLWwa0g
I1srlbIN/huZ1QVnPneM4VyJi4gs3F8KqJ0TvrJy9XQk5kMhFHjAVNYa6OsEEQly
A1ZkSHSTSn3umHysnVAi2xAi/P2BwTUGiL2QFLeYXKf7SnRDE9pvggtoG4enfq26
XOBLKjA5xZq1qButpi0Taij2IHgGWWhYVADr/ZcUgO00Yzhjavqc1Qu7hxDtzJ8i
lDi7E+tNSIqMZzZwdAiwdmifoSh/yT7v8Lc5grgtTeFJoH+vgt1QFgwTMYrcffmQ
mOeInUo/nWR3fw5rCBsO3BgWCUaWg2opiM+RroKp/tHWmmb63LQiQW5kaSBTaHl0
aSA8YW5kaS5zaHl0aUBrZXJuZWwub3JnPokCMwQQAQoAHRYhBLEqbqgbW1rUXuKy
xpzN3yze689TBQJkGM/dAAoJEJzN3yze689TtLIQALqloen1uN+gKlR+4nQCQIZR
nMJcCNpLoqJaLgC4CCCWJ8sqKUkevFKax/2r/pu0vEcIdSIQDgM+AZ7Ri2Wm9gbz
PD1kw/srlbTFpGdHeMulj0goHQ1nQc+ZDYNYSf5HTqo75rvSYJBiL7qhnZiLYSGL
PcS7KCzkxNTVIQsWHUIZnJ6Kt8Zdshla4LhQLc6NC75lc5llAO1irHKi9DNJRkHV
9UEYrRIQcC6rgM36wJ4P9nHFiKxK+2Y7/vHLsJJG8QIMv8tDpQptcB/3hfwHCGXj
fxStCMjPe8woneFMmNkYydLxFPH9zgJn1paCMuG1kmXFmt+qVow30D0A+lniHCJ0
uLbQEdr5IkpTJs5j29FKXq5RSIVd6gKXNiUXuD1fmbEoZnslKtUknhO//OKjZpGp
RNMzsr76wsAchRHIcyQXPCqiduzQWIMC4WxDvYPgx770a+LS+M/xhNvQhpWLisA0
IFfW9RqDHpCHPSHoC8BPgPYNIBGc8f2+osRAmXjeBLt8Bt8YMlNM8uAo/ZHsFHmn
dE/3NflhD8z9pzC/ubxP5AAJBj/Wcs7V5D7on/5xTZ88u5oCS7HA9iQ4T8GBYx4X
qKHdZ7LwbHwAtx+egkkH8EBwLgSg67vP8GakKZoUNUcc+fr94yyvGqWrEp4HLqgg
GlUBJmfk96RoHPaD3NlxiQEzBBMBCAAdFiEEbSBwaO7dZQkcLOKj+mJfZA7rE8oF
AmQu8N4ACgkQ+mJfZA7rE8plswf/aYSoJSMUkKeIqhm00Ai/yvTmOKMEVf7MALbN
OWE/gYK7e6SOZPL/jI4Z+/gAFFt96HY++RySFsx5Zj0V8Uaid2E0MX7FeHHg6I7b
VyHij54FPV08NRT4iwl9wYKXhURfDDXXoDJRQZUj0Irb3BuCW/ZaiB3Dqp2yp9l4
YSexJ/YVJ4UfN0SKrPTQ1mTPKY+1gK3wf+upb8OOdhIiqA77y0oDGLfY3cfPYLa8
5/vieq6PORH1DDC7j67KTsPfIck/FEP8KRLm0tq2rx/Wi1LifNXQITXq45pm/7ly
pa32MopjWg2LfZRwCLZ/aTVgjYzz3zdDo1X3HAbZRflWkmoBTYkCVAQTAQoAPgIb
AQULCQgHAgYVCgkICwIEFgIDAQIeAQIXgBYhBIzhUnpPmiOYw3nK1QuqFZuoB1Cp
BQJnwaWgBQkFp6EUAAoJEAuqFZuoB1CpPBYP/RoWi1rF9T1yySYU4SiqfhHzy8WB
VVk2LIvAtdEeDX7UaEYN79EZnXR1fzs3TdFYd50jDhMpj6EMYAZWrTxf4K/k/vMW
ZIRpL318Nn4f7OZtIZ7iuYsbxOcun1gzrvO2Q4I0rp7nYFZGJUDbI6YCu7dzDhdw
9NqWYftJxg+UjiIgWmsdi9JTmNHKiX9VTTah3VgxoKZkzzvYbS9ynopxOlth7jjS
Fu8OOsXZyPn4KjjdaYj/78iJHZsfgeqUiO3PWR6OlKDnxhi6FQn4rNmyOVhB9pmf
/LxToa77oRS2HThg6dE5/5DDkoSAqD2lg+7LqgmiIBs5gD08h2w/cJmB2LTyMI+d
ts7CxuRFCIlpTMMSTBVM8uxOKaSD94BWsURPLlkMZs3pV78Jffn389CcVMn7COF7
XWRHbZstIGR4rqqswgFI6QOipjF4VMeJqSo/v0ubh2/n8TKv0kM7K9LxB99ryyC9
eZRfR56n6JLORLf7tyJE/qFoat4jDYRx2hx6QzOhdvdrq4/e3yk2c6T4t2+0/lmW
fYHbAifR4mYxFufd2Q9s96F3fxc16C2GZ1rmN005EtttXMx50bamg0KcOpaz5Z66
qzcQF/dZ0RsJgrRFO03zRTpqf6lEjNRK+gnC/q07felIuN6uiFw+W5rIG1iguwdS
sOqqb49SKkNsqitguFYEY/s8ABIIKoZIzj0DAQcCAwQIWFNjtVbMYnUxCO9hdmEJ
jtn8Ha4M6cqNlxTa+WxM+zh5SovJ5lXqnXb0CQCpt5GBqadkRYJ/i3NfofMHqQEt
AwEIB4kCNgQYAQoAIBYhBIzhUnpPmiOYw3nK1QuqFZuoB1CpBQJj+zwAAhsMAAoJ
EAuqFZuoB1Cp7L4P/07+DUBulAxYDK3k5HrskbH4TINJZezozI8Hl3iL5cLrG548
iVYuRBdwEhxh8BM1g+DpS8YdZREBd0lxRbaVraSZsFitPUr5BuDu36vDFClCeJrl
XcVJo8g2n4z6zbeN2aEU+rqTo0QllfOyBZ9yda1vUCHVufY9p/NOowvp+n6yjdMx
JFnopIzV/998BROaQIxdXrxL1vTyvwotivpew9KDsG4JN0SDndSgtM400kHQZ8OL
XfuvJhwFTW7/bbMasGGAXaFR5oPDyVOZiEotW/mmjH26HzuFWwkNbPmtfa+u+lWt
KDKu96scDzgYFRjnAZmDY/qR9akT0i7U1z1iIHBmzZl/Rghtcs3It+ze9hYiB2+h
rk2eyTxymOyVZa+1Vsmj/5soFJdmPR5Hag6J4Y7ibT6B1qYYFi4Fw/yiauAqqQbK
AQZt6yTc/hh8Dt+oIH+JpoR03BpFsUet2OBb7f/cN3Bg/ijZyKd7+6ymVuAaxZs8
HPD/SpF+UDTTiy8kasXpups+V9BrDSvvPI4XUpCopsxUPs9dOoLHpPvNZoZfVOn4
SbWQWavge+1dyNa3f0Ix9iDkW6pGldlWdoZ2hwGQLtESSMQ0e5s/htyA5N3DM1Wk
SFVriABv2A0OhCc8e0iiR0an/01odoo4CisBny7gHmoHYg9R9dHCSyQHx20fuDME
Y/tTXhYJKwYBBAHaRw8BAQdAvSJ5a6vc69yHGlLI5nKAiqUlsfGk0CoZk8P1bs07
rLiJAq0EGAEKACAWIQSM4VJ6T5ojmMN5ytULqhWbqAdQqQUCY/tTXgIbAgCBCRAL
qhWbqAdQqXYgBBkWCAAdFiEEnA3640Gt+LjpXdVS2ngFZibTLW4FAmP7U14ACgkQ
2ngFZibTLW4I1AEAiWycgvgQPcDP7naWtCih37tGDWpVFTRURyuYEcZimZIBAIL6
u19vL/WuvixvYmIr23NJb+NX1nGpFVBsqWWI9fcFwscP/0xPF+I0HKn+EDwDdlF9
VAJPg/hZg7+8VuRtiZ3ClEeQosEk4IdNXl6YhQt33Qu+26z3ViLGAtwAB5Lc8gwl
7MPcxgxO4g18KHoKYo+UMvlk6P3g4TeEs4dhz3DBTvULJgauHGrmeuvsKYJRs53Y
4m8i4WFj/iyGRGJnjLEiB1yqFMlwbQXXQmm5CQPIwYyevW3tYr+3vGduQHybEhtr
GYMGC2sa7+Hmwwgko3xEO9d4zxTMYm4A9eDJ2DJBC4HGbffxGM3lFRybyPSslnFb
UAd2GQsw8xaq+g9T+J1PHNxNc9fCkEE0Q+Z425Eo9s4CagcSFlb84kL+KTtXZNCY
NBFIUiCjNJ69XAnvRzpSBK7GqX1NEejti/DC28XJPJDp8aaJ5W/DLsXsBUN4qNcw
mMW3fVn+NLUWwtYafdecScC5/mEygW8v71pVifp+SPBmCeXBv+0PJxxXiAN+Lq3H
3mOtIAHQ+JG/kFZXcgdli4WxpJRY/GQ/NXSeieHQgnnsW8m2wGMvhVOO6O8gIout
E0nHED4lLNUJU4jQlBTeV9EnwYax0AhEk3YuU26Hu9k+kirhR/WNW97ZlRdu61BN
BOmaUpDLp3mQHKv8oSYEceQKtIs0ZKyEUTV/e09v9rpSNuEUW4OibTPRgI9/i0qE
KURUgYBiX92eB2ufmebd0oTduDMEY/tTfhYJKwYBBAHaRw8BAQdA2Xm8MGVEvS7o
D3bYVMl/3pSCqMBTq/v6vjatUOPQ+zeJAjYEGAEKACAWIQSM4VJ6T5ojmMN5ytUL
qhWbqAdQqQUCY/tTfgIbIAAKCRALqhWbqAdQqXN/D/9/BjEJK6ULP12EGeoUqIji
TDmUCuBM2OB4JlkEHrpBXAmlIrFhPLZ6u2C4QkpkLXlmt02gASoBiyKmXO0yLd1M
umDLUl7nmZ3GLfcFA67Jt0D28hTG4fOu+rEp0dgZaKxFKkBr5GqFPrUHYA8nHuDB
bCA3VsEdGo4rKkIbcjedACltvyr7YruRu9JblO43EKqPH12cUVx8t0/gL1Qd+vKg
h5npdMhXGppGsJEQ7dvzMUuZCPY6WXRDh1j9LPu5byoQETHrCN3jKLKJSOHkeQxn
v7gs0gMtZfanxQsNO2CzpOTEaEs5qCGeYNSb0QnNCPxTdfhMCd/ZTwHyRvgpvYve
re9BK6aHjm8XsM0wkiF+hFwr/UDu7BFII0SQWFq5iuYVk2uWo0t2MWrBK4++S6sG
ePJl49bUy6J0/OX5TOUr05tjnQ2780DRSUJMx+YeX7OKYIQ0wuPww6OIHMvgl6mM
j4GV6gW9Aq1HrDGQBlMM2TQ5gky8vHp9+MJqJXQk5CglD1EgHT1gAb/kmGo9psZw
wVSheKtSwZvR83My1vUwmE3PusCM7Yp2cGC8PyQYX9mpAJ1VeTTit/Nyh0s/hRHu
ezhqgcHcKN+oPbWjTHQvFWdBYTO/d4+GZPCWlSLfjgIC7MI2t/NTmoKtQCXBSSi6
UkUPes7SapcdW5YvPHnMbrhTBGP7xmkTCSskAwMCCAEBBwIDBFWYq1T8ujZU2iWf
3j4fRxrRNDStPHW1SdidjeCp1U6pO7lJ+5lFunnYm1lqCHb7utHuSYNRK3DXiAae
POJWgciJAjYEGAEKACAWIQSM4VJ6T5ojmMN5ytULqhWbqAdQqQUCY/vGaQIbIAAK
CRALqhWbqAdQqapnEACdXLhjR49nh6K3FlPXOqPX5EyRSiyfDyiu3u71BH96z/V5
rd9wQuIL939Jb41dIn/gTZDg6Fjoz4VZgcEazY3EG3+SU7xxnh5AtGXwgVuqaLm1
bNIwGaKACxZIwGnH/Bi5chdMr5cOi7mFUCbrtDNDsFBIKOzHI4FccGJM2OCOj2Mo
r0a22FOUdbaHrp86gD1FGUenS4CNV1qy1F9UGIB2NyVZvsynUVTT0JRGED0tgRVx
HtcXTGtE8Xp+weD/dQjR+XRv0nU0MXoRmZnKVHvKGbL334ga16kFBg857NeBFS38
xo54D5JiMuVysZWOysQdL9q/ai9gi0A92KZ2UfY146cZ7bI4SRHJMfQi7TyPNJb2
GFi2Qe1/ukc3a3+uWSwtV85zUaHaCmB+KYGmpUKuf+iorRSYZg4WbmJUkO13BVWN
wDfblPnege6ehop6zr3BbkY2lcrYSHa829MNp/ZrbHAtTNDUFwPvYa01ouzFRxzm
BWPx57JSezkuxBkj/VWpF4S+zzlHYve+5NnYZpxOFAyhSl5hu+c91qApI0HICBu3
/AEiklyioYnK8hzzk41Mz56mZ+QPAMIrNnO2LhftPSZxyZLKRuzuhvb9UUgQ6E6D
Vug1QfSagn46fnthTnEyjjDzQr5u9YNJt36uY2dlxmUhVcyNF4Ja6eQO40cRcA==
=3lP9
-----END PGP PUBLIC KEY BLOCK-----
