pub   rsa4096 2011-10-17 [SC]
      F9229381A33408F9DBABFBCA117BBC80B5A61C7C
uid                      Christian Borntraeger (2nd IBM address) <borntraeger@linux.ibm.com>
uid                      Christian Borntraeger (IBM) <borntraeger@de.ibm.com>
uid                      Christian Borntraeger (kernel.org email address) <borntraeger@kernel.org>
sub   rsa4096 2011-10-17 [E]
      9248D92EFC11EE2044D8E4CF64F89FF2F076614D

-----BEGIN PGP PUBLIC KEY BLOCK-----

mQINBE6cPPgBEAC2VpALY0UJjGmgAmavkL/iAdqul2/F9ONz42K6NrwmT+SI9Cyl
KHIX+fdfJ34pLNJDmDVEdeb+brtpwC9JEZOLVE0nb+SR83CsAINJYKG3V1b3Kfs0
hydseYKsBYqJTN2jCmUXDYq9J7uOyQQ7TNVoQejmpp5ifR4EzwIFfmYDekxRVZDJ
ygD0wL/EzUr8Je3/j548NLyL4Uhv6CIPf3TY3/aLVKXdxz/ntbLgMcfZsDoHgDk3
lY3r1iwbWwEM2+eYRdSZaR4VD+JRD7p80FBadNwWnBce1fmQp3EklodGi5y7TNZ/
CKdJ+jRPAAnw7SINhSd7PhJMruDAJaUlbYaIm23A+82g+IGe4z9tRGQ9TAflezVM
hT5J3ccu6cpIjjvwDlbxucSmtVi5VtPAMTLmfjYp7VY2Tgr+T92v7+V96jAfE3Zy
2nq52e8RDdUo/F6faxcumdl+aLhhKLXgrozpoe2nL0Nyc2uqFjkjwXXIOBQiaqGe
WtxeKJP+O8MIpjyGuHUGzvjNx5S/592TQO3phpT5IFWfMgbu4OreZ9yekDhf7Cvn
/fkYsiLDz9W6Clihd/xlpm79+jlhm4E3xBPiQOPCZowmHjx57mXVAypOP2Eu+i2n
yQrkapaYIdisDQfWPdNeHNOiPnPS3+GhVlPcqSJAIWnuO7Ofw1ZVOyg/jwARAQAB
tDRDaHJpc3RpYW4gQm9ybnRyYWVnZXIgKElCTSkgPGJvcm50cmFlZ2VyQGRlLmli
bS5jb20+iQHwBBABAgAGBQJUQnQiAAoJEH4VEAzNNmmxE0AOoJTzOXJIEgqLpbC4
6zb4aqo1IjuSTavcZ/5HADQyyfKRvUeTgCRMJ5mS9TCvl9NL1eK2qk68/Vw2138O
TbpoqEYaS6fae+iqkyu2AhEB3lqodHDYCZB+b5pkqWVq9Pk0TU7U/+OyNWGg4Lrt
jgpJMVkwh/NCJJveKy0fAa7pMKmXnf/B2RNMOKgMdELxacql5bbXczmitkiidwGH
29F3qtfVOjWxhN0WmD52lzhp3yHhIye+cQTk7ydPbf/G12z+3sxz1HZvsMUtVFPq
Ry7G8o6gHGjk10JFNZccdfUqIewCLBWwgOE7txhlBUuwwZ5IIk7etRYE2iwAMWQe
si04vVSbTkVK4FWgvHiRs0muzANULDFukA93k0eISY/6yjZX4/buYQHv27kGSAHY
PJdOiQ54cZuDcxSbqwMBrU7v4poZ1pBoyyknusFyxMEB0ra6CDOKuTXVfQp+OCma
Zky3bY3V2F16mMXSCl34b6Lh8pHfl7FpOYGdsPqnuChnKGv0LpwgbrT2B+c5sBq9
UgOXtX4r/0duzw0mOPBNuva4brHUV6o1l+DFekdgRfzOARSWSTEM3Bt1Znot96Z9
tUggJe98chnDp20HuSAf9HTgzNqwXazVZokCHAQQAQIABgUCTrfpAAAKCRC76Xa/
Jq5d0uu6EACjsNaOQeAn7yiv6k9UySgp3sV/IDEhqaoZUwBCCibR3Z1/r7LsLFc7
U5cjylGG4Lf4oYUWKp6b6g+26O64IywP9ojA/fktSxcMB1tNrk/+fjFj53aM/lhV
o4AO35/1bj1l8CKt4wR9kLyb7b3Qq2NrsLhVewFn/LGJRILmzQUt+768KLLkg/ey
DYpM04GZVG7T8Yi2EkkKMEymc3dBAfjo6GvcrKNRYkaDC/L1xjTQUBBs6DD4iDUX
WfOzi6KsO1wT8UZoDLlW8OzdNwSUA+vIw9BYW7dsDE0fC6Fa2eiUunchbWEbbTzi
Zb4DuFlHVYtlFMmBqkxCw51ZZU0UlOpYH0thdYeEqr5DpNN+VXQKPEMZvkCbx4yl
LPjnwi3tzda0XOnSK1TFd++l2JUIoIT+6SC6+j88rEdkFlpu0ELgueJgu5Ebjpbe
g+8QOLLcORwVKmZwg41ABaQWSkumGMJuYVOOGKSN4pJ0WLPp8svArlEq8vQBoW0G
/83Z9wxH7AqV7MCAn4nYyCKkrW6rLvQdgmJhPKybeEnyO6lZjv6gQKkIyZE61DRG
Ls3n/QzqhZM005bkH281FnPWhE6JKmaCGQATeNBG0TQgn1MjCIJhseHGlm0YUsa2
+7er7j7cEXz+NFOaL2NVsqQaQ+90pXYG+GLCyyR5aDyogtz742zA/4kCHAQQAQIA
BgUCTrfsUQAKCRAiDsN5GyluwnsXD/0WXsiWPc02duBEobQHkEF8oextahUlI+zm
HbZKHuUBzcfCux+5gyd8izkGuEzTb0/4tZgbMB+Jafxe4UMwVu9X/oBYqyfkQz+R
LYym4Iow1c/jseuN8Lqg22ur1xo+d14rJfc7/slQks7jTHi0rby6Xlxd9Lh+cM94
nWsfjFG4Cg7i2tQCSxieM/HbJ6e7ACYpOplsQAq35uXbIhE+ZNNQ/rF+gxc4zpHD
ImPU+fKJ3kbBTF77M1OgoV6eOJaMEGCAloSZZrPdm63zrAOjdN/8PE910JvIdBaz
klP/cpxdGT7JV+4xQYeeo1aUsShGrI9Zb51NWyARVuHD70DhXmjCHTSQxZXlOcP4
x3hY8KdVu9fTPZR7WccwPxvCBHMY76dW0+QKwNbiHKhwx4gPA9j2Z5nFkdVDahH1
Qx8pbesNqzIiYV+bWFe+fpgW1pAgUxYhy/H1urF8oiQxVCMv2aizXmYeFuPgpvI+
MMh82DGLAX7IOHY4YV3I9IEdlj9bQmWq4osSi+yHwQt1enlUjgKudtOGvcNOAaKT
yx/UUmi2Mfeikl8Oe1TcKoJ9ZN/a1pA5SxKBakt8HtdhlyAG3FyVuzYDD3Mn/2Gw
DFs1aHOzX+ktjEhGNMeC7xJHJhnPGnYthsUzDGrfy9Kd+8VWHlLBoicS6YuCTQWU
7s+FJEd+iIkCHAQQAQIABgUCTrfxfwAKCRDez2uTxvAvryCRD/4t7OS/gAvBdcTv
4Oz45tuw6lXPCFkPU0lFuCkzE0dA6DKwK/urdiHS2wHy0yXfMHNDpqnBm4cHQk+7
Lqd60ejaJjfG/IASmljQCDKfbf0+2yx2wocRbeuSFaN0RThc6u9XL9lfdFAg1frA
UD8N8pSrohhm80XodXe9kBS8fNY+L2rrALI9KrXAiIyTJzJQ4qrX/1n69wOHioCv
J0voZjZcrAYISwCXXuLjJb0vkhwqtv4co7vrqKoFU+7Ng2GLMcyBESPaUHI8SoXH
fnbbfkLFJsPBok832lAH7TmSIoMzAgkotPs5f0e8ocTEiPpx45TcUh7sEODRN454
/IeNRB/fqHe0KAa8H6MRi38TILZQBj/Jdlodu6zu32sRs4c5FCs/lXLEhg4Nx58f
PivMXOz+6+DecIleyFhzhlGkeP9ZZNRK72BgPg0+a6UuLedIsnS/cArOV1h6GWtz
k0oDvqX7m8l3KFsrvchw5VgNUO7aulhDGFbYdovNsQNz6NkVc2yW9atXpmizbpm3
urXTArzCDMFfXRn7aATXQJJDlXGTK7JNZ6ehd8Cl2bhu9pQN+Pk+ogfnxhIxAS99
pnchAxqjOcBsq/W2bPgSUIKyArkuH2FqParSYD4wtLu7NMeabrLeU+OlN+PQdsbM
DgcDC9HyVEzZIMnKm3Gg+w9VAu1AZ4kCOAQTAQIAIgUCTpw8+AIbAwYLCQgHAwIG
FQgCCQoLBBYCAwECHgECF4AACgkQEXu8gLWmHHzmFQ//bKnOmXWCg25gyL3Nv9Sy
9IOzoIgPKRyZWDdlh7yIVKGVCKsvEsNhBZ8v55aT1VnxtvdCYszUti2dJgnhmfNM
rdBKUDUfLS1cy0kq9BoKGNJcLCoQJ8d6dwDqwPFl7Dy+qaywLt8iSOQ9MpuDCeip
WFSI1KaYuDS1s+53ANpw8IiKpPDwRsbI3XP1u+u8zjr+9de68IWhh4KydrS8aBlo
9LqB92VYSEz9c4Kh12GnoTxBCw1d+lq0ionU2q304QlltE98uGx/5o76ouI4vXpq
df6TlrOf35neB6SlvuOLQ2LeK0iUUmvJbF52WhD2nmN55G1j3Mt71+qmnyHsuXfH
XPFMmmp9/VrJZyRTRMfHAqiawu+5CL3J5euR2lt8uPA3s6zAx9+LdxbDa0lb+X0U
NJmxHnfIW5+I4LhQIz7eGs9cWsEqdGL4c8AEyWJmVkTGtyz8f3wMaKJavXDWtFAd
w945opFpLZviZ6emj3kNg29wtHA8sXDkGPxgEmB2Nyja2s/IsEu71C8qtZVYTl4N
RHkpvpV0NQos97m9wIcxOHNAEqkayB5aFRwZoeH2r2OAxBTdfV8Nae+rwbukI5bC
Ro70TltxkSqSxqIEEy7JW4wnSGMqdwCatipKCsanXkGJtC2V47QMLUQ2w6O9QhcU
u4v6n71ib/Inu2xPQOlrI5+JAjMEEAEIAB0WIQTzlzFsIQqcAxIFZpFGfI7ScWqT
1wUCXO7wuwAKCRBGfI7ScWqT1+IVEACLuXhpv3YIYNr/JJH7v/oXhi4wn8O37jDm
TmvdYUvDKbhcL1VZFCL+QOWXZB884CyuLmAYn+AoUPiJoEJT04QUNViQGpMByPOP
tJsca9jrMLal6xA9b1IbBO/ZzWrrZWGRT8RlfvmpqZMdGxpUYZ5k96eyLhH6w/K5
qiqeyJ8Pi9tjTyJaqOP4yM94uOQDItQm0ytlVuz0KATvPPAa+krhcXqPijNkVVCN
X9MoqLHMNIofTOh16pFxFfBfINVQMeSsIU8vx21CskD1n+zs8sy6XuGzVhsDlUQ6
VhHcDIk35Vmu1kMjg2dT7Bjm8/Bh1/83hmFiGTtG+mbG475YJMO+hodH0Cgc4Wow
VU7+blIWQtVcP8SLGOQSKV7t89NsekcHmeZNRRhYfs0J0qJ0inOTBbdwh1tKyux5
5zMTLBFLb4y0G6B3S93QVC27LPwvHJW3thb5NCA832YZyxOuM2v5baJ0h8tGHeCS
4idLJszt4prrkjb6dQ2X3o9942i+dSN2RY+0Tl7mTDi1yz7JTx50/IkQT6f1tRlL
VxxCpZg+J57qYNnTsYTVP2uFHkM87mDzLi++zkfAYKYspqChAtEpGChYIFmEMGAt
UG99LEbj12BZwLFjmjm9eJIXZAfCFyVj0AtZtN5TQIVjqrr0fo4nZQmBnSwEhL6P
pO53uHlDzLRDQ2hyaXN0aWFuIEJvcm50cmFlZ2VyICgybmQgSUJNIGFkZHJlc3Mp
IDxib3JudHJhZWdlckBsaW51eC5pYm0uY29tPokCOQQTAQIAIwUCXT/4TAIbAwcL
CQgHAwIBBhUIAgkKCwQWAgMBAh4BAheAAAoJEBF7vIC1phx8v6QP/iR46RJ3dNQN
Agsn1Z2+X5nDpUNC3ZqCli1j71PONKuuR8nAgRU7eletnA5YwZFxRcTDQOMv9sKl
NB+fwoi/et8t4FiIibGWuHp7fiqx5eRitZyIG23rHycgOyapQdMPxP0rmDUUMCFj
qP7hLzoF55P+/q7bwczWjxqBooldS2c3msQVVq6i7ZnYtYrpVv9F/wJUD7hfXQ9T
8YcftJj42fApS6XUqeXdMn6cIB7TNQeyjLkD0GRhSjF101Hd3HgVBhnM7ICDIqWV
ibpKjCYiY0CDB9CDe12BKxJ4X9BgsSd8QJ/ye4haTxb/LBWU77pJ7SV0lLLDjZ8I
irpXerbVGhYUrkqEIDhWEeb+6Tn4pzNBXEnDyk5K0bAeYlL6XbYS6uaoMHUI5siD
bd3G/uWkrwV9pzTdd+aBjrZW+bX+HYdNJFEfFxR0axcV8eA22sODyoFd0CyByhBD
Zap7YR+bdLWoQ8oED50rnLl21UBHA2Wi/VoCapUQAI9KRvDOiTVOftn7UxV6E3KC
FG29Ckzom2jvcx1XhnoMALzyyzZSh4h13IC19bZIwg67xNmdHtv+Ku8IGYJ9ZG78
+2R0GQe+jjNpo5Bbu0DR5USdlVyQPLTF8k4AV+pKtXGDJnfx5ToRawFN0DtUowrF
wNgg5PTDNeO9ZmAdwk10Lis13JCZ8R5BtElDaHJpc3RpYW4gQm9ybnRyYWVnZXIg
KGtlcm5lbC5vcmcgZW1haWwgYWRkcmVzcykgPGJvcm50cmFlZ2VyQGtlcm5lbC5v
cmc+iQI5BBMBAgAjBQJdP/gbAhsDBwsJCAcDAgEGFQgCCQoLBBYCAwECHgECF4AA
CgkQEXu8gLWmHHy11Q//RVT0zMsiALiRlEOLcy+D2uNbyumQDMDI9tHi/b52Rz25
KN1JSGi8KiRVeu+T1y3KmqcOhKHYaDKCg68Nb1/vzM5hCL4TjtosEgJ9pjeViKHI
nfj9BzVIT3lYm4pWIbdXznIQEHdL44jmrhvd74pMlx3LEFsAssh2P6tL/F4ahj+K
ViuXAtewWKMbnS4Gb3KyRNF/nqkMhN9PQyYPl5po2646g5L3D4tcb9O3hQ/BBCZ8
uELK9eCaoJV8xegm5sMtaVMQoqQquyovZW1yPUmfk/31QR7ttVbX8gAOifRE7iMm
eIDu5LQkes+NRaMvLi19jcsmu//NDI5MLv65ysQSPWNamrghQbNCRItHjFbcGYU3
FKdEMNNIHwWaC6Z+WHjRGJSp/2KsAfyc9QMcuPdIM3x397fHn8HY9IrfIw/lHH+Q
FlxkV/E+sVKDKZ7soT40V1dp2+v4epgENWlidsQ0NLRALnV6x9nj7FcHxkBYFaZm
A5f8xqpAvSVxB0LsA5jyuywDhHxdOM/Rwile6nW9vf8oXeOIAtFBY461xUX5I5Hr
F0uGQ7lKvau+G8i3aB54u86eBKwZw8MzEpfuNDdY6eah7TVdtqr0nl1ywqnOioJT
szM/zvjvdq/qwHIigk1DmhyctZYneCyXdDYo2C7OlLH+TpJFKTQJ12RBij1scDK0
LkNocmlzdGlhbiBCb3JudHJhZWdlciA8Ym9ybnRyYWVnZXJAa2VybmVsLm9yZz6J
AjYEMAEKACAWIQT5IpOBozQI+dur+8oRe7yAtaYcfAUCaeXQ3gIdIAAKCRARe7yA
taYcfPytD/0V9U+FXDPlUHtWjDhtUO35PpRU7aTnABa+t/x2tVYmOUq0MsPpggA7
O3j0rMJG/hlyPpFF3PMWHQ7JH15vxGhpqiApiHFrKdOzu4PJP8l8BpPjkA5Pujii
I2ava68gF3k2HEwjHcgeI121HqRTpBYtf8dcpjdvloomUnRPJXgpcVlHDhuhx+VK
nrhjEA1m2Vv+5p8O3iqLjcE0nnw2zvZR7EcnMRL5RQYm8fPeqCX6tnm1wBakz/97
K51l9X3GRWkWu9qHtkiXs4FeKJiNxBkfUi1ZNHK+kRK0g1StUse7D/vX6k/myvaE
RfWY5zeqkX5VocuQVp7zJ5v7nDZEkRIK5tpuyJP6kDNNYiLBTV0n4Z6qlv+8HJ4s
DhvQtQmcbAfe2ZFcRGIa2jv5CXRj0W1Ym2VBwyuclqWKvakR/8sQqJRv+SWpJTzB
bjo+nCDszXsbHMnJhzQuZ7XxBkzZbk7FQxKooDeAPVEeoW5aQEQohIUfp9K7eYlS
unhGP95923aS6Ye3euwrHSm9lpbIqtPItz9Lo1KPk2+pqEPtykJdsGknDmVmaD+a
W4m5uq18K5n+0CPv+hD+RkNhPDlzpD4yuBH/UzdkuiZOt8khjnpwTZ2Vh1zVMQuQ
t2Lkg9gvw+7x6n6RHxTidpGz4LIlL3eBzGEzhJCFWuysfTFu8JIaArkCDQROnDz4
ARAAmPI1e8xB0k23TsEg8O1sBCTXkV8HSEq7JlWz7SWyM8oFkJqYAB7E1GTXV5UZ
cr9iurCMKGSTrSu3ermLja4+k0w71pLxws859V+3z1jrnhB3dGzVZEUhCr3EuN0t
8eHSLSMyrlPL5qJ11JelnuhToT6535cLOzeTlECc51bp5Xf6/XSxSMQaIU1nDM31
R13o98oRPQnvSqOeljc25aflKnVkSfqWSrZmb4b0bcWUFFUKVPfQ5Z6JEcJgHp7q
PXHW7+tJTgmI1iM/BIkDwQ8qe3Wz8R6rfupde+T70NiId1M9w5rdo0JJsjKAPePK
OSDoRX1kseJsTZH88wyJ30WuqEqH9zBxif0WtPQUTjz/YgFbmZ8OkB1i+lrBCVHP
dcmvathknAxSbXL7j37VmYNyVoXez11zPYm+7LA2rvzP9WxR8bPhJvHLhKGk2kZE
SiNFzP/E4r4Wo24GT4ehYrDo7GBHN82V4O9JxWZtjpxBBl8bH9PvGWBmOXky7/bP
6h96jFu9ZYzVgIkBP3UYW+Pb1a+bw4A83/5ImPwtBrN324bNUxPPqUWNW0ftiR5b
81ms/rOcDC/k/VoN1B+IHkXrcBf742VOLID4YP+CB9GXrwuF5KyQ5zEPCAjlOqZo
q1fX/xGSsumfM7d6/OR8lvUPmqHfAzW3s9n4lZOW5JfxbbkAEQEAAYkCHwQYAQIA
CQUCTpw8+AIbDAAKCRARe7yAtaYcfPzbD/9WNGVf60oXezNzSVCLhfS36l/zy4iy
9H9rUZFmmmlBufWOATjiGAXnn0rr/Jh6Zy9NHuvpe3tyNYZLjB9pHT6mRZX7Z1vD
xeLgMjTv983TQ2hUSlhRSc6e6kGDJyG1WnGQaqymUllCmeC/p9q5m3IRxQrd0skf
dN1VAMttRwvipmnMduy5SdNayY2YbhWLQ2wS3XHJ39a7D7SQz+gUQfXgE3pf3Flw
bwZhRtVR3z5uaKjxqjybS3Ojimx4NkWjidwOaUVZTqEecBV+QCzi2oDr9+XtEs0m
5YGI4v+Y/kHocNBP0mydpF3OoXvcWdTb5atk+OKcc8t4TviKy1WCNujC+yBSq3OM
8gbmk6NwCwqhHQzXCibMlVF9hq5aFiJb8p4QKSVyLhM8EM3HtiFqFJSV7F+h+2W0
kDyzBGyE0D8z3T+L3MOj3JJJkfCwbEbTpk4fn8zMboekuNruDw1OADRMPlhoWb+g
6exBWx/YN4AY9LbE2KuaScONqph5/HvJDsUldcRN3a5VRGIN40QWFVlZvkKIEkzl
zqpAyGaRLhXJPv/6tpoQaCQQoSAc5Z9kM/wEd9e2zMeojcWjUXggoWj8A/wY4UXE
xGBu+UCzzP/6sQRpBiPFgmqPTytrDo/gsUGqjOudLiHQcMU+uunULYQxVghCsyiR
a+UVlsKmx1hsEg==
=EA+1
-----END PGP PUBLIC KEY BLOCK-----
