pub   rsa4096 2013-10-21 [SC]
      885A73EFDFCE2FA1813306B4130387AC5F0AFE3F
uid                      Szymon Janc <szymon.janc@gmail.com>
uid                      Szymon Janc <janc@apache.org>
uid                      Szymon Janc <szymon.janc@codecoup.pl>
sub   rsa4096 2013-10-21 [E]
      8E62B6FD7035799EB7BF90EA68EB6929CD93B59F

-----BEGIN PGP PUBLIC KEY BLOCK-----

mQINBFJllGIBEAC8wt8qp9I9d9FUWVkwJ/UAmyZ87+3Kx42T5odbInD+FC1Rmyhm
etmwe9H24S3EY+VkkjGSvQ3vUBXnYXOQbEyCAedPdd/TfzxNbYOJtM5d8ASl5+8B
SFRCmH09RUMNkCs0ElH3Wqrc4wi4MCQ6FuvjlgX7w8s5jPWw9y0YZV59oaai1Qzf
SA8M2af5XU1somjrNaeErqbCxD6pH/Z+DG5oSrXTvXPEzETkvpSZq4JAL9hk3LsB
95zipCTxnqVKA4Pda5IlPZs6RDVz87ztHG8k79biQbIh1TheTWm693CuyBo2OilF
KWLvOxS88H+wACB86EQyrHk5w7GLpiKhDYRJEeFQTch61k3P3sGeIyoqEorwo3Ef
ycVid97Petl+XQlj4htajnQXTt1aDhiVXQnwR+Kk4il6udOjT634dKkXAsgVFmgF
f3Fc7LXkMboFBlVFVxenwXvw4LSzHjtXBsmJAWEZ1VCfCcuZK5rk8tlRqGoDvXlo
yNd0HQT4457RPx4mtxHVul58c61vmrIpCi6E+hDcD5cLl92BVBIX5Hry+erW9nX7
p5hf/7/OzF6VyNUoDmAptE6Kl3ix/rCL0eLcw5kmOyVixXpMhdCkP9UCthDovLbh
azTzmFI1sNneDGYj0Kdirj57/LsapTjq+varIUGaFKdn5QjoC8qFh1vBdwARAQAB
tB1Tenltb24gSmFuYyA8amFuY0BhcGFjaGUub3JnPokCOAQTAQIAIgUCWWSkRgIb
AwYLCQgHAwIGFQgCCQoLBBYCAwECHgECF4AACgkQEwOHrF8K/j9ZfBAArGlKnR7r
/+fr/6daVTpwbCUJynkEDX2B07c0EVh8uXnYSlvhj3lnsZGx0/jpGcunrnwvZg4n
JO14np4HB9E+NIMkV3/ICaYgMWzKIQTKZ+7B8OzOUfZzfQ6I7LDpa93BdRPJqvF3
rGmSY2770yR8MZ9McdcM6GF9ZHzCyC8BjjxAyAhOGqK28YWaZqKVhIvgl3tAsnBA
UKTm+uHGojL1wERxHJzYjMFgoqLSmJInLsW+fM+tRnROEIe7KkWArEF6VVD3jT16
baqJVT5PeEJ9+x3nAqJrtOBiXTAUsKU5m2zsljMxQpoDxQ04ODPV4JsLA7r/5vg+
/mywmRtgL/crLCVmglCU99pnVZERKt3BKWkTPUOT3BFgU3JHPo/PgZYS9rG2nv6C
AvXOhyOIhwRd1gLgGJTSxejKYibQQHfv7p1NMMEMkAC5yLN8FM/qsRxbZylhH88u
qMrdiPQNim3vDFJEvzxmMUhEPHw3uWmpreovEIdOww0o8BrE+/mmkeTmB9yHgoS8
KU/ajslJe6THoB2Nv8ru38ezsurkZaFUo5bSLdMLDuEgJpf8FWU0E0DLjSAfMi1n
/Zzpftob2hSVkOVspgiPp7Q8oxy8e9KqeMOgmToLBH/s0k+2lVrce7q9RtnA55C+
mcUiLA5MUI+wD6WgUHC4zGj6vPmKD4U552+0I1N6eW1vbiBKYW5jIDxzenltb24u
amFuY0BnbWFpbC5jb20+iQIcBBABAgAGBQJSi3EXAAoJECQj9vv5qNQSwpwP/3jY
WsSJyrpLSVcVSOKA/3+HA7edRX3FnC8x0MtM7sOa+OILwvGMru1nSIEw0/f6lsHU
d/31QO+UCuTYJRxCKimANNBgDgXhu+4l7f0/IwLDncJELIgyd978Yzk/GolFc9a1
qCgL2wyjLguE8N2wcOKs/RI+RcsQg2MeokqsdFa6weHIQ4FWBSZlL5lCaetjCXxT
Y0pFDOLDo+puPJO7wHO/FUCQF8FjeHIjhL8MR/0kcNqN0hSDFp4YaJGzbyuzwzjq
y/uO7MhzVoU12yTX3Z0lkf3qQG/kC1Pa9xgvpSn4W9mvOTzPPWU4cnn6ndqL49f/
hEEYL28zfIP0/xAIxXcYMKnso9KfVym6gGgGOCSuYPUkL2UkQZ8srPEYc319nGJs
l+V8Kr9nR6mC6/KG8WyKwD4Qt5ocaK+naavMw+fat8EtYPFwBftaMXBbf9n7r0cM
oyh9Vli5WelT3cGJvumb2RM1/Uq0B5bUOMoNV4bGuTImPHi3Uj/HOf6MOJHG0KaC
2N9KW8zKoi6N/tjAvFVFsYyUq2oaXe60S5SoNjfnJO6Q0J5Y/btjto0494tldJ8X
FILriezuQGKtol41nGgArIIsrMcF4sqWYpyMC6tYUn2XZiK99EwrDcDBk9Lzzz4Q
sVqnRMgFKxXuXLsw5+hXetBmUWxEUkZeo7ZEY0eLiQIcBBABAgAGBQJSi3PCAAoJ
EJAkJE+Vzp4n5XkP/RdQLoI//erko0DROPvAaYlATn5CrKGuCo8Zb+NosoeZY6YC
HjNWyRmxObvajCgbWFhxR1MJyzXZAPnT3RMt7A1QIdvM1BWC32gltqCWIBtoV5TU
Ue/g7lQZH/7nTzrST7KRZ3b3sUjPwxYEBQEvYEJvEW7JsFLq7yt4U3kMaEDxvORr
kS9/ibI2TmULJR2AgVXONeALOmr+YcFZPrbPAGwdI0V0nCYF4MWPrf10U910xSsl
pPTgG4qhw/5h2g+HPRJP+zFibMiatOkaFdI1bSh5yrZ4hBlugNlmLB4/07j5szMi
aBXuE0ixh8th/AfzsuM46hWkBFgae5ZIHzTWatsOYWf4qC/Nv2FC5E2sjkf0WSHi
iq2xyzVVY72lWP8HLidc/w0ZsueVZ2NkHsgPcWsbsJyEF1RBirZrPtnUrhkZXbKe
ssW8vTHrpNKaMGH7PmTyznzZnYSV27xItqNGuxRioMaBgy3mkvSy5FTnT29ZV3rV
q9hkPYp1Ppziv/6wJNCs8dwB5FIvhgcXCJvNWmd2XyTnK79+RBQ5gpEnXE4OrM33
tGUBxZ/fXHvBB7noLR9/A6KZ+aK3UtGPWyQRGICYmjNAk1OfbOw4rhVCLYPfqaG9
0DzVkPiQ1xfPox7SndeI+Bk7MB1D9ih8e61mtB+8nSHPO0P2ApaxyOIZ8uxDiQIc
BBABAgAGBQJSi3dwAAoJECmIfjd9wqK0caYP/0viNjNuRn+iKr/axLFhIP/pFjpG
rKGSrseEXDzpgoG7t9am8j+Y7i0dGdv7uAJalB6DLlfntMXaXpfyYTOtuqdwupno
Ioa88UGE6ysN6HZfJokyot/NWHdrpYnbVY6Md6GbQxYQg0Lhs/Il9542kAlV5geL
rKjrL+7v+TvIzU3PIVUwhmeYZUzF6sf6vjPeNe8GvC5qOfwCIVBPwt1t2HgD7W7b
wxfOxZVxBdGhlKrD8sWkRHYTAGPLTxaPAEP2sBS5XqdAVFRbDtOdYd1qV3QFVvrV
PGxNLv+XVZNnViZEt4oXlleJVGjQrT4HhoIDXHc7KzLy7tpjjBYoOLy86pedv/ky
c+QYnu3hbEPibZ9c5wuTQjMshU3SIROzSncdkynZocceeY1MLZs0EhZmHL3gLzW7
9x94qrE4JX+t98Tqqyck3f2tjr6nRb1y9qwGCTpvj2VK0SLaQUqfYwIGJ6/ZolCX
h+LTE0L2Syjkq4ruWavLSDr+OXsfSXnI+IEQSv6GHpp81Nu0scF0g5a7QWDXV9q5
0ROVz95UbAlCtRTmy6lJ5v1tRnWRQfC/2A1kCFsXMKUIOdyw7rcBjUuPrv23Gb55
8KoKzpeTcY4Gr4RzBcXccGNwZmLOXCF1BxzPVLB+NvwHBIg0RUSqclbtz1CHdCcf
55ukxp4gno/IP2d6iQIcBBABCAAGBQJVtNahAAoJEL1qUBy3i3wmGF8P/3rCnroM
QFhKqCZBvedhDhP5cPUsUmvMaTw0hCnPVkTk/sw5fVZlTBswcOQutYIKJ9vIPpoB
CeOmYvZJxdujb1m+utDrq0baw0ompwKbx7FXY5nmRoU0RNTDMDuUEvNP4bfukflu
46NOq+uDsKOXTirqeSyWxnMihb9aDpB5RfOBj5UhYC6R7QKiN1Y0kgoFb+SlapM4
+j635i9zCWybaJG2ndBtQ9z38mtcJX6l4/6VuHNzBPMXqLS4DIb64cgJz/Dubf8y
fztt9stmsq5lqWgs8KsZe0j82WFkHU0wqGezpZEIsnwQNqYC21e4iZgTYv0bY33/
RZa8YCGlJdwtoSDgyDEz6CcQzx46htkhe2RQtUaetVpW5pMsQ5F3mSgMb5rbwJzG
TPwrs9xy/DZOOAmAoC1gsKIomrUrqOr9OVl70/SdnElnDB0NmMAF9Rj32xMUkaS3
VW5X22R4ZTLetj94Byzh9d4hQuCxKFbM5j7zt2LOXMw+GsRaJH+/aPxTf3zjgOAy
Q5+ZrQ9wq6O8HWR65lVZqwqIm58s+DTy4nQKnYmBJTy19JRcInqXCdNr4oF9hfKD
SVQaso7c8u1RmwL+q6zHWwe3dGLfzJFAEJ69JsWVYkfS502ZLEwFDoR8Hs5x0IrS
pN8s0r1X3NAuiMmUrOv6ZNeOZ1cYn6cbxIsEiQI7BBMBAgAlAhsDBgsJCAcDAgYV
CAIJCgsEFgIDAQIeAQIXgAUCWWSmPAIZAQAKCRATA4esXwr+P77zEACSQw5DNY2S
i4cawbX3pTai2euK6BZe4I37ndXsio7kmaroj3Kb0pOI5FHS6N9zHLdhxZhbWfoi
OHSnneXccW7K9k+PxpxZbm3rdhfTlZVVmtMBy68W2e9MfNypTeP6KyI8tWaKmd5/
awzixUp75fmZpBX2AQsx0Pa+cXXMQvLyFNV++rPBbUNKVwT1m3NHkBjRz2LWGNxV
+jpvFxA37iPFKJiSG4J/9GL1OSUlyPNj3uw33bijCnwbFUtyf39lXpgW7w/XW9J6
vl338G9DPqMqjK3klLdMVxdlyFHwCHr2SsYAAeoGfTj33SowTLFmtieFHsop2V/V
Xp9q4VCHVZE379T4T+EMfTi1D40xztGbmYlqJWADkyNbWZrQWfhJjYdwNHeUNCrR
i8DRlhxxuEtKqY182A8EnIdVGB4Eo6lyy191F1hrW8Y1WNK1B+ctRExQZP2ceVC4
q7/MN0VlO8EhdY95l7FZE26oiiT5/TpgrDdmcyvd++UMkNbQ6wlD2R7Y/gk1m3CK
Zb5H3Zato2k/A4ACJ2g7mKtTtnXSc8LtHyUxmlWJ3TdBVv347Sgt9JTUE1LpowWV
aepdNa+2ohegdP4ge2iemCZAoVt964LmXLMWqtpu9JxFAFrywMm0eze8D51z4a3Q
twTN462tahn4lskyDIsJtD1pPOknbLPzVLQlU3p5bW9uIEphbmMgPHN6eW1vbi5q
YW5jQGNvZGVjb3VwLnBsPokCOAQTAQIAIgUCWWSfRwIbAwYLCQgHAwIGFQgCCQoL
BBYCAwECHgECF4AACgkQEwOHrF8K/j/eAw/+JtI+qY4tlcWIuuz7OZdRFho9flVT
TCGfYPrSo2PAvA++9itTKgDKHfQOfiyGoDFQRtjNgw6TF762k0xhB3juG3fGhwcD
TuZdxX8oe98vA3mNVUcRZBHE49Aog8zhw4/MALVX6G62l6fMD0U+yPAoh3EylrX2
JKMc9jg24Ng9Ylia4HwwVufKZx67l6JWubFBghF1fH8DDa4H0eNGYaIoziS4qKBP
l4vtIEJORZai60zpfNbD8pZSYWUnulvWCoB6EFy6Lf1N3wTk5JW660F6X/mWNDYG
LfFfIoT530KQ0+0zEmhaajZa/aTAqo1qJwiZodAPAXQ/i03p59RXzoFwJK71lEtJ
jPW8GB6CG6VPJYZVpH60n4ePsI7Gc6GpYPF0Rj+Hnm5eKR7Rv56q8seQPwrGdUO2
DwTTOTaWNBVvefutyYtFhCr92yzPL9VxlJpMFY/TA/7Pl7l8xtdzNfa26QMV1+nA
GPaY/3ICnjcX3MiGbhaUvNLNi+GKdTYgZbu1Sq76B5h3ZM/nx5x6W5E61bS3kJ4f
yREEmZPCCosYDq5oSiA2ze4Yq1JP01cIPlVwU3S9+bp78h4JUDF/mElbkDQo/+Jx
Hbht8V/563EoyOCLtZFPxbLiOi/GTeWQMoLokPypKe231WvkLjp8c1i7z5c5P4lR
MjpuBYEBObsMm/S5Ag0EUmWUYgEQAKlmm0NGBu8seYik8+hPKV63E6mayp9eZL3G
VwF1GQTdD/B1fQowXJurA0gRcLhTwyJkg4Y+8+6Vwh0ZMrHIvRpUt7uwzzFmQwtH
vEXD9sVu5MuQ5CwIKyV4D689RT6QQKbNPfX3BDLFrJqdoTvyGmbrSy65Lwhh/N6R
OhAyFyj9nC3qo8noZIPdLBH1u3Y8XYdIgjAuvlzA2/uKi6oE7b67vdB5xdcKhxVQ
i++PdSr1Y3zUh6ZGl/lMseNhjFeuPHTGLZAMo+Pa8Hl6DBUYtB1zQodpxKfjL5yh
2Pjysr58pghVd+vH8NZ9ed5I6OumveqTQfa76A9N0arU4Qw3RWw3V2vPDSivzZAa
AvkFSS8kCQrmfVkE3FCKuAPnrZOJ5KJC/zuOaUIPZk8rntosLaI/yfCJ9Od/4w6n
aAO7ZyhDM6QwDRXWl9StH+D8vwgdDJtcRi7oFW4stZuwxPZ+tA9cBttouWQbfSEw
e2BRot/gcmgLyBMbgUGMfSZnuFh1T6otcJ2fVCAm7/IXRrNePCFcJ8eU/la7WQY5
yUFipfBgiycbKDj2TqtTTLTjHc6jDjG/sJPZ0Mmqm25UH+52FppcAtNUp3Q7XaqJ
FADLZWqW9TV9q5f+O3Z6a6AE7m9D80iFESLY2XEBwE61cXfJNXwtd4oc+aW+4tus
dY+Nx+gnABEBAAGJAh8EGAECAAkFAlJllGICGwwACgkQEwOHrF8K/j/5vxAAoFSx
iQHu1QE2jFVDwapzRjhAUll/YQu+93F1manii2WkDgeKozaWQ0z34xqzwsizduaO
zCfyCJMEL1zq/pY9RuA1nNJiQBDZkHk6KabT5YdOSK2uYsN3t9hGEn0v0S5af/++
z/VgTiaP8a3hFp7+AgYGAw+7n2UUk6lnVOU3dLcBbgLX0NMCAt/XO6pzWY2HbLkC
Mcp38QB/e8Kky568u132QM9fcvomq6mEv01ggxN4FwE4+cTdFHyWvYKmh9mZcvxD
8lDS+R5VprDE9xJeqpioky6avUmRkiW+4JtMGol4LXq/Yx3/bn18Hazhd/1LVi0O
r3FKyocI/qUQ3V3lubbsmQiIheFUQX53F9QcLop8S4/00PdhPoR6l5PtdWX/gqvd
9VZ+qUsw5q1b/Tvn4Lxam/VydHzhi8GD7NPUxYQwY5hZTzIAhiKzlANN0nqouhDN
gNV2B2d2Ot/FfdMo/TwBExJlHHmxrAEGYws/Ig2D6AoS+eegbbShROyzdh++ZSf0
JQXIuAItDCnDWrmXdtrghrabgtEWzThs2EBHgAebMP7EL0Dm1ggl0px5a2peUlMN
kbg386FC/iU0xGP9j7ZP/dooCH+y6X8h//V++G/XNGq4q7ql61zfzl9l1ooI8Xk7
bjD++UOlQEnLr4i5PvFF6JZfgCe98e6Uo+38xyg=
=qHqf
-----END PGP PUBLIC KEY BLOCK-----
