pub   rsa4096 2012-11-07 [SC]
      3991B1EAB9E26751A4F7645D140DE4CC14A029B6
uid                      Wolfram Sang <wsa@the-dreams.de>
uid                      Wolfram Sang <wolfram@the-dreams.de>
sub   rsa4096 2012-11-07 [E]
      3B0E52B558BDED8409E7128528BFB19F81496A93

-----BEGIN PGP PUBLIC KEY BLOCK-----

mQINBFCaBcEBEAC2fd9ZOInemhtDEcnjCR63Lx3Vln3FcFkdiPsjankdJNcKKnMr
verFBTTjvwMbAySz6oo9w/41XJKKpAUlnzPLJ1cPxWpzHTHB9YWG35rcKyLRIcLZ
A5XFOVL98AQK8bumUi1l3/ZHOjAchcV5H6BPfgu/x/yNJs4SS+21GtWLKh0edIpO
au7W+sgEA1v5yv9IFjktSYUTwSyawvn/tYYfVT4Y+dfSu6ufgHVRzZlZrLrcZWDJ
2hfWRsBwfkwUsPDlTN8g139drjzJ/n5zSm4YOr539ZTelVd0V8mkRAiwZL3HyofR
yHA+fv4oUNmG5RMuPQO+6Y5Xb7cfdFEE29/M5A4BohXN9k3Dxjm3AJsNstdbBfY+
AO+BVPDWOWUhqiVREserPDxowOHpWeGDqrC0y59X2XcXTrF5xa7b049lS2SRZ1cM
kGdv+274dkJ8xRCoyAc51xzb5Q2+V/iVHTdQ0Knkbe/mRGMib8mkMWv2nHBzzCvA
OOi0RG/RQP3LbYg4DVsK8ghpmRQiARFAyop7teGnPLOgiVPhjKlC7W+f6YKxQZGQ
6LtYdsF3oNEGjbn73ldKo1OJRJ+rX6cmwBjrEin3qi1qxCXDFcL2gO+/0V3PT9iM
2ob7JuAGAScu7k9D2b+rC8fTBOpVUXiqiZcwuNNKxHtOpquD0u9bvEHY7QARAQAB
tCBXb2xmcmFtIFNhbmcgPHdzYUB0aGUtZHJlYW1zLmRlPokCHAQQAQIABgUCVEej
PQAKCRA3fH8h/j0fkfVeEACu2NaBB83EMIbo83vrVncqrhfB2EUNE/ezw6+csWmj
YTMkoc0cbKL9w3UkGRkXwBBuPjzZ9LoLZuOQXZKivMmrjzviqTHemumJ2/EbfuYm
pjaOubYa/qialpbXRBIEy6vYtIHpQl/pGLVYGMze1I9oLEZLJ7uuduvGgiP56JbR
JzrHo7drptqiZHSEB7zEZZ/rzfi1axinLO4DB8KcPi++E1Ub8VPREXKzKleZDhsq
Iy724KFlsR6XY6te0YUCwWlt1IOGDQNmSK7Wn4htNd9+iUw9EO4uh20tUkLA2wNl
sk06fmKvBZCQwGqPp7JhcQxBOjbk1JEhswr8mg9NeHfPxlt4Ko9rVJMhJdsaBzvq
yaOW513bhp4JbVocj//XbsZ0af8xnWoGkCR/k4i6X4pHVupakCqETEpbQTjEPyke
cbd0WUJH8TzVSiGt3wKLpxa+iMepKkyxa5Bb98zWZhhFy4/iKa6Rbli1bf+f9269
znEmDZBXAXBw7HpoBO8OBClAPV6y2u2tKUAhHj72iij6pmtUVyToURRZfMdySC7j
VS589edEwdeWxOWPHj28FJp+CLs9O9BR/4hmjwyMTYTkyn8ByXkmLe4VvuLZSytx
Wu8oP41rqwZbeYZWxZ4HweQ8WLrHWn/tIN/VWjszcezeO9csdpj7JXENwMr/TXWR
FIkCHAQQAQIABgUCV/pUPgAKCRDXz2RpajdPvto0D/sE4QVtoFUGNcUUnA1L4Bxw
Y8dIJO2dJcEvfZwgwbYSZTO5Q00t6Edk9oASQ+HPGnJaHJSd0Bl6BRK0FiBn1v/F
paD7vWQKFnE9TWtj/yqJ2//MZexQvFLLRyemgrQqPZv42W/mqKS9tD/nQYduxjcX
uxvZIA5Qq8wx7ROAc/KIDHy/vXg+LvICZSp2OIymQIkyyjFPrPJyJnasZzkoeAVB
fUxUh9W7ZL1xT9mnN9FgtXkybQsQPtY2PycG1ye2zD5FiY4/KqTh0U9X0A4NegID
HzA/9R31wPCY7OSyoDWMSv0QwvmdDGmViSfYVSIZiZgW1t6RGa3pIpu5VhJnG7IL
Ewa3J/p2IghgZypQm3scWWiDQ3IfqNQ7jd3FttrljzFqNdzmmrhuFasdRUn6mYUM
8hE7mVpTf8uVPS4y5GGZFx8oDRZfJvFDbn7l49zx9R+g1zGbvqtwDLY+EtuPNthZ
tEXfzZud4THTglsgekAsVkyL12TILcaZpwJyE6mgv+WSc1rgN1ELLCvyWTAyLL7i
4MpEPDRFJmfpscu4CQ84tOpXl3bdWE6VYJhxLwQtNloM5P5gwUSmrYI/9Dic4ZcJ
PD0EjAPFS9zrvBrRyypEvc0H8mAaPYDh6SGj63rBZeSPeIeomDFLf6i7SH7Zy3if
iMJ21noU/8oMUE05441pHokCHAQSAQoABgUCV/pT5gAKCRAjhj3Dgx2ysbCZD/9x
qRozzCuXkZ626XA4jpHa++TU1xzJ+Laaa00cXZ7DEJeUbVCbDQl0DAh/JKufcLJc
zd8D/OS8fe3IqOxQyAPDIK7qTi1lWeUPfjpEwJExoTRezzwn2SVbdJSqtPvFF4Cq
10vrP8laqROwuFMUi4j4bjE0wVTGSkb5+jVomVRPThvOEnaGERTShEc2VTo2NhFf
6Or8YUAbfxeXot7TJlHOWURx87q7lNy9k6pHkVUylegImhENTIshqHN5DsSPeK3d
y+oQXtMb9KmQW6C9nk/OezpYtESzdc+ztcIXD9f5C6PMR2ARC1HRrGX2BLqtCfxA
IxEQdiENfbKKrD3l+rVk2kF+nL0Gh5Hjbxe7lp/Hf4vsC7rhe6gTaGO05fAAijNs
VnK/oIlrlupeY5wz3IkkgzxXubvCAp6afM/6JD2h2sLb+yqc0f0rSGj50q+0sD0d
MjYsgAtdldNUzJDWjiqtrubSnOtCvaNsy+em8uO8bkmbZOy0Em/LyBLI99fPkYrF
AkDV1buFKveFprm7vMfhJ0v8noAbl1/IAcu6g7gxnqRMwwvB10LqVg/LX+IbYHib
2GZF/sMkcW31jSieF+bl1chBBvQy2gkhqbOwR/pU2tytMY4bEGAvUbXtgwMLgOkg
K9+cIDqFTvr3LVof6nUkCozk6lU+165CRmgpGxc08IkCOAQTAQIAIgUCUaC8pQIb
AwYLCQgHAwIGFQgCCQoLBBYCAwECHgECF4AACgkQFA3kzBSgKbbJjxAAqxRpX06t
HREplEaRWVB0yAR9olxLybYMsWgkN1S/0wdJJ+demtGnkoiHFrXaZR5XBMimp1AX
R1W4TPYNqXsLe+yaLYsTJ54zX+uiuNwteUTftF37kQkxsAaa/s5r/tbE0h7w8kA+
wFGH52lp0btTn+4f59odAOdSx2kLPCIFkS5rJfo2G572Nv/9WB4YtSFXN+k3hR4d
XnK7jH3o8k3d3YAhmPC43Xhb14wbqWLBcuUUBzcf8igZFVfZMlaedhqZc0G6P1MO
Zqhs0KaaT+STmXKtcrNFWnseZENnJjlnvQFPnNyG4D1IAiml4a8yfwD/+0s5ZLZ0
9knF90bUmjrQiUm0baYVmoPY7UJhuO4Lj8qb6rMbDsjfAJPwT638kQ4eIzZ/QWmV
uSHd4ca1Qd+CZx5e6qeMez3R/QxqbogP6wbX/mEMDXZtMx0cK2MFuOKnlxJtGtC0
EW0GNdXUWDUR3Z6h1ahcXyBlC60KgtfNyFTv+wXEBkGplRf2jF9MX1Mem4B7Ml+Q
j6a7VRsySUOw3U9kTHOtE28fmhHGiHS6SogVasiL964bEN6LoS5i82xu5X59e6sV
TWYTMgW9dEi6TdIqxQneTcQWuOkrqfaAFs2wZmyKFyCQ0RcqUgQYAGr2/gkQsNZ9
cvFCPIr0hGXkSZa7NrAGfLNPTqdfI4lk8QS0JFdvbGZyYW0gU2FuZyA8d29sZnJh
bUB0aGUtZHJlYW1zLmRlPokBHAQQAQIABgUCUKEwOwAKCRAH9N6BOd1ZkHXNB/9q
4a+asLoVTaDha+f0pZWxpmkfEdyp4AD1fQYmpP966waGgnqzvDlZT0B4WcsuNl4h
G4m447Ze5o71bWSMngOJBlhzgMHnlupN63+cIzjUu+vvjK2oBo/QAZ291ssyJf63
/pSyIxwArr3OchOHBQDO0+Z2EJQCYvNdWXdSgqyh/A2Z9wgNwYYcB2p3UP/qxMOp
vo4hBsnZMf1xMfdLGWgoGCj7uVM2/yC4EZ/CYVg2PmCSwGrrz74nzBfVjtoQnf9T
DX8ABX3lZMksC4hZiWlEE1RapSYl0Ww3pObaQVK3S+4+D6JYRAbNVICzMFlWYPQG
cjRKw+B8Jmv9at05u0RhiQIcBBABAgAGBQJQ7b3uAAoJEOvCbNtaVt5zsMkQAIlg
ZZheZHWDJwdErMvuYJJRFocIi+mYGXHGcM1UNQ3EmAoIxHIcSTuqH2N9Qgs5ZJ1U
3FYtFGJVd+U4fOZbJUBEvuM3UtQWg/V5vsQPjJTidz+XuVUojJfwcgiIHTaZP5kk
mAUQ7osYIDtJtoD1AbpxCa4yu8Vv/plWjQR0uUHWhmVUpeOH8kzlhy8F5dynTFWj
wbGT5CWBiD4LI9GMN5PMfQpW9BcoHphXlZR6nHbqOcZLCtPh4QEutfX1YrSLw3BE
jVs5n1W2Y67SuQVJEAMFYrxMysTX7lytu2isFF4oLVrbBWp3bqC9SbppE5cQO9eF
de9UvwFlmcK0ipMLxj6MM1EZdmYdQPLVOyJMDxbjsWbXWxlGJTrNgfuKu1WM/uD6
N1VOob/DnWodpsUMz/s+neX4k5oWTqX36cl+NUWOn3VxpXxxyoolG1m91Sjm+Ja7
LtKrndMUWdnHGGcJU0mmPPY30JTbBxCMYGWS1EZTPG1pIYKa6QurRMGWTI8Q6Qcj
YEBfiUkfukYSyG/TwIG6XYPfg7EgbtPcXEvDGqIC3uu7rKgzYSIVZUDOfAVGOZ3f
QGiB3qMACLoVZuy0ed/hTXbQBphAiW46Cksodtopt9LjN0MvHsSNRNi0btyyhA/+
pQVyUYzp6b1E+5yELNeRpv9FEydNr8ryVhnfQQQMiQIcBBABAgAGBQJQ8ThKAAoJ
EMP0Nsow9djrkKsQAIVdQ5haXVdlKsZRXLL+qLlMeOD9JFwVOJ/effvI7uUxgYZA
mRnP4R3fQwheJqx1N3S7cS2fd2BhxaujB8qy5lnweydl2Frnwm5WtYm+qkmAdGdD
ScW4Xpw0mnAGjRn3D1ntXaaG2Iwp1Bte/R0BvtzT95TE7sNqAhc0XZTmwCz79U7R
DMtP4aN+TnaJMkhQLhcbOMZYesuRuSlTURsRC2A1nYzR58azITunAUBD6rlfcr0g
fn7Uc4HgbABc7iHUMWgTN1Ru0NxpOeC/qYUHtpyeXrKlgQHtEbiS9pJJcDEbSBIr
jATVVYcYEQ9mijn+mU1c9NfeyGFdVadnQFlaxyTdj5YykNflrOlbqYDPLGGv3SAS
Ec51pqWZMpMnYpKE1szXSav8k+Pw70xL+V9U2YBWsWGjnqJ2GGiabHiyUJbuLhb+
bXI3J6rh4+x3V8DmOoIqsb+NsKuSyZA5I8TvgObWXetB7IrtkRYSGHyGBTY1piWu
kWbdhYb/kfa0JwB/F/E1i4yrHCE44iKqSA84lBoVNQMirdPFE6oDaJaw55NVA/yu
qktfHcmsByJvUThLi3+2Xvlp5SQR9UybJMMUet2TmNPG+uKidIcYtiEc/pxGjLM5
QJOZvOw1L45qOFWWwq3xawU8imAZk2qlhiXczCUb1+VFB1KYo5PNKxsS7aVhiQIc
BBABAgAGBQJUR6M9AAoJEDd8fyH+PR+R0bUP/iJ/BBSxpSXqjRndLIM4horIW4hZ
veM3ED9T/3M3O/cdAwMRGTdtdE3yA5OBJ5VyUKWOst1WQhYrvidFjOxtZSCzwTtQ
f2J1LVV5iL+4L3Bk/hFxL1h8RxTDZ/pEIDD25VOqwuorGKy0Ugu+fIiu7hH6FiX/
bnAlU76KuKtOG2tzCrPSP7uxQjcKCkrTk876M6SWJWVkNnLGVM1doZ3rHd4QEpKI
oMjvBGJznavs9Stk1FDSOmFGAQ2Z0z/AsyklOpHflH0cqOfrmMTaJQfzT3QSyoGY
opZxOKdL31nvzjAYcMmH0/yanzvpb0eOePLU5OQu64ZMyYi5fh4Fbsp6DtWKFbSV
WuQQAAoU2zLj4saHc1Udd7xZR7xN+vg0TwximW3fCm+f4761RBeaXfViJ4Qdup47
vGILCKQ1ZTqpDuYeutrfT+M6eGkEwTMBZkO9vhzFwmfe9ytYNXW7Vrw6/UCV3XtT
8Ps2NFBqxW4rZmojoNjBv6SS30JZZ0GFbdJiZa2FHksEeWam650yzrnm0bfxz4Dw
1cc2GoChH3QTd1IAaWkS1d4QdQUkGzTwXTcpfYZFxLmN96xTMCjGUdaAhMOIkeBZ
hv2P6ITFGWnHrZOj9GBragzaoYj+9Eo/y3HugRY/2fcYOQYBdM8sj11EX2tPozw/
vGt36wpxV5Gaq5BsiQIcBBABAgAGBQJX+lQ+AAoJENfPZGlqN0++F44QAJd0FDKE
cXIJTTS91zqeg4jmAqlW8m4WyGA7BLdTzPhMqIs3ZKZvlfO8Ou+k1ORAu8wsNOVg
9iZ0ZiUcu+QZbw6GBH85JwGvt32T4oKVxPpwXbI7LOGvN5NOJOQyfyp2WymAS2ja
tzFgqRmZ88bil3hWyg/2W8jbIJRDTFU/eNZA43PtGC14T/csh8se2f3KM+gKhAPp
hxR+vOSadXu7CFDDNHsgj7wexWgJP6sGrjJLguaagbd7u8ZbqZrthWXbWW/9VCYM
r4s1q82M3FNEZ7/BGzofazHkXKiZ3VhGeKQcW6Tkoc+l8O25X+S74e5EgYSMpmLO
o0V61a4E/ib8t/QDrgFNF8slDM9pngcjpZ9aRnA9jGpAlft4loIPSl2YaPubnVlX
ddt0aowiS6O7SEznjF2bFCalV7wjgTwld7BwLUO7v9F2lZMqC6cuAnSlWHfN45HN
vT/gac34LLny+Gd81dPoIVoOyNSlMBrL8r5Og6cfrnYDIfmbzS5iwKdxYBbTyw5U
ILGTl8tXxRHSBxG8mKMVZGj8W9vQ5/wCDgjXOQqX2gDSNFF2DmipGDffaD0xuvnY
h3OCvbT/HoFH+Q0jp8M+6E9xPKUmlaRwbfH7C7DTHmvew5g3AOAVu8vDakArVXc7
wrAW1AWb9KtOcgFPS1FyhCJ6GhFNXgkrAyxviQIcBBIBCgAGBQJX+lPmAAoJECOG
PcODHbKx/zkP/1746TPtVJhjExBs23tuRGmc9TLR7YgIBZiQ7mpCoC3psuGxAu94
sFGc5DBwQdJYDX9x7Xc2lblLr9cdwL8jRAXMRDIoeW0/ZJud9Lugj4EadME+S6qz
4LVBQWDWxz/kl/exxY7TA/5oVAnVgl3MItFwpBLYNgs6J+ONTp4VEbh0nDtZhgnK
PlaAYK/MmQ4WHUSV+uCIH5apjuKPNamFw36qK7Y7EYqZsI8VAYVk9WIA5QE6R7oz
r8uoeHuMYdU8K6/QPALOF6B05A1ug6y0YrNrLBTBqQF8HZ/CvaBxgqm5Gru7l7cR
rQY8sWnQxkQHpQ8lIObdZr8mQA1YNOmM7AYdRRW6O5Bxs1+PjBi7cEKvtYlOZKd6
FKGoB4XrVA1cZfwsB/oJYAZTgJ408DJyoX2u/dRkcSc+VDipHwiO2LhvLbCyjOUV
2/4z/ax981Uee/ffGb/DTw4G+ThEcOTu4Yv3NPSUAUUnxhv4iPHaMMvteb/6piXz
nGvqoEaUX8ihl4OqZ/rCrNInMWuDzlBHEaFdpqfwYEiPk+o46z6Wy4mOkTle1KNY
QunvbA2U0dxWl0Jpg7UyJwdqmVnGiMjC5+yqsuE41B4/r/3aVPqPrBsEAvUcABek
JpQ8SeGCmZCGmxdA0kLrG55sp++IXqdyq0YMhkTd87DFi3seXhlTIQy1iQI4BBMB
AgAiBQJQmgXBAhsDBgsJCAcDAgYVCAIJCgsEFgIDAQIeAQIXgAAKCRAUDeTMFKAp
tusgEACztG93jKqg7jYQjFlxoBEAIn97+0sw7O1N4NA/+h6hfwmBYhv/PxLjgBEN
DebWnVsd0Cm/kEVS50QZwqw7jAh8bPRYMyF/ws/8xEbhybuhdMjnWKI3VqOQ8oDm
DdCHUJ2Pne0DrluBHKMwuz6yRQKhielZuUh/7cwCb5OrKIIdOezI/j7W9yZ2E/ex
gkcVCVZD64rysNpOWMrVCDYz9oJ94wUM8eSynwMcmLUw1o0+UJhKZJUjEi7LVQ/a
+rLZpFL8iJDmfBHCHdeoJMsZBKpDmP0ePTo8FyM0G+I/rFyuwqDZy14kkm7yKCl7
TUflGpUo32xK8yp81VU278zi2V9cgY66k2vniAprkktuLIKlDQm0f1ZjQxURuR3s
/AnTGjv/hsIktNK28h+/sTZCwhE06rhI80Jkdwzfxkg55U8KxvKOdcnsDu3xSpRA
hD0AoEHKBY1gtMs/h0WL2ClcTeZmqOozrzebZt9T+BUPsrsZDUu1xnk7pj08Bm+r
MKLaYxOjI3TVpw8hkEeqt8XfSZkI300tmoYKKqMD1YtQo96hZIJwaWQcowxr37XK
zyLskFwDNWPwtnEZxQRE5S5URKP0OOlajpzSCY/jXTdeZ2qOpvp639I1M0Nnyo6f
/ZBmmGP66r1satPuXwOAp48IU6ZapJfC+q6dqTpZtuLDthHObbkCDQRQmgXBARAA
rcngqr04wxcBcYwCG7HWyEWby3ODvHzg2OwzBqc9ogc1yQqOyfzpGJxmLlUhkRLI
Ixng5Pen8J7m8mVabnMhVe4JmwCVb2JjhChGpdkDxH/mRdcJeMl0z4Ot9t57x7eT
4DSJdMoh1HYyBWWFv0H3/erBaPKm8kMQOszu9TS9VOdwf/ha0+GcwnUxGOj8VT4A
m7AU+cUG1TX9voQuMpTUBhhmPyGRXya6U8H2lbdg/LjW0ZAdrOjGF2pQxwXoKSkc
inQZdfA0pOW89NKtUZrHgr1QXC1tKvy+CvDeOE6JRdyJXbYhbwAzFH25N/1QebBV
cLXNWqmV7BpmTfLergCXcpxZFgaYlnFbQCmj3jE5NRUsjj0Ouh3y0amezvbdEFG1
7+5kFTOFkKN2G+p22cOzt4qL5yYWktdn+jyYASgxQJPNZvNEF77kWWaA+//QrEop
Gw1sAsUzc6i9kt1nueDpqBePWMWWWQM/jeGgxHv4yDMlMbjbEb91n1zS9Jpgzslo
qtGAPQ9IWW5z8oIA/eXc6Qp8jRt3/ClOIgznG1c1kYDjuVyialD0sKdYtxvKZ/9S
z954RdRLyGV3ZopNmbfgDEDGTtj8ZIMXGnqfaPP3k+gtshXeFAT88VRU4XqF5ylb
SvQVGdd8z+cUwGjUCAN5jRO15KCFGgkJJPGZAPOrvTsAEQEAAYkCHwQYAQIACQUC
UJoFwQIbDAAKCRAUDeTMFKAptqoSEACGvr25mBmTZCbYwNPLpQght9PzK5xWCv+V
wohtvUQA1m43MAMgm/o5KDxERsfeBi5DdqunTddE8C2v/5RvRh4uLvjm9nutY4/a
I80v7OMmy5PKhasp663iEimyNujRZxbilZfoYUQu/V2xT6nYyWaJAJveA/SWM6na
6hrhxnZ/NYcRFUrrdqL9HdUXdtZNGv8Fwkj/vN8npsx/H3kQkRoUYUBfVLBcmd93
NCGY4TPpDVSyUgSYKtrwNKS1tv0EPZ3yk3lZvLZk46rpDNLTAPlJzDzSJIweNrEE
cL5DFjGe7pN5leO1XQVGbJ1G4uh4/9ltbdE3Ond5EUfSxeuUQxulb85sxCRdwUPH
Ka1s1LMWyM1dEs2qVHMg3yUJh1lHRXkDstQnypME01VwT+YS6X6kXLIKMke11Bnm
a2sq04tt9+B0gihLGs7KGpBCm1ctH3gKMRNX3RvIZ97XMTWa2rNEhVghEcip5wN+
ZVKhZuU41SeWQ9fUqg5Wmt8wMuIm8E3tbGbOneQ1DUTZZcnP/GVl1p9rJo22mRLE
vbo1GcdjcuqvhfoJNxcWC5APv4T7ogyR97/kMfOXmFaBZ5RheoJkptIdMpt3e6n+
JLvgA0MtJ8rnmshH9evGW0s2gSI0VnWSaYbWpVMFNuBC2pnEN+U5QiOjfCz8UoS5
6DB/09octQ==
=Rf6X
-----END PGP PUBLIC KEY BLOCK-----