pub   rsa4096 2011-11-09 [SC]
      376BEAB47DC853D8629067161465C525B0272867
uid                      Jon Loeliger <jdl@jdl.com>
sub   rsa4096 2011-11-09 [E]
      5D10C6A3B1172F219EB103D8FB59C095E16EB439

-----BEGIN PGP PUBLIC KEY BLOCK-----

mQINBE66pWoBEADLDlwRRO81Z4O/PMhO5zcVa4b3riU8VG9Q/88j+2ixqwUYlkY3
oZq+WrhHIk9xN01Kiz//O9Cypp86VklGSR2aAut9CJJCkrL2CucU5hU6E5RrKtps
yyNaNJcgFwQAndrFVwaXNgljwfCM/ofI2Awb61g2b8u1VyrMNpnWHB9Y1fx6SlGq
QRLVvXmdpuBXmI+NL5YL7Zg+4sHeC9gd7pjfylELGR9Qgb3gIRyi40hMjwFYV+u1
fECMZ8Sv2hv9rwMQ3SJEpN5ENFjuC/foYh30zqoTqtV5Bzdl14kswqwwhsC4RyVu
/4S2J+R04VgoJyllr2xarMVJmmBcygY4LENNmOqdivzJ7HkuYPJeNziiP9Ci97/I
5c7LgVK7+5EaPlISpqH8pkwf5aqWb1MZMDwtEoWzpFRywB6/tmDDjASNYRKN/+z5
pn2F2u33b0HFP/A9fXwkBb2aJaKmTpysTfdD8oufQ2inoOUWsbdXkriw8NyqdLXB
wjxyzg+kkQ8PdZUc9q6iRWJshiadzOPimHwArJvRhUA8Y1hMAd3K8h+RfMQKm3Tt
fNOtQLOVYxoaL+Umpr7SrgP7s4cd5ukiI766zG2OnS1mnM/AiaD/kjU0Eg/cJedn
pLyANoCGRV3qWB7d3Mx3hJLD9sin3kCPNwX3CWNsek7yuUUN9Lzxwvv3/QARAQAB
tBpKb24gTG9lbGlnZXIgPGpkbEBqZGwuY29tPokBHAQQAQIABgUCUA8bbwAKCRDI
b2KeI4LF4tYOB/9vcuHURRH6Yr9lJDGqbgolZnz8f2xhvOcI3OnBTQWUMn8ISHKz
Jm/f4+rofzGyggCwnBRem0pPC7Kp70wsmBTn92C5OLoayhpADgOf9CwqaFS61GQn
8j/xyZJRvv4FqnZpeOI10FMbLqI5Xuvk4KkkdBiNFAHX4T0AfxlswwQnvhJGHTYH
3ABnYjKMpPMwGmqmHA4o6kE66zTEqLHLf3PjAnopHUX3AeFeN/zepH47jyG0PA4j
oKGojB3+IeC1nZgBq/7ypVegYz14KkexhRNI5vtTECmH6yskjDhratLEzZ2c6Y/Z
hHCZFxj/v5L70aJaBawjS8x8vchWm2NTx9QNiQIcBBABAgAGBQJOu90sAAoJEFyC
CJqv9XTA1RsP/1NoqfKczqDripy0XUDdopF6yE13sr2d17Q4NuuQs0vQM0i58MgD
gDD1tk3ZTMLkrLSnSd34kkkeM9o6E3VNf7tLjKQv2kAy54nGi++tZ6Y0zVFmN/o8
XSdFeIsTMtr67t0FR/7xNgOgF8Zu35mbSuBbUbCT8KPZxf7/5mn/x/0bZ2PPk6OQ
tZyYUQoFSGiRDQtzjpkf2RwzWwIoTcbahTwDY3iAnGnfzMMatJ4JJ58Mqb7M1lhj
GWOOYjqFRQkC+7EA9CGCwotlycarhr7L1Tn0bymv27363ha+ccW7hp2gmsHZPeu5
CUt/eMbr2BkxYEOEV5kYxagZDu2fZqqONRcdCVPQLe16ZwNnNOc/GEiXhkPvH4jt
wsfRro4cglPgU80v5kJrMSDa9rieGSTBVKAO8nDPUP+FMP1ubPJr/pFuEPpi8gb5
cleXVSqU7t20uOLcetR1jZc/RTSFTItkaQqY79G0PTmyJTOyQVZyxIBSWc8Ykb3o
q6kDDy6w58RcmV7kBEvYQC7c0zbvMR6ncdRVmZp3TK/byDtqRUydElhmypgw4cCR
GmefhltnUKQaAWlBYJeVxdPgz4NP8mBnm5Kn/f7o1DGhO7Pt/k9RmsrdocVkwhqb
tmK/Lc96eGstK45HmYeP2t/h8X+Qt4TnRYp01b1KkpWE7FhZiCwt0k+HiQIcBBAB
AgAGBQJO5oknAAoJEIwa5zzehBx3v7oP/1Zp2gYB9ZEqvny5GlrLH+OQAOLW41cW
+TrAmYXPMXDa+37SvNr5NMeDarOHxklPoG6dgv/JC+ZQ9dzW4QJKTfIBKrbX8dvE
/F2IUbYSE+9TIOw6IVORtUod+6/3BtPJi2H6dOmHBJNgpNn+wMilyey0+SwtknKJ
wJFlf5YZePKcy7jl3KiamgeZdsESxVklysbM/eg3CAyAFYc4xciJyboF+DYCvaXF
0F7BQvFbHoR2l+Wj9RVVujj9Y2GLfBpEyneBJZzkUJGDWClKqHH+fqxQlqjp3ooz
rrngRApmoIoBD7ryZbNlioiv+2S/HfoUvSNqzZ/AF5JsYieFWAWNmVuMFmclXaTC
GcL+Kku1WrJFvAaX2HgFHAlS6LadGkDUHh12B0DNCb580CjfKFXhuHIEqN/nn+Vv
iPfO3h6WFH0hdgyFzPwCPyBNuBXDDzK0qE1s64RtdlFKN84wMzWPdsl5YGbm3Uhj
a/QG5S/MviAu0StkxAANEqnDNWlfc6xz7zX2fy1snpSZ+o2Jez/vJ6uFq+OX6hKi
PK3nPQlevUbGXKjELULC3ThceCjACp81Pxe4fhak5EghVPXeZudRiQ2UqlF66gQ2
vo9XBZhnkngkFr6grLeq6HqIt7Dj4xGIAiyPd4KOG5KsW2lstYjcbH7WJ6OKnD90
BkX9CsBc+Lm0iQI4BBMBAgAiBQJOuqVqAhsDBgsJCAcDAgYVCAIJCgsEFgIDAQIe
AQIXgAAKCRAUZcUlsCcoZw3PD/90b/AJ7mYG4ExI0WZcVbDfYieAq7YDZ/UOaWZV
4ludZm8w1fkLTdVMfIXV3Rq43yIK8VVsJin5Ofmae+cG/VF6vjH8m9uCRn1avPlr
ftL1wG+iOD6OCk7dd+ESaHRT6mcR4poqhysiR6UB8E55JK7H1RBfWovcIdVSe1F4
KEaBLAURI6nTCKSXVheurd6le1P6VVAw1dDvt3hpExrCn+J2Eb6zYLPzRqbLxrxo
dacbYMoAfkEdpWzR32QAhzJ0SQ2zU8kWwtG3bbiWnQH1NkU23VkMydYK+oUCmgM1
XWjETzFizId1/KmFtj2bSciSnq5O722f8w6tX0doRXvEvdZJhTwHr24J62OTq6up
cB4alC+vkQk0LcjsTUcsiIBugrHDoGLu/1WdYdDZHlR8ABx1YGd28eWgRozOLIsn
84HGcTU//t/moRSN24I9MWsdavXp86NqgSVQt5qJXPPWPZdhIl7qzWu/R/sHkTAq
hy0cz15foT+e31L1Nl/oMTYWtS8fflU/1XAa1WndHy3Nk+evQNXnsWNR/mhM/t8N
vfV/qubR0Iwhj0Vve0YkFN1GwX9YQxxEaRGXFSk2upM8VIR0+ltUvKKePZJDKH4L
DpA/FdDlWsJ4ArOdczElpCYmd/9mHRKZr/kU11FMwECBRR4w6suTc8P57UFiK7SB
v7G8NLkCDQROuqVqARAAprXRw4eF9YzLdu0Hh1PTTukVpjHHJb8eUYjdvvIkj3vP
60D/7UeShdtxztb2Cb0/tAcktyFy5pQlnuTz0gT4BSM6PdATuIYYkBjbT11TkUSl
7LGQB6gXy/SHYx34x16nxKRQGe5ayG2wfInYycjNJSUP/1h1xfB4HescP9r840fi
ylcyBgJg0UXPdMq/HvvgfZNBw+5MLpzxlFMSPgeBvu21UGPVhxlHUbgVvSZZQzSr
SSh2Wr/BBoPWhzD6ahC9L0OU8ep2+5pc37f78RyG9GUCWZAT0Hhfuuoi23GgrX6X
kD9Qo6NAp5xF+rpQVja4ii2K1Z4JlJ+/a88tj4AAuQiIp4eRnzWAPXnp/w/8CJiD
3TJ2u5NwwGgnqb0gojTrnMvkZWl2WJXrF6QSrDZZ+brqtr41/1eqC+o3niE7ah2W
aTKEARFVkYWivx25eDHnZCPdZh9ZEf5bJfF+sUHJG5pmR0oWCGra8k08DQ8skOHl
ur2c9h0yt0RtXilLMXeyImPWtJVSsWlalazGLwg0DfJwGiHXd+DVdx6m9+ujDlzt
Jz5Jb3AdkuDrk+zdV3AYQHe0OzmF9oV+gC9REnQe2jMWtxrW9ZwfNAvy6huXSvc5
M+x8qoRtoB8YxSrcv8lhNVh3cPqblzE6PmFnHH9Luv1Juucg6360phsXNCw80bUA
EQEAAYkCHwQYAQIACQUCTrqlagIbDAAKCRAUZcUlsCcoZ1ncD/90dW0390gC+mTh
PZx/+GzBlOaZxo1nNOJ5BNbzXXwtn/MdAJpsUE3Nnu0zre6jJcsFp9kMWu5Vgr12
D/wnieLVoWvPS8ARgMuE3yubn6eUpMNfF63ToEqsq8jam3r4xJro3Vc0MBkOjrH2
sPOqyPqdEDBlQF1LESqih9IkV0sLn5wxJtCBI3AvTAKqO5vRvj40lAGy5IsoQ7tW
Dl7yABI421/ApNcGqQ6701WLZDNczPvUFF4MGxLMndJp89zoMJ+XUpydknOv7Gbm
otOOe/8TB2KPcOi/iG5rjhOP5BQviaxboEz2OjYvO83/RisJeIA2xh6TDXt+SW9j
aA0nLGLXuM8Ik+kkbw+VSvpm8JS8IVGoV0TCFr2jCuxc/zdokr529Pq8GhKp8iQO
dMXIgqL0shDLS7x5k64CNJgZFsLbuCaSDkG1o+fg1O3lxd3f27Tv+7Pqx3SVEh7+
jygmA9DOalQQ7squ+djfqFOan8ZD7cINWktparcFWrlesbt6jBKTjNSoxx48yuSC
spFjMkwYNviPqxXY5unagxYHMmHitIhbWCwfyUuYsrecJweKZ9HLBh2HPPZZvlif
I82Glo9FLcdbJYi33+b9SHdrMKFPodWU/TbQkfG/RZNs82V14FTJa4af7yVgBlH3
BhToeILCof9OLJgskJFIJDftLQXIwg==
=iZEl
-----END PGP PUBLIC KEY BLOCK-----