pub   rsa2048 2011-02-14 [SCA]
      89EC3D058446217450F22848169AB7B1A4CFF8AE
uid                      Neil Armstrong <narmstrong@baylibre.com>
uid                      Superna <superna@na-prod.com>
uid                      Neil Armstrong <superna@na-prod.com>
uid                      Neil Armstrong <arm.neil@na-prod.com>
uid                      Neil Armstrong <narmstrong@kernel.org>
uid                      Neil "Superna" Armstrong <superna@na-prod.com>
uid                      Neil "Superna" Armstrong <superna9999@gmail.com>
uid                      [jpeg image of size 2175]
sub   rsa2048 2011-02-14 [E]
      614FC2874D2F3F938B1C1B8D0A3AD590CF1B90D8
sub   rsa4096 2015-10-21 [S]
      3D53C626C85605FE1DF42C8B77DCDBDAC8C849D1

-----BEGIN PGP PUBLIC KEY BLOCK-----

mQENBE1ZBs8BCAD78xVLsXPwV/2qQx2FaO/7mhWL0Qodw8UcQJnkrWmgTFRobtTW
xuRx8WWPGTjuhvbleoQ5Cxjr+v+1ARGCH46MxFP5DwauzPekwJUD5QKZlaw/bURT
LmS2id5wWi3lqVH4BVF2WzvGyyeV1o4RTCYDnZ9VLLylJ9bneEaIs/7cjCEbipGG
FlfIML3sfqnIvMAxIMZrvcl9qPV2k+KQ7q+aXavU5W+yLNn7QtXUB530Zlk/d2ET
gzQ5FLYYnUDAaRl+8JUTjc0CNOTpCeik80TZcE6f8M76Xa6yU8VcNko94Ck7iB4v
j70q76P/J7kt98hklrr85/3NU3oti3nrIHmHABEBAAG0HVN1cGVybmEgPHN1cGVy
bmFAbmEtcHJvZC5jb20+iQE4BBMBAgAiBQJNWQcCAhsjBgsJCAcDAgYVCAIJCgsE
FgIDAQIeAQIXgAAKCRAWmrexpM/4roFFB/0aSUHX1grjtS1OxaIghietSU2nVsOA
+qoH/QWRKYBUfK+Qc1VXGRThRUQ9+rW7Qlaaaj5dqQuLf5A4GeJy1cVDAma/ejab
cxHxC6+BCc4Re6DrwWR0jg560qZ81UwzwB0MJRwwF3PQsB5+cfN4wcvQwzUYaXDJ
KYUipIOi0MBPsYjB9z+rj7rjIKGXehGcOblFGgwrRr3kIJwemkFTRZUpkJVGUwHV
3F/+4UnrCcRMsbxZ7K0kRxDktnjZYpdKUYynySjL0IrPE2MZ6rKbX8lhZIXUibT0
DzQue56niuj2F6kHMmNTBLkBnFlEndM13tprzQO2QelqB3OnL6MDQ1CgiQIcBBAB
CgAGBQJXDzXgAAoJENidgRMleOc99LEP/2LeEHaBS6oEuPHKVeq7/0tTSXXVp+3g
G1Gclo8//HvAewpojhwQH88GG/L/yE/uI2zDges6vChm0Ub/kxMSMXjC8nKIGDxR
b0hwC2noRiimv93ywL/GYcV48TN1S6F82eKbXjQwYI3lcS9lr++McotBlOnzkwGs
1tRkIxHJj/xmveSgrRk6bw6LWGDJXRGxMN1OWBCvnyo1VcGy72XpiOBzSos0UCmR
VZ3SLmQZh14EbhGvuJPwtv4uAsq2FpwDW3F0m1J7zFwWt6QSKFhwDfy7kIEYrog6
H+yOPn8wEefO4w+Q6TYDSJuOwzFNfQS8JELydRI2D9utj+0bU1bfuWg53lalA2NV
bOgbHZGUqdj4oNatmVfpP8Aq2S17Awz541sVnUXi/ltH5P8cCPLr7dC3bSD+7gIr
1E4fJFPnDnOZggmBARGlrPG3jwYltYkH6SZGh0nZy7X+EwIK+P6EbcbFeNoCc5e3
b+u7OzYv2EI4kecgLp9CX6otbweH2N+6s19Mq92dAL1cRQ6F5TYAvujAh3foDbPQ
lU57OPzYUNL+awQ1P4JIeBBQMyguS49GwCW1f+q1NwyUtk3S7cqe/iU+AOEwNS60
372ch+L3cWPkBNB3xo19APlBdJ0HBjeUpen1NbSnLH2qJcE+Y5ufJo+AJtF7xCmD
OXt/0stzAkl8tCROZWlsIEFybXN0cm9uZyA8c3VwZXJuYUBuYS1wcm9kLmNvbT6J
ATgEEwEKACICGyMGCwkIBwMCBhUIAgkKCwQWAgMBAh4BAheABQJXDO15AAoJEBaa
t7Gkz/iujrYIALPFj1RvU70ONNYO/3AWHGI+X5nxUAf2bafEi82SdYJCHDoLT0cj
CNVxU5cpTh3ttDRMBWCCRHq+mpFUuuBmlx6cFCThruEqc+FujBnZrLLHcv3VhDg1
gmax4W/O2/oYVNQUtoprtEIm1g1rH5zNKtNtd1pZPOrqswLjKb3IRj5mHFUpqrwi
MduLKktHyyYfQOP2xufkXwcLW2E5nmzK8Y5ABJ3ddcXNdsu9mHivt44ysbchvU2t
dbTeHHglNu0+odKkcdMfmNiceMHvNGv3sapELLUlGZNezsYASyQ8sPymy9ZnGqJe
QC2esI+L6MxGPspGiF79w7SfkfwDwtNTb4SJAhwEEAEKAAYFAlcPNeAACgkQ2J2B
EyV45z3hGQ/7BtOGapc/hQ2VKl/s/chA1Qtm/+bSYyjYQc6/9ieaIEC0L7+Yaenb
sxadGtDJEPzS/mvROds3bGF8b2ytjDn1oh6IPIiTlku+XFgXZmOg21dzkDJJuGkr
njpVWyeY5xOI26O/H8YxPUe3lKNjnLhvCNbG0vRLIyxPEAObfS6q8QRM3SGY8nQG
Oon+SP0UzCl2rSP39qlXmJlvb4IAAPuHQzu0w2070FhFLmszWS6MyRTz9X1E92XC
L52/tT50S4YyrTq5pRfzKJFKLi0gzuo91su+QvNZYZhS3INTjoYDG+CMXeE/HbCj
Az/cwLnkeGjHzYuke7Yi8awt6+v0kzzGA98ybKCLb8OCo7miaT+HMU9rC0Qw4QVu
Y8oa9CbYAcA//02RYfEyUfRRrpycYkL6nqUfliyBXnNurqMfHkmFy5j8iBqu7e+8
glizQ1bW4kGio5fox9ZcyCHBiMtAU86mPhkN39DxEcK/1lfiWFoZuPSEKyjYz7F4
OjPHsTCeL/v0uLDlALltNMCsgsokz4n4Y5Jv9kv/uHwZfKFX7B8ItmCBpafpeWaK
KSzTmKertw1e9NTD0CTxNAGARBbNsTLxSlh3GRx2hlnNmZFoAkxyAX7HkODpG0+7
iZkAzm6p7XjNWT1cPj0WuCBIK9IBfyigE0af2O4b1JR5f7HctwmAuyC0JU5laWwg
QXJtc3Ryb25nIDxhcm0ubmVpbEBuYS1wcm9kLmNvbT6JATgEEwECACIFAk1ZBxQC
GyMGCwkIBwMCBhUIAgkKCwQWAgMBAh4BAheAAAoJEBaat7Gkz/iu2uwIAI3pqkRM
rtlQq1ec+k6QP8r+pWIjtlJzkxFE158BGKSdDbGGSeuoWLVvBZDnWZpdptlK8Nqm
IOzxtYm06lmKMAls/jiQnyGXEyJ71NeIatsQ0MQGQxFl/9k2RZ+xeMyM3Mwy5eZU
L+Rx7B98TUrx5y3eWrZOicKW2FtA9VF/bGlMt24u4+6N9YOEWy9C9jEAJ71P1Dxx
GpsyVgqLwQosiUjeI5il5cRU8M2fyjXSomM/ayqOm9F/Yl6m8XYNN5S/VxOo2kuo
z0Vxl8xpH2OX3KNovL7DO/80mw4X7mAcxSgkuEXFPOXHnzKAk0ckQRslAM0Vt/15
+uNneMsB2O9lXYCJAhwEEAEKAAYFAlcPNeAACgkQ2J2BEyV45z1jGQ/+KhybfTQ0
65uajxSExV92ldOQzrZRaPYhr2+QI98jVTbUStvBQdC9p9LvzGbZXj0WuaCgfyJz
gRWESGlK3so6cWMaqXnKvNtd1YunZL3W/hQzlnB1d4Gc8L1XyRlqCUlNHLlXsRPH
QoS/EfljhhHCgR60P81QGKyAfgJVlpHfNEX6kIs2NaIBNHa2+aW9ZTkdzLfwAHoa
Kg1+I32668E9aaKG0RJag2r0K2dx5YU/WbFwSvbRcAqJTjwY5VWCZKtG6VoV9tca
eu6uG/dDIJm6Rtq1asbCYy4nO+Z9sjXtOQYFFEOrSs//Y94y4feKINEOop8WBBhv
mU8H+cQKzq2YHsX2/uE5W8Kil+8ZXKrFaS+th0FxyFN0XmeVhCVP2+QkLNiCRpNx
Yj3lXkJes0MxkGdLsX5Xa9s9u50r9P+AqKImemOo4y7/D0RP32cfmij4iFb/q33p
zkWlVZH4AyR8JCYEdlilJlVRXEfey6t+PK0wbSNMklFNCu53EemHiO5LIq9r5IZ8
B3zEG7Uu/w1webQPEQB8kUUMi72B1PaK+mgTh7evvVJLrE85Gfn6xgyFv9BdZ204
2UPjApEfjar6X7zUcQzwCTcHNLE4vZZHC0NgOwzcTHzW001HrPRDanPuncCfpuwi
OhhlY8njV816iIHs9jsUDL7zIVsKG2+JZuS0Jk5laWwgQXJtc3Ryb25nIDxuYXJt
c3Ryb25nQGtlcm5lbC5vcmc+iQE3BBMBCgAhBQJY7ccwAhsjBQsJCAcDBRUKCQgL
BRYCAwEAAh4BAheAAAoJEBaat7Gkz/iuEegIAJjmF9Rnug8KjHQfJHOgrJXFY1WR
xRBaiDNcrtXD5eRwoKG1pvZ/Hnk45SGANsSReDS+EBBcYttHBxGncMP+VuhZ1/d7
CfdsRf3ANMTcS/csOXR4pxzYO6n7RJeGXtVmPLovFHhW30lmmrJwxnPPtDuCkf/b
6gLRvMF+hiRoBPAxedKxdlZURr8V5gHNjP8gK0n6caKVirzj3itPbLzzC5D4eFSU
dxptq/oKe6yrY78TkRD90vM2vcHj8dysP/2CsBOtsn3qiCWgPU6JTjaTR4fJo+QR
fQQbgAgLKkY1yiZqzWTh6IC1hRiFTgb7wuNeU4d+jxqUOSdxnT0FXbOKSWW0KE5l
aWwgQXJtc3Ryb25nIDxuYXJtc3Ryb25nQGJheWxpYnJlLmNvbT6JATsEEwEKACUC
GyMGCwkIBwMCBhUIAgkKCwQWAgMBAh4BAheABQJXDO2CAhkBAAoJEBaat7Gkz/iu
bGIH/iykRqvgB62oKOFlgOTYCMkYpm2aAOZZLf6VKHKc7DoVwuUkjHfIRXdslbrx
i4pk5VKU6ZP9AKsNNtMZntB8WrBTtkAZfZbTF7850uwd3eU5cN/7N1Q6g0JQihE7
w4GlIkEpQ8vwSg5W7hkx3yQ62YzrUZh/b7QThXbNZ7xOeSEms014QXazx8+txR7j
rGF3dYxBsCkotO/8DNtZ1R+aUvRfpKg5ZgABTC0LmAQnuUUf2PHcKFAHZo5KrdO+
tyfL+LgTUXIXkK+tenkLsAJ0cagz1EZ5gntuheLDYJuzS4zN+1Asmb9kVKxhjSQO
cIh6g2tw7vaYJgL/OzJtZi6JlIWJAhsEEAEIAAYFAljFzRUACgkQw8kqrz5grtl2
KQ/4/nAo1HsC44aTJbkvbjK/5OAtqFoEVP7O5kLl24zDLdzD3hc0i+3VPhXlWcoh
cBKnk5zpYgoShId7yY0sPVtmtQWQLX6jUqA+9wdxraYfF6ffoBvjM6YVaK/aASc1
FX1NzPhTep8i8artOTSfiI2gk4pa4GyAGZXVx6XYwQj2vbBTfdlxYBwwwnilvmkV
cKS8kmHJt8oDna5wNGOS6rSjftoEshLvITLXnKq2gR7f17XAtce7WA3q1BjWfMzg
Upwz4lsPYe6KcAHaCXsQImm+RF596r6ZDPrklE99qxpHaq7LymPEQRjeVVsBKL2i
vALbkhVgf4SzREuQJazHUY6viGLkUadduA2BPKetl7B5RpaRk4JeKO5n5u0mHUfI
WnwY3kDuPRikzZtLLgvNjFnTvp2fN348wd9J+ZaiCBN3zQ2YjfpTnE1FulnrmgSk
U7U2juAkyqq9c3RqUepLubrWyGxLdrJG/EPqhbX4jhdr32I6qFc6CzyeMsKnpwM8
t1iiDTPSD2lkC8ni0YE7V1wP1S719cW2QaNbxtQgDQ5l3/4caAN5O1A0CDm5JFh6
qNrwhbzk32lo9eFJ++ddHae0as4zGkpG3vdvXkTn28Pr8VxJiRjgqlIONudum4im
UCxwwOPaPks8Nq8EXIC+K6Es71cG9pb0pV7TNGGRzpeHYIkCHAQQAQIABgUCVwKq
AwAKCRA6jzsvWnyYSfvrD/wM/pL9HFjdfXLN3Hm2RM284juhGR9e34sKSQCMz7EO
srDSHD3TwdXDPK4Q4LGVZQ6gkbEmQ9/UOQkGsFbVLD7zHJmCsE+nPnxyZT0bzGc5
SAm+SSEoh4kubTHmbk+YNddtla9xBC1R7UJkgMqnSs/LpZXQBk1mH5VXNi2Tab6S
Gfc1dcL+XN9h5SQXdb776EaVNz4ooAxkzUfVln+pHlAbQG4H6ayRUPa4TU+//wGL
gGVq+YlcZTw3jUbovUHn945rys9VtTfrjuQiUR3WitTXVvr4V8gX+JledytM49l6
AERwcCaa9RZZs6tHkZVPK6UX5GW5NHWaKqHVhp0PsqhN3Nrtfr9LH6LsvB9ccPMP
nz68PfcKSTNvOEuV/Fn5TTJ7wC0iUx0hRsOpTScG2pMNW7/rwzyvW2fWBJ25PIN+
/wgYV6sz4RT0/nkZ0/NwC10d10hvcw0NCC+T7f1KRpbtpDIpRWG9p4IyGPNjHvCj
3VCoeNXR2HBSrnNXavUuq/GnJI0VtHpC5n9Fizp2MSntN3/24+qD7VymLxutkqH2
nyzHQL9i/wKH5xpQAdLk0H01iQTk4cc0KeVib3VVvm2F3n7nTN0YL7lsfIUT4Yxz
qiLkxdzccGvX6axf+IYzKFJNvnhrQI2Xj0Ny2ts/nY2hYzQXD87MtwQxNneBumEH
JokCHAQQAQIABgUCVzCOiQAKCRBZNxia0/vGZd2hD/9F/aAlexc8x3rlxN1nzpb1
mbOFSIW4W1mE78D4DoKl8jyb1hsd7CLf2oCJZAgQEoy77qYBHtxAzcNZGPl2gYL6
OoNh2rVzN1A8aTuhU3noju9PfMIbCMlxlRnaDf8slQY1udHFuZ7jlsvmrfybyPHg
BvOcoT0p6k2nQtIgO/hM5SoGGQorD2Ql/FQgeGi3sP6ksElzi3hEo7eq32y5rhfO
dzxX88zVYTLqp5X4YvskM/nChH7Dk+j4GbDcQrKt7h30NB1n17KuI5JGB4Ay7dSv
SB39J1hjZz45Dk0u8DsmM9sD0P8+wqhk1Gnerc11h/1OlrGUQnEn2kKA7fA/7Jsh
Bb9hKDQNdPtSVFy4suQwPH+gengNDvyrSpcBloWrE6u7i6bBnjA1h23kvW9NPSCx
ETQuCDF3wsDMJxfETk91o2JenPQwfF++OXWnDVVBtn4civNddyjOq3Fzf2lQ1+uv
d0RmhjNL6n7yNKTonw/5/s+QFFbtUGTg6mv2KjzKa+0ysh4wOTsf5ZfzJh9WDSXQ
w4Y+RBu1zHkOgc+DDBQwNS1eXFJhOIUiHojaE4Fbq5wD9vHon9Qqb/GVAoVVBnKR
r9T6pbGYvx+/sW7K6llzNHJQOoVvu9Ip1LDX0I0yqXC8UeF8X44L/FFdRiDzS5sI
dHnBabpt8D0OgtjGyQCDSokCHAQQAQoABgUCVw814AAKCRDYnYETJXjnPV8iD/9l
HxShu/2KZ9LqFUdZpFyOOEgHgwwbsFiu57BfiQEatK9DDowIr8fwwPdGTAcWgEAi
437czYMyb7eLejrI8wZTwhX6NcS73BuebAzS/KySZUYlvGP3JF5SftFcBGXNbagJ
mOXMEdhYLa60xr1UetZ18J4n08YoKLFANAhCGXCvR2r8zadRdficuR1ffPb/KW8r
SwSqAo4d1MBbEIegAgDlFEutPbpCcBIy0BSkqiVMS0jDAEBZiqo1p6ZIrLlhFhC2
M1eo+zMhghY/kIjwB7hZJB6dy6adqQJU2CvkgXKw6tR9AnIC2kyaQkumftQcS+Vq
WHdvVoAHdeTVKDA1uKSC00utfiL1QzLIiuUMOck6Kbc4qcv0QY5ny8OncVb8vHd3
pQcIFg00r5wUMXFQRytZeUTWswITawEWxDce8BpF6/QPlTFRPJ5kMrjsdF84haJK
9Stb1O2vRuh/KIYmXkyOQqIRvj3ioxjZB3777t9e8zLbXKlnOGE5RJwGWyKdclvg
FHuK9Yd52giC8m8JdFHrI7IEhogaVrBaHvoPl1j8lCZNCUmBuy1DEqsAOdAW3w0G
Og3BJBRJ1yj3mQJIWXXpX9m/v7ECQcgB4Ge6vdpERdPr6yt2SrUHXp/FKGDuenHt
r48zMeL03Ve9Dm4kC2nC2ivVf9PwNFYh2R/qJbduhLQuTmVpbCAiU3VwZXJuYSIg
QXJtc3Ryb25nIDxzdXBlcm5hQG5hLXByb2QuY29tPokBOAQTAQIAIgIbIwYLCQgH
AwIGFQgCCQoLBBYCAwECHgECF4AFAk1ZB9sACgkQFpq3saTP+K45ZggA7V3pAmV4
4oPhjoannFGYNVXGSbR4rsvxt9vA0gK4WpuXrMOSrB77Zf1eV9cB7n82YOaZ0ljw
XT0qfOfCd1vVyB1/EksOHhn9Ksu/ydQt2/zDIRaLJZWW+Ic9ar9PpZcXj/OHjjix
x/tNs44sjUJpFV4yK4W8Cy+pdBjWI5AizBqbn8ve5hhOQBFgX60MAfDTTf/IJqjE
dJ3V852sbL/YPHmTLNz6YkKPbgLvgliYodHHwv/qMu0azRZWC0oUYluaDjBWCVTJ
36fo7BLt8nQZxviK5FnHwOhjlK/O1Hf5M6UaE3Lb43XmLCZTgq0bcu+GxGpUdoBo
Tlo5XLI1vDbsNIkCHAQQAQoABgUCVw814AAKCRDYnYETJXjnPc2/EACJvc95dm8+
GZPIChnJEKnPGDPg/Bvcrsmrok9KCoXbYbI6SvhdlgnapwsptF0DGyEx4OE/fysb
D3oCCKr/iDLrnn69fg1SUQCQ/X4GHzWDgVQ3rPgU2g2b/W8m7101n+rZMO8TQACK
8XBGJCJ/UHfw6wWJEOUY3mDTqyOlFFm/0fGsFbk3iJZ8gNgqytnER0BU/FqqA0Tc
r375fTmNTcR4BuG+0rP4z4ak8nYUyZgAK4lfa9d/9mxXos+VfcIw7RajJrGdboHx
+KjgujGb1QD8ltXBN6KSyxfup/nbbMBgWhKQswl/rpWRP4mzQvp3Mrww+Pbg3ayh
9ZgZK3b7GYm1gOd9EQ4KuFo0xD5ACtKzIClpJ41KFqrlcG7MIssgf5tvuW0i/Hme
WYavly7bdUpe0OWMt8J/dS9XW7f8PBk2W20ZJzi/pNIQtpL4OYXWsYvHYZc5X/q3
RBQODO1u+tEWl8RwfksVYN2R4nEQrkMmu8pug7T+yOmgNqVBQlnMaJnj4uUiKPMr
JziuqtVOj4L72CEH0B42eGNvdy3d0vp20mvhFY1SpCQ31AXZrNzh3r51Or2NEjpJ
UM8U2xlO2liywjElG8Ssc4SwVNYV8+PpIH/YsCPLroeOLs+z6Xj5/h/YrGEUB+oC
vLGwxXpWUch0AT3L3UKQL48KrwPB7WTDNLQwTmVpbCAiU3VwZXJuYSIgQXJtc3Ry
b25nIDxzdXBlcm5hOTk5OUBnbWFpbC5jb20+iQE4BBMBAgAiAhsjBgsJCAcDAgYV
CAIJCgsEFgIDAQIeAQIXgAUCTVkH0wAKCRAWmrexpM/4rl4tCADAr1Vgy3Pm+iv8
PPnN0bbBbRbIqUs8+BX/sFB+UViiVR5uKIAAewNthS7WDShsFW1l3sey3V0w4ntY
tMQyA2Lh5Nerp9yJUHB7d2RIClNmolhwcuIHDg97s697swGIMe0frIOKZv+ByatA
hD5nGghAXSGqi18tftl5736Lmd/pHcbK7UopZPH4/l6/wOYtPrQy6ei2nnZA3GtG
Mo+F3UEpM7d2PFek51jCHeHEJgidysKwYWMsOxmvbzyUt1FxMmriXF2Sqg3tOlSh
q8KFlb3lv2ExzqJl91dnbl7Z1Wkdd0FdVTcxSCH0VANSDkBTAIHvgzduuRnohFHp
OGPUTuF8iQIcBBABAgAGBQJXAqoDAAoJEDqPOy9afJhJpOYQALr540hh1y9r1M0P
m5foRX2rncmXhvEOb9U2kl6OixZbvf6JQXwD+BsdTzQ8wx/pX/OifoSNj8ZJDSey
F0jXsiv6TeACzUineqNufeG+0TI+ABejyaIWM9PmGKwhMgPSUjSwIJVO/IXxvbvr
lXvAMustmCxmOWS2k00mLefw3ujYZNQRfUGPj3fwDq851aDHpeCBT75kAipx+sZ0
MxqrHprCDA1JkjgfwfO9YFY+O9sWSBaykfMkf3RmBfo3O09SurGyvlGrphz6hRug
4YAib7qFw7YDWARkB0VhO6snt1VkwgcfSClPLWv7kNKTW5rv6sjJFO5cC9oBXXlc
TDD5ynrRL5WiDi3p5F9Ds0wSZtP4KufSnwSL5ajBvR3/YTinfNjquOivjSFVSN2m
aQZ3qZE/aspPH7IyUYvmH4pb5HdkyUEDlvXHN//JVqLHAf0YRJ/O4ojmvNVrZHNV
FXA5VoGZZLiP6KDJ2ekfzWRAHByKEKFVea1BleYAMMXCjS7taLSr3Cicdr2795BM
qj1fY65Cn+DD8F0dspxc1QCRQfxxBTEL9jveohsQY6xFjY6HJrrd34ms8aH67k/T
j90fUceYEukGFgVKCKqHShFyvszJJQ3JdMsN+VO7QhcmaLzwEnAKTgM1OouVbYTW
90z7a+TAvk6FL63rIl+fXX1m2gs4iQIcBBABAgAGBQJXMI6JAAoJEFk3GJrT+8Zl
B0YQAIQTtQA+hgwbSAwQypMYPngSNTYhIELAUTY4s1GtUF+lqVNufoePJ9IN88SM
CGxMwcIsv3XlsRWPTNrxPKiSx2p00b9RhppWJ931y9oey/Me5P6UmLNgVKxH2WnI
D0eOf4B4Xv3BdxFmcy1kheg3TVwGbFlsj7cL2yHC4P9nDedWR2DnDP50AczNvA1N
xHnuQsq9kTW/OkSwM3u6rhYFTX4zxhscrgz3lL8xp7xcXoe5Z9+eBmWv6yOwn2F6
Zg+7yuEgcax6cu7bYW03iGDyQhesXII2FTgXOvBk+7X6a1qN+BSwGhM2ylwwHAza
MykVSqIOJ+i5rjX02QBlPl4qjFkuLrU+31OqcQDvd+9pMfY+WmzmABhIFH/qX36a
5TYbBoxb2AsjEBywwKpaqE++6Gbg5Shkt9zbzW0vrz/dM+gLNX7PbwcXktUxVMji
KpIEiPks/26xR60DfO1VmqCPKJ8OHl8Kx4Y9PB1xX+mRbayckrmdN5KG/C+TsWoO
YOocd/T10alI4QW5vHtKGiRBCvKyjWM6i4Obr8/oAP1E4vY/IBB71CNugIJdGEP+
97TGvuiS+5wVPBPkc7zcV4Oje3kZzeP6Om5/xxrVsyRGvCyFHh1UjOmV0eyYx3iA
W8sYU7c3h3AL3GVOvsU3kpqXckd+SFa4VcZYp/N8rJczBLBdiQIcBBABCgAGBQJX
DzXgAAoJENidgRMleOc9XbMP/jXLNsmNh4TyyYwa0VnA8IjJAZRkKEAz/u6noB62
h5PoAw59sRWm2Yk4s+fWGZw2fhWAN4tdiS3/CEEA+9CtRzlQQxki7fJSFsnZg3/n
lfELiSxll6twfgB/zAJ+JpEnPxZSczfPO7SkHxBc6CmxS80AyKqsvTdjJIYNQcLu
+Gt/B+Gt4JFoWXeqHqlbehCNyEU4Mkhm2yJKeCox0nA/1zBY+IxPzCSJLqtgSSRS
SPKDYIivNCsAqYotO4RpdR+Ct0OV0gie/VmfvbS1XJdOxEom9m6x8KXOKZ3AKPxi
OvHskpZ+TC1eL2Jt36qyRR41CnGC1tWkwM3xUychfH+b9Pa6gE0sEKCwqYFgHby4
Nkc+fQz+Q3PrO/KAMvGeYh7JDfndvoT+dECF3lxYRYqd0HI+i62cNwCNc6qjjC1w
qI+G1X+7uFUERsIAs36lIE0iqErP5UxDk6V5hy+HrmPhZOTx1/fDsVww2xTSxqyP
qWDcuhLSDp7w6H8jyvJdXP8cg5LlVhSKc+NkTBVYXXteyYt8T3w8afUDjnJOKvmc
1vv8NljsFI19X6qgWv27qALdE+zY3uZ99J67QDzGek0gFKTUPW21eNGC0/vSsqjH
rZEf3VYXU+xIRUIqnjfODuVLxasqkdXeQEO9s5sM7FFErMXPbu0WNt5LlMBArrJT
+uDe0cfSx9ABEAABAQAAAAAAAAAAAAAAAP/Y/+AAEEpGSUYAAQECABwAHAAA/9sA
QwAFAwQEBAMFBAQEBQUFBgcMCAcHBwcPCwsJDBEPEhIRDxERExYcFxMUGhURERgh
GBodHR8fHxMXIiQiHiQcHh8e/9sAQwEFBQUHBgcOCAgOHhQRFB4eHh4eHh4eHh4e
Hh4eHh4eHh4eHh4eHh4eHh4eHh4eHh4eHh4eHh4eHh4eHh4eHh4e/8AAEQgAZABk
AwEiAAIRAQMRAf/EAB0AAQACAgMBAQAAAAAAAAAAAAAHCAUGAQQJAgP/xAA5EAAB
AwMBBQYFAgMJAAAAAAABAAIDBAURBgcIEiExE0FRYXGBFCIykbEjYhZCgiQlUlNy
kqKy0f/EABsBAAIDAQEBAAAAAAAAAAAAAAAGBAUHAgED/8QALxEAAQMDAQYFAwUB
AAAAAAAAAQACAwQFESEGEjFBUZEiMmFxoROB0RQzscHw8f/aAAwDAQACEQMRAD8A
kJERPqw1FwSACScALqXm5UNntdRc7lUx01JTML5ZXnk0D8nuA7yqj7V9rl+1hWVN
FQ1M1vsJcWx0zDwulb4yEcznrw5wPPqodXWsph4tT0VtarPNcXkM0aOJP+1Kl/aD
t8sVguE1sslA681MLuCSYShkAPeA4ZLsdOQA8ytJm3ktQE/o6ctbB++SR34IUFol
6S6VLzkOwn6DZu3xMAczePUk/wDFNzd5HVPEOKxWYtzzA7UH/stks28pbX8Lbxpm
rg8X0tQ2XPs4N/Krai5bcqlp8y7k2dtzxj6ePYn8q5um9suz++SxwR3r4GeQ4Edb
GYuf+r6P+SkBjmvYHscHNcMgg5BC88lK2yXbPddGUYtFypn3a1NP6TDLwyU47w0k
HLf2n2IVjTXjJ3Zhj1CX7lslut36QknocfB0+e6tyiw2jdSWvVmnqe+Wh8jqWfIA
kbwvY4HBaR4g+yzKvGuDgCOCS3sdG4seMEIiIulwiIiEKuO9zqvtKug0fSyHhhAq
6wA9XEYjafQZPuFX5SNvIwth2wXfDuJ0jYXu8iYm4H2wo5SbXSOfUOJ647LXbJAy
GgiDOYB+51RERRFaoiIhCL6Yx0j2sY0ue44a0DJJ8F8rkEg5BwQhCtPurW3U9o09
dqK+WuqoKM1DJaRtTG6N5cWkPw1wzj5We+VM6xulrlHeNNWy6xkFtXSRTcjnHE0E
j2ysknamjEUTWg5Cxq41DqmpfK5uCTqB2RERfdQkREQhU83m6KWl2v3KaTJbVwwT
R5/w9m1n5YVGasJviWdwqLFqBjCWuY+jldjoQeNg98yfZV7SdXs3Kh49c99Vrljn
E1vicOQx20/pERbLsv0szWu0CzaVku1LaGXGo7J1ZUkBkQwSepGXHGGtyMuIHeoa
tlrSKwW85u4VGyizUOobJdKy92iV/Y1j5KbhdSv/AJXOLcjgdzGTjBwOeQq+oQiI
iEK6ewCifQ7IrDHI97nSQum+Yk4D3ucAPAYIW+Kvm65tEMzGaFu8uXsa51tlcerR
zdEfTmR5ZHcFYNOVDKySBpbyGOyyG800sFbIJOJJPuCUREUtVaIiIQsLrXTVt1bp
uqsd0YTBO35Xt+qN4+l7fMH/AM6FUSuVLJQ3GpopSDJTyuicR0y0kH8L0HVCtdQz
wa0vUdTC6GX46Zzo3dW5eSAfYqhvbB4HY1TxsbM7MsROmhwsKiIqBPSkGw7YtoFv
lZBW6muV0tTqIW6pt9XOZIZqM8nRYdnhPDkB4w4dxWo6ptjbNqS42qOUzRUtS+OK
UjHaMB+V/wDU3B91jFsW0PnqKJ/e+1255PiXUUBJ9eaELXUREIXesJujbzSPsrKl
1xZK19MKdpdJxg5BaBzJV89PyXGWxUEt3iZFcX00bqqNn0tlLRxAe+VEO6bpt9v0
rWagmNJILm9op3R85GNYXBzXcuXzd3l6KbEz2qmMUe+T5uSzXai4tqaj6LW+TTPM
9R9kREVsldERQpvA7WptMv8A4b0xUMF3IDqqoDQ/4ZvUNAORxnz6DzPL4zzsgYXv
4KZRUUtbMIohqew9SppkeyON0kj2sYwFznOOAAOpKoztUvtNqXaDebzRxsZTT1BE
PC3HGxoDQ8+bgOI+q6V/1XqO/V5rrteKupqDF2JcX8PydOHDcDHM55c8lYVLdfcP
1IDWjAC0Ox2E21zpHuy4jGnAdffl0RERViY0Wxaz/Xo9O3I831VpY2Q+BhkkpwP9
kTD7ha6tnfTVFy0JY4aSCSpqmXarp2xxtLnkPjp3RtAHXLu1P3QvCQBkrWF+9A9k
dfTySwfEMbK0ui/zACMt9+ilKwbAdd3FrZK1tBamHmRUT8T8ejA77EhStoHYJp2w
VlNcrvWz3eup3tlY0t7OBrgcg8IyXYPicHwU+G3VEhHhwPVUlXtDQQNPj3j0Gvzw
+VLFupqWjooqaipIqSnY0BkMbAxrB4ADkF2ERNoGFlRJJyUREXq8UDbRN4ShpDJQ
6NpBXTDLfjqhpbE3zazkXepwPVVvramorayasqpXTVE8jpJZHHJc4nJJ91+KJLqK
uSoOXlbFb7XT0Dd2EanieZRERRlYIiIhCK1O6ts6raTSdx1Re6ZjeKamqrdE/wCt
jeGWMy47uISjHkM+ChPYXor+NNcQU9TE51ro8VFacci0H5WZ/ceXpxeCvPpgM/tV
GOFjJYOBo6Acw0H0AJd/Sre3UuR9d3I6JU2gue64UTOLgc+mRoPz6e6xSLlzXNcW
uBDgcEHuK4TMs5RERC8RERCF54IiJCW5IiIhCIiIQpf3UrvX0m0Z1phlxR19O8zx
kZBdG0ua4eBHMehKt3ZT/e1K3ufK2Nw8WuPCR7gkIiZrYSaQ/dZvtI0C6NI6N/lc
3nncHP8A5pGRyO83OY1xP3JXTRFaR+QJan/dd7lERF2vkiIiEL//2YkBOAQTAQIA
IgUCTVkKaAIbIwYLCQgHAwIGFQgCCQoLBBYCAwECHgECF4AACgkQFpq3saTP+K7v
6ggAzBjRqpS6ZESd/TyapsRSOSLwLfBXkeQhNIcm7O+FAbEEnJ+estJQIsww4AJ0
sWrRdbosf1764tsO4ov6Bs1xccrg/jyJqVZqChF/rjFZE/47Lxv7jff5lcfEVLeh
GHbRzbIvLj9R6A9YaDPgnkGVi10+0rdaa0yxtAeP89ePKtErRLI16SKwoQsEZ0u3
vwpA4sgsercvIjwUCUsgWassLqF/Wat1hIuC/KTTXabn5BUD/25u0a7Xnlh73uzT
evC6SFCut/BLu+Qw6zMIS3dLPWYeqIVIzDpIBpmUCyQLtmcJhLQ3kc/b9CDfN3x9
T0yl2wf8qSIsUk3t8bvb/nBLpIkCHAQQAQIABgUCVwKqAwAKCRA6jzsvWnyYSR/k
EAClnAUAnB8PyuTsBLYugQXtfofMQ9E8wcUFfchsNUWZmjootZL+vYrtlkYHT+As
t7D8vh/xJMcwkL4IIcGlhAvYQw6Eg6b5oovMiCSQZBOlT38ouVXPuDYdieJE8SZz
Vz2WX1ZvRieAF/6LEq3QUF9BVstLpunI8G6s1WuJnd9R1oWSJLJ1LtuBlb/T8uXz
JExBIEVnGZDi1Un2nqKYlCAMfGGsS7BwubMpq4bjfHbJ9E0u/PjodqC6F31YXxyS
XeVIbV374EZFxM712khh7ejdXtXFK031y533uJ79iSfB3Q0dw8REOPxSXchwTlfs
VYz6ElFUdgN8ig+mpdUoP+4xQiM4SqmDOW4bIEfenLIOOmf/hy3L0dUerf5LPWWF
GiZa2Xl/lCSC1tYL5spX1Nn5vT2+o7iVDmk6Gu2IsJAuJt+zgiQoi6xKNOlJF8Ox
gUHlTvZ8ozh2idfigFM9OwacwQQWHW2VnBTIwSMlwLgv7s3bOQrMpmH5CWNxm9Rc
4ajYnJjV5bTslLyywy9/3opeqhjyNf/2yqCnvJc7VI0p9jsV8VfafHklYKOa2Z0r
C5mREzWHus1rR/4THm9VOQdfq+Je86iPSlJGNdlCIHU9DlbIolvXs+K71M5YT4ud
J8PuuA56I4Gz4Fg8zwkxeMTTCynYEBbnby6y8VpGnT2hgYkCHAQQAQIABgUCVzCO
iQAKCRBZNxia0/vGZcFnD/9sILKebiRfeGHBHKg7GVjLeFwKyj4pbYcAfpvhx5+Z
HybjNsO4GJyFOADxfHxGl9/Eman8ES67t8l8lpU7DEvtii8k/71d1S83HN2BsV9v
MgWv73j5NeDjSFkLXFhv7dOrewhDVAlLGiIhHyhgWSUzyX/MtzJBCV/xCO2CW/5c
2TIC5Inh1G89m3gjRc3FsFQ787gCo+Pp7xMFxXZfb1gcYH9s3FAMGSGAEoQwlZ7P
EIsEPcdaWchs42mbiZqA16f0nArXxVWDmKd5Rji9XkcmIzgN9+R5ICGpUWbwwplw
0vYQUaEuLk29qrLZqGA4p0lkoIHOF/yV19lM/ibor/IqE0FKj7jqatWnmah120QP
8U2XMSJr16Y6pZpNmAYXKEPKzwhQ9vQ7+wwydGLv9CwBjk5C8X1YG+KWNnXAYMwX
M0lyjXUj76/2G861VzcP+JnNGQTFVWXC94Ina3RU7iib606LU8t7C08T0niK6eL4
X7pzoR6muBtVGucNGtQmdTdbnCgKA2wtEIuQxfQTB1ok74Lvd4f4EW+JMOuA2YqH
8mr6mz/9+T4PvsskccEf5NTkYcMiZBEpkiRud+gm8kemfXAvu0xJqb3yDbcoerZr
ZES3Ro+kojEcoQ4VzZZBl/n1F6GN+LaBSDLcb2CnvMcIDtOGJQFEeDneRa+wPa3z
74kCHAQQAQoABgUCVw814AAKCRDYnYETJXjnPaVAD/4hdvDC2v+mj2jgbYLi+geo
QSBffeab9h7An66vNjUdhKulHUHvRSeqvgj9/a2toUtzQBUjlP8bgUP5RJjo8pBa
rnowTGWJne3Gap9SqOZsUJb2eon9/5EcU8uwBBU0MGTUXFDDA3AtIqu6PmgqvHId
2LBtlvuraID85lc+yaFfqd3sKlpPiA+j7syGpfjiLK+2Ycp6l3bKLqXzVOwJrsd0
JMwQzlPIpGKP7dDd0tBln9W3+cfiMV+tfPU96gfjcVXjyyWW+npP4GtcYcGsE9E2
1N7VuyuGcjvGjqk2uIEBB+2ReNZ7T2R5oz5If9lOoC8wu/We85cEZAej/KzOJxsY
SCW/muI5PgHMlG7SLMOkoEN6IrdP4KAT7I/hRqLOT7OHxT94cxto3/rdL1SZLTbu
aVeNXM3qVqDrsmwzL0Ka2RJWUVRhk2hcXn8JvAzT2Ygb41dSuwwncH1ZM9YBuFtv
cT22uuPAuxSQxOvht8v0U1axl77gE816yDfI6TO7kCL63E8B+tVmN77hGbCS+l/W
2nW4CinIlTQdGcAnX3ITd7KWDlPJpsq0b0+SuI+j4VY9mFkv1S19LZz1USu9X54m
KUhcrS/+76RsFZxBHRmmiCulmcKxFZtBDVaEEk/Ml/TI3Gdi7ELAy/IWt+w51axe
/AALTQ3KXx/Yttbq57ifhbkBDQRNWQbPAQgAvIoM384ZRFocFXPCOBir5m2J+96R
2tI2XxMgMfyDXGJwFilBNs+fpttJlt2995A80JwPj8SFdm6FBcxygmxBBCc7i/BV
QuY8aC0Z/w9Vzt3Eo561r6pSHr5JGHe8hwBQUcNPd/9l2ynP57YTSE9XaGJK8gIu
TXWo7pzIkTXfN40Wh5jeCCspj4jNsWiYhljjIbrEj300g8RUT2U0FcEoiV7AjJWW
Q5pi8lZJX6nmB0lc69Jw03V6mblgeZ/1oTZmOepkagwy2zLDXxihf0GowUifGphB
DeP8elWBNK+ajl5rmpAMNRoKxpN/xR4NzBg62AjyIvigdywa1RehSTfccQARAQAB
iQEfBBgBAgAJBQJNWQbPAhsMAAoJEBaat7Gkz/iuteIH+wZuRDqK0ysAh+czshtG
6JJlLW6eXJJRVi7dIPpgFic2LcbkSlvB8E25Pcfz/+tW+04Urg4PxxFiTFdFCZO+
prfd4Mge7/OvUcwoSub7ZIPo8726ZF5/xXzajahoIu9/hZ4iywWPAHRvprXaim5E
/vKjcTeBMJIqZtS4u/UK3EpAX59RXVxVpM8zJPbk535ELUr6I5HQXnihQm8l6rt9
TNuf8p2WEDxc8bPAZHLjNyw9a/CdeB97m2TrzR8QplXA5kogS4kLe/7/JmlDMO8Z
gm9vKLHSUeesLOrjdZ59EcjldNNBszRZQgEhwaarfz46BSwxi7g3Mu7u5kUByanq
HyC5Ag0EVid/pAEQAND7AFhr5faf/EhDP9FSgYd/zgmb7JOpFPje3uw7jz9wFb28
Cf0Y3CcncdElYoBNbRlesKvjQRL8mozV9RN+IUMHdUx1akR/A4BPXNdL7StfzKWO
CxZHVS+rIQ/fE3Qz/jRmT6t2ZkpplLxVBpdu95qJYwSZjuwFXdC+A7MHtQXYi3Uf
CgKiflj4+/ITcKC6EF32KrmIRqamQwiRsDcUUKlAUjkCLcHLCQvNsDdm2cxdHxC3
2AVm3Je8VCsH7/qEPMQ+cEZk47HOR3+Ihfn1LEG5LfwsyWE8/JxsU2a1q44LQM2l
cK/0AKAL20XDd7ERH/FCBKkNVzi+svYJpyvCZCnWT0TRb72mT+XxLWNwfHTeGALE
+1As4jIS72IglvbtONxc2OIid3tR5rX3k2V0iud0P7Hnz/JTdfvSpVj55ZurOl2X
AXUpGbq5XRk5CESFuLQV8oqCxgWAEgFyEapI4GwJsvfl/2Er8kLoucYO1Id4mz6N
33+omPhaoXfHyLSydxD+CzNJqN2GdavGtobdvv/2V0wukqj86iKF8toLG2/Fia3D
xMaGUxqI7GMOuiGZjXPt/et/qeOySghdQ7Sdpu6fWc8CJXV2mOV6DrSzc6ZVB4Sm
vdoruBHWWOR6YnMz01ShFE49pPucyU1hAv4jC62El3pdCrDOnWNFMYbbon3vABEB
AAGJAz4EGAECAAkFAlYnf6QCGwICKQkQFpq3saTP+K7BXSAEGQECAAYFAlYnf6QA
CgkQd9zb2sjISdGToxAAkOjSfGxp0ulgHboUAtmxaU3viucVe2Hl1BVDtKSKmbIV
ZmEUvx9D06IijFaEzqtKD34LXD6fjl4HIyDZvwfeaZCbJbO10j3k7FJEQrBtpdVq
kJxme/nYlGOVzcOiKIepNkwvnHVnuVDVPcXyj2wqtsU7VZDDX41z3X4xTQwY3SO1
9nRO+f+i4RmtJcITgregMa2PcB0LvrjJlWroI+KAKCzoTHzSTpCXMJ1U/dEqyc87
bFBdc+DIk8mWkPxsccdbs4t+hH0NoE3Kal9xtAl56RCtO/KgBLAQ5M8oToJVatxA
jO1SnRYVN1EaAwrRxkHdd97qw6nbg9BMcAoa2NMc0/9MeiaQfbgW6b0reIz/haHh
XZ6oYSCl15Knkr4t1o3I2BqrMw623gdiTzotgtId8VfLB2Vsatj35OqIn5lVbi2u
a6I0gkI6S7xJhqeyrfhDNgzTHdQVHB9/7jnM0ERXNy1Ket6aDWZWCvM59dTyu37g
3VvYzGis8XzrX1oLBU/tTXqo1IFqqIAmvh7lI0SegCrXz7UanxCwUbQBFjzGn6po
oEHJYRLuVGLdBuoApl/I4dLqCZij2AGa4CFzrn9W0cwm3HCOlR43gFyz0dSkMwNU
d195FrvfAz7Bjmmi19DnORKnQmlvGe/9xEEfr5zjey1N9+mt3//geDP6clwKBkq0
JggA+RTEAELzkgPYKJ3NutoStUAKZGiLOFMpHY6KpItbbHjF2ZKIU1whaRYkHpB2
uLQXOzZ0d7x60PUdhqG3VmFnzXSztA4vsnDKk7x2xw0pMSTKhMafpxaPQJf494/j
GnwBHyi3h3QGG1RjfhQ/OMTX/HKtAUB2ct3Q8/jBfF0hS5GzT6dYtj0Ci7+8LUsB
2VoayhNXMnaBfh+QpAhaFfRZWTjUFIV4MpDdFDame7PB50s73gF/pfQbjw5Wxtes
/0FnqydfId95s+eej+17ldGplMv1ok7K0H/WJSdr7UwDAHEYU++p4RRTJP6DHWXc
ByVlpNQ4SSAiivmWiwOt490+AQ==
=aiRf
-----END PGP PUBLIC KEY BLOCK-----