pub   rsa4096 2021-08-29 [C] [expires: 2031-08-27]
      C466A56CADA981F4297D20C31F3D0761D9B65F0B
uid                      Martin Mares <mj@ucw.cz>
uid                      Martin Mares <mares@kam.mff.cuni.cz>
sub   cv25519 2021-08-29 [E] [expires: 2031-08-27]
      4833FBE19D2444220F67D07FEE15A6FCA1A55931
sub   ed25519 2021-08-29 [S] [expires: 2031-08-27]
      33DD421633C5FFACC2D21C52157FF24D47EEA720

-----BEGIN PGP PUBLIC KEY BLOCK-----

mQINBGEsBf4BEADIWvGdkJ6ng9pJrAuKCKbyQ15PQLyKE+0vG2Uok1/JYQVMWOPk
y276Kg389+Mi38nxumJ0L22Ef0rcGbsCLMOTY0BAGuPpFA7c9703sV8+wP8XdZdf
YCd9Hw/TrrDKwLmNQQYEeiralyG0IV0sCsBJQqPMFGljOhUJHM6MzvN7/gd2nbh+
i0YlNTTDmBoSxFhi8+YaS2+M1ILZUCmR3zAokqEeOlBzpKr+tXwX8FlygD0S4TWR
BJvgxZGjlVArCbzIyQDM++WA3BHcM4r7l/f6h6jZYGejXyIqkAtKTUHa1jEKcidT
9u/G3CQAnuJBLgpZXlbQ8MaeAwRHruDUiy/3OMcOiK8qz32nM0HY9DdSytGcS9L6
0YKu7VfyieVSaDGSU1vRjQEzo9CfsLYAPWLMSuzwQaziePTGS8zggrvz75LV8Kwa
CtUxoEmPG48gJlwpR2P5+4b3ZZUFdL1yq1i2oQqlFkwGxwrCkUXs+UCZBKYvC3+l
m1dtSNBE7sucaQ0UgPsvEdxkoWeGAMa3y+N+KLdxDcEBZGoYUL5OmNHTXhL91djy
zRR//V1ZYxUwYk1+7DsbwXHqPMCIeLYZPlhPtdpDEYhY+VL3L2EvcszRsNdDhIet
vci3hlq/GoFcpzv8Qh5HCO8zsB8bDP8t/CwS7nvAdWDD/dRMXVY1Vi6dfQARAQAB
tBhNYXJ0aW4gTWFyZXMgPG1qQHVjdy5jej6JAlcEEwEKAEECGwEFCRLMAwAFCwkI
BwIGFQoJCAsCBBYCAwECHgECF4AWIQTEZqVsramB9Cl9IMMfPQdh2bZfCwUCYSwG
GgIZAQAKCRAfPQdh2bZfC9f1D/wJQ9Mq/oxzlSpsDKkxX6kAXoKSDjAo2MqFQX5H
UZXwxyM0EJzR5X1buB8PeYjG3DgEIHog22TAg4S3pgSjgBkxVuHXM4wb6gMv3/Ct
XXEfhvc+FLF9Qguo1uQwGy3DI/qH5YA0tba7PodH06dcDx32bHoA/4EuZlVJLQD4
eG5WJafZntEfHVkdn5+xmzv3njy0DqduLsptK8uXEl0aSVo8Qjb5jiAW2DvPy92W
AYiGziocUXZYBp5cpxBPg6y7iNPD7VBSyTe9LvcPcf1Qw5YSnkmVuiR8N39sIO/Z
xyl/ITNhrao7y5aNzNOWtX0ia/RRCG28T0lpKntbF6Z4ijq0fI7PJvEpIO8dqKLw
cvvhZJp7T9QrHGE5lLgesuhnOKY29JiuRmtPWKjI9SNiUiJQTzrn61nFbGxNGYVT
TKPNNtu5uB4wJ6qC56gHyjuhJPMlv7IdQUUGpZlLNYBn4BdrYHv/jmfo7QShUNfx
pCAJ1CunZoqrwyNsvwYofBEp7paRUtqIKm68yMbFgp4HvTTnkeVjV7ZWguOstVSQ
OGsoj6UXhrQSrn5pJY3/DXWDM8SP+mBDRCMVHTPXk3gRywb6HL9BYzqVKN5AlfWg
XeFa2ATgrbn1Qx74tZnu0UUgT33gSSegsYEs6uWt1kNvKsUIQ1uoynmrYIc0uMPx
NB7BF4kCMwQQAQgAHRYhBJPGCZoUInaii7412BW8gzRDA42MBQJisM4RAAoJEBW8
gzRDA42MDJUP/ioysGuQm12kGKJyTzi0SgPisOI8QcCLgLJlMRr4KIEc9YOW0PVE
BOrpe22UZYzDCex8NMAh46jwWmJaKY/wZm4dttOdygAaDfRCJNPcyZ3kScbd5I0o
Icpkg4KabuAHFxc2fVDh0Dv86ByFvnlBIKm19BqvMtDNb13dd/U1LaEL+2VBQSqD
XnBSCS6j3QkdsbjRUGz3TddhVUVir+HLbmBRI92ropmi4dHX1N1lenl3om4BCw7s
Oh2M/zneb3Un3FqpMPoZKsKk+pLeDfedqOI2eG88MNpmgw9DdanhSTarKaDqsA6O
MPPuLJRy0bGUz1jI20D1Ev40Q/n6W3GsGmq0RuHfU6J1KN/ie3IjIj1QwQNcXy0P
TdenDz2CTe92NCol0pB1AuRsl4SQRH05dh50pSBELjlDBg4LPpyyF6NMGSWONWKo
gf1mXJ5b3/C4AVsCAoDadlQ6bL+APgSuis34SXHzgbjHJOypp7Xy10v/Ycbl1jMm
mo4n8X2cd2nIfT5jsfLZ+FVtHdZebVSJia4VO5JZHeU194bS4oVptKLOQsfXurCv
TORw+LfyMWmTNVv+5qAhH/+ToCAE2q07EkTbyF3wH2kDCVfHOMy3TChej4vLsdBx
Hue0exCNh39/QbmpstDS/MyShzOcvupF8ndCN/EGJZhWeUdh8uk9EoKCtCRNYXJ0
aW4gTWFyZXMgPG1hcmVzQGthbS5tZmYuY3VuaS5jej6JAlQEEwEKAD4WIQTEZqVs
ramB9Cl9IMMfPQdh2bZfCwUCYSwGFgIbAQUJEswDAAULCQgHAgYVCgkICwIEFgID
AQIeAQIXgAAKCRAfPQdh2bZfC8DxD/9uIVQnRGjFBpucdD+db8QxVswmK0R/P+33
GjYrBsNJf/WTqrT5JIelZY4b4T+Y3kEyypcsTh/4l+0KBaoCq/XeZNgPuXICR9JJ
0IFIN7JXI0mvK0Ik6bOqULhLvwVrEnecVUDFPFIc6yBzsQ7la9j/uQsZRPv5iVx3
p7+RcT91f8wlYsb8Wu+Dg/GGAdo77LezJvmRKGxiYU5Zzhlf2SgegYW6yJyqzClt
9RCN1f5zGRCdqG2TCcJG1iyykg+d12reXiMTxLT94Hx0JbBfopd5lFMwJ1O2LibO
RvqbOwQjJajzVOvGhQK7jA3M3rki4G4y/ZG9GYMZbM5y42JCs3ldoTe7SVsJ9B8x
O+tvwA1ics0QZC4XzYhtoAiBltyeRgrZ8vepLmM2gnWmniXKWUB2/8kJqSp7IIkJ
FePpqmmqqkN/D9LU6FHxoAirP3BgmusgfS2q3mmyCmgQfFu+QRcbKbQ3uToQbSe2
jkb4b/Ccd1O7IHRuILtWmDAtONsIWAEitU9hFF0PaMJP56wo7Qe+SCm04smWSAJy
6gQs1y1ZrLTP5IaFsE3SvgNrHtK4i/x8WH54cOJ06lHk8doOeBEIT0xbWS7Co3gS
Ko1pwYqgjO9dcEb0oNjajB6oPzdXjkfSTmUc5I/kl26rhxhAdP3WX4RLwkLZ89ki
NDYmbVQ2VokCMwQQAQgAHRYhBJPGCZoUInaii7412BW8gzRDA42MBQJisM4ZAAoJ
EBW8gzRDA42Mg90P/1UWLv9NVgqrQVrgpPnBXU/RtroN+VJU54Y+5U9S1wAGdMHt
M5fI4lGweaK9nT4LnPT83TZd66+ag6GosrHMQs5fIn172sZocoYiQ2CfSzxotIYX
tAr0iQirNCv23w2oSxLqpsNJATzncvHHUGo+UxQ8mYchjM5ZO42OtYVRClBtDc5C
USuE6fkOeWMLi3A9IJmNsYIGdsO/JtbUr+eJLZdhfz86XVNL6mVvUKoJkQf2kgf8
Q3sl7HYSdEKNZRE9agofZKuq2i0Mjg6WbVUBFLA/MP3drblsHCC5aWDNhY78ldZb
FpQQolDYdQKU/uxrUpmyoEvVC3xlsQODr+EO5MnoT8/HVGJSOlzHny8lS7wAur1D
njQzUBiWsMr3Y1bnNS9il4xzhKKHLTK/zNuqhNpwAvh6wTAFvbEDHRIi1/lqFOqo
7UyHyY7BkkSq563L4NLsWw8DsykkSwSUsEPqMi02NKp9KSelsH9jbIdfpBrIb3Fb
N5hf67GXSv7VqnUVLjqgJvpDASedM7R/14s2iDYQxIawjCiC70lyPs21wLtFReUM
R/GWtG/yK7kRN0CzzPUs85WwIcrWDbtq7k+35rEkvS0symqNC2ONGIbUnkTnutgJ
nu2Q/eEjGTTm74WFXgn+Psr7UlEVjyzHnars9oknr/QPh+ghFi6Kxpm5C4h5uDgE
YSwGIRIKKwYBBAGXVQEFAQEHQOj2MA6cvxxks/Uj7H5ElZxIRZc8TT+tkPcXbeB0
UYA9AwEIB4kCPAQYAQoAJgIbDBYhBMRmpWytqYH0KX0gwx89B2HZtl8LBQJhLAZI
BQkSzAMnAAoJEB89B2HZtl8LtYoP/37BKh2iJb14H3pZMkNSEyyzkpumBtwiJEEC
TjVXgvoSFhthcUgN+suZ7r3HxJ2mqy9WsdeJwsSI6dpdrgwn1yNn1uMXtNS9kMTX
1AFORi/yh/XxH23AFcqIMboKezF/owF5Pjy3V67FhH6F3FVwsGq6K7AYlLaTLd0B
JapICIsIBzGAoKgbLVNaywmzb3m+gaei7Q36wGs4awAIt/d3niXkztwC2szIHnoz
3/qSU3egg1zpD2fpbf9iY65ShbMJuJ2MMOmiPytR8x5rbQL8x/H1BjP0J0abEb5u
4SBUPr3N4JXtnmFZiPzgBFIoqMAUe1WDiCuQ6M/aNRPPNh0amrrI5PFvq3+WuyLZ
UwzBK+Zt3yt3iwumB2I2mJ6AN7tqbnfAdIrJOKkfGWV5L1Tx+soDxPNpHwOLfqpX
L5+j3xwz0nTr6DlsvuBDrTrccIee2bX4JJnlWK2hyfUMvRI8cZ7Q58ODuN60Miat
UNhLZSa1qzmy4G05BsVs6Um1J/DuZ4/2qWbCeiVR9KH2FzdVjQFTXYHA7bDuN7vO
/wfCnkYs7FbHUVExnCJSA5OgfgmPUxR4qXJtD86hWZ3hw/X/jq0KVBuEXI6E3OiM
SpXKCAPNzejzEBBvBZwAHezcQT9IjZ2QTvoIR4NWBt0enKPW4+jPnhSU3PP//t6q
NvwaKkuSuDMEYSwGKRYJKwYBBAHaRw8BAQdA5ilNGb+efS2tM61KOk0vUkI76LY9
y7wPXMjgi+39KhuJArMEGAEKACYCGwIWIQTEZqVsramB9Cl9IMMfPQdh2bZfCwUC
YSwGSwUJEswDHwCBdiAEGRYIAB0WIQQz3UIWM8X/rMLSHFIVf/JNR+6nIAUCYSwG
KQAKCRAVf/JNR+6nIJ3TAQDc7EbRTML4Endygifg79u4B3KGDqsto/r5bCd3FRm9
3QEAoWpkI+FYP0fR3+cnhQE4+hx1xlE4v4R774QAazG+CwYJEB89B2HZtl8LduAP
/RswM0EtOVkHtgq2Ri6p+FVQ9oGvJ1+BM56Lqp6nnRu7caJKw/sEJo+L4pAP7LNi
IwIBMZhnmWIVPQKbURcxyaO/YRTBwrqAx52sZEo7ej7qU+w1rKShqw4ZjTe763kN
WQGVyGTVm0Axa35hOTqU898ohkZFFv/9YUfuKUOW8ExP5aQBRg2CR+d++41iljcT
SYLtYl6jghLJ5bbPz9Xa7pMdvYSuxKjjfyDOPCia/DmkiRdfB64jmxRS72TCwro0
FMNoUlttp4UvlaDKpNny32Guab+bzPH+6ePqmVAe5hGtyCwh4X9hUmAJ8DVhfN5N
YNxB1Bv6X7HNk11VVw5kjxLKn8M5Nq8K+8zs5GnkYlwrUXM5jPRlUracyrAfiGIY
VHOG0yY/OZS2X+RSzDjkfO0tpCMbqej9QCoPa6aV/LmzZjWjsJHEz47m0KaHSHOI
2s2tcgc/tsySlOWdUq1JD79UICOVlAlCJNVb5GkQ6uZCxrf3pXLXakpFMEMxKbvo
lq0bx6tSUy/7/gmnC+cYH1QL6NHYGrSH9tENU5ZnWBHAzASirR4i2WlLOLj2Chsd
OzX5dwt2G2K8BK/94hXdLZgVhJc/kW6VXMwI+YR0q79VmWIeUTH79+y/CElQpQrZ
hwtlWRLPXCl84nl9we6Pw+SKExO+tyIMExFB7R9Y5z2R
=KNwQ
-----END PGP PUBLIC KEY BLOCK-----
