pub   rsa4096 2023-04-26 [SC]
      E693FB2AABA36DE117AB6FB422713BB3A18DC83A
uid                      Bryan O'Donoghue <bryan.odonoghue@linaro.org>
sub   rsa4096 2023-04-26 [E]
      92159CB87A4FDC149F684167BC984D41F0F05F5D

-----BEGIN PGP PUBLIC KEY BLOCK-----

mQINBGRJNSgBEADD7Vm2ZFa+v+JGJ2QYTJqQAkqis/uOHkhdFNXqpBarVBd47QU/
DMNU5RxgjedMQEmHoeDbJ6UOpjbrUQ63c5sgG1JbroHJJctwsEI75OOlekMuebEb
jIJBLfgENGwPBMHvpiv5TgCWr0VgYaXfp2eh2LINFywzqj823HiDPibQAXDrjzvF
1ogksi/6cQZs8d4if8YQkLOrYISFouG+eR0nN1I7mUfIddXOWu6lJeTyqbWVurv5
8k2ekIXKaOC9ixLHFbcfYV0hOgRaTwQCB8CYF9nfqZla19iItfsN9QxN+ZdQjcRo
Yipp6HPCMfJlKH7GfaFcW93LKc4DKJ2lVL+pg/OQlythZbjRPY492NG9kZ65aYst
Cs90uhMUEVVPuGUw7wBEku+6IEwZfrbMVKeWzLlPyM4Hv9hM8ktxSmxWsPTPqpBC
8eyeAQLalMELAyVcZlkaCtEcbj7w4l/JkYz+4l37obG8ZD+B34udBUUzMsAJ8foD
FrBh2MOFA3hxD6G90D23mmWsri7pnKA2tZs92aQX7Ee+FbCyg6g5ln62Sq83ZDbf
53DdBs55EVpBadeInWmXhzCHPQx06H+CwTEjShTYIaMmBfrewvYUDKvFTC5iKQhA
EUgt6i94JsbG7NoeqcxkUMcBOEUQ3uCQG1D70ugspgXc0wd3Rimiq6535wARAQAB
tC1CcnlhbiBPJ0Rvbm9naHVlIDxicnlhbi5vZG9ub2dodWVAbGluYXJvLm9yZz6J
Ak4EEwEKADgWIQTmk/sqq6Nt4Rerb7QicTuzoY3IOgUCZEk1KAIbAwULCQgHAgYV
CgkICwIEFgIDAQIeAQIXgAAKCRAicTuzoY3IOqErD/928Y+fOZDK+jZPlQ/LMuk1
PABCwq9mF/BwUMW2bNywO7YE+GaTwGbdSXWfWGj0yPu6A+eLkRAm065GuFJPT3sX
cJNqBYWyEFf3Ug5yv4ydhCDTMoeqd931QP0VZkXxF9ZIaQKZhRONNRs4rImD1/uw
mMW0wxppHjE2c8dsNV4XvLuGrQQsa0M1764wJNSQ+KoIkfAS9P2jhX6ya2k14fFc
jowpyArDvhqUt3aYCgLk1X1aaxeOUYSQ/oPnipnEzm1e8qMZK+8F4Ajx3x3iJm4C
3KsELo9tK+Y5FNHCfSobORRGw2IKo2ByG/Pi4AT/ZdYkSz420VFaLoSBt/123FU8
8wMU1op2svuTtkDos7ckhFncXfF8/UAxME2R7l5dugnoAsFKPHe4jEZ5XntV/brr
+JjOECIpOQXcDV55gZ65UYlAV7TrxeeFCVm8w3Ed9NPFC1QeUfV4P2DEIXm22if3
Yyy3+f+82syg8lIGdILxuavpF7Swhc4fa+zFYe1EoF7+HUlOBhiIXRWvlzX76VC6
IOJFbDNwQwonufHaYzn61KxNScknZcPcsBjfDVPgrNGo4HQ48C8jIXEy1TrbNaYc
gzk7uSM8Y0eXJ4FIH/PPx3UROFKYqx4LAT+63ZjDqLMQfZ5A81V8tSbJn1gQ2qil
v6XMWUzfeQc9kPKg2tRxAYkCMwQQAQoAHRYhBJvQfg4MUfjVlne3VBuTQ307QWKb
BQJkTjREAAoJEBuTQ307QWKboncP/0dNyc5viN27r3OS5MlLho3unbwA2UAacmDO
IOOFVpG69TXvDabQaUn4vDTB67z6/u9hlOpRgpTYDJAKou1S9mVmEn00YIKZuJp6
lffO1LhtclUxvJmMvqZtcWUlFhb8IBPF6p3BKxpSE2fL8jzNhEdZeRGUb4Vi8pMo
EJzC60z05XODNe025wgkWcjNKH+L7NsuUCI+SrDCIAP/3qnCCygSR7d42SMBMWdx
aX8A/X7RgFMJE1xSUMOZLzvqPDYlAMqTv0MTEOdhoEUc3CHVckAjna8xtg1qQrTU
fOcAHaozP9hqeUzhm+hMAJwKYMIOHYJhlNrnltLyVjHBlbityPHMbfSwwMPjVCJA
DutmxLqi4CH5GAy+oN7ql+J/6pSox4ZZJjPdDUkwoVmtdRyzNfcUF0oFzTyPMG1C
DQvxUXFJSddylLe5tkia3Ve13W2zLwoBlFvlyj4u2L2LVtdAwmfE016/5ae1Q6Pb
Q6HWbORMoHd1laorE5QfbzDt/y7Hol6lFtzhw94LWHyxnl2b3J+OFpfGqKXVU2aC
3ideEJywb4s5crDEqbfGXwrCBErA7/SPg5w9GkJLWRvDbtvODAJyJoq9QYw0S9GW
V9eeaOLmf+XeAeFCMRBd5PVjUPgb8fesm+NtfgM+w9Ly0+RhdUGIiPvbRG2CEKu3
ZsMSrXPriQIzBBABCgAdFiEEFp3rbAvDxGAT0sefEacuoBRx13IFAmRRBwwACgkQ
EacuoBRx13IuxQ/8CnYMT3c/T96ej019dK7mPrcA9uLM80wKVNbQPtq4tClbtrwc
ByKHxKtWkofgxyT1zlDTinHyU5gxoEbmQHgSJwtopMUD6xLPf8T/wTcc5UjpaD/B
JBAnFBvdwNJ+FJ4yw91KGbWaTHZLC4y7AgDsAXjE0JnqVr4Kb/l+66Lg58JYfMqm
u5axKjbK8WUKvRcwll3L8nRavp8AApbuJ2DPc/fh0BWYMCVN04Q0XjKM/pI/jn3T
BkqP2TU/7YT8Y9cTzopEY9zQMp49cILqZ3Cr07S+6kcyZlXxEd8JHPrwnLZv8ipj
GneOWyKc9bSwXlvYzjRIP+Gf1jzwdezrT4C/0/kCQUZSoZyNCaB9Z2MCG+o/aO/I
ghCmWgk2dTqpHjpdPRSVzYSOVPaJu9/jz4RK9WJR7n237bXj0NsBeR3DRaOePdRo
0pgC82welyzA5n/JcX2yW7jWoSt+2Epyv1LfqANCU3cpQiMv/oTgflreJv1bUVzE
s0wVCErLEemginNSeMGbLlYWc9205jvZvTL/Og1OtceKuMgmpWsTLEqc7WCPs/Qf
KOOhpkYmDvL6Lv5g8tMbjDkjEeXtcNQGWYVXHPfe1K82KhFbQ4DdkOiaTq62qh7d
CweJeTOTwkOfAz/R8ZTX572qpRF9erijmiC0fPROn0Tx9DgFbfv9QPmreNiJATME
EAEKAB0WIQSJ7D0FhEYhdFDyKEgWmrexpM/4rgUCZE0hVQAKCRAWmrexpM/4rhcb
CADJdkcv3QxFFHqJ+i1mCW58LdDUk3/NfBsz+5KaEbh1Hr+Lbh/CNktFr7WxJGe0
ydmtbuaJKoATCjtgX7qGTz8fRpbypZFMkLdIX08MVhs+Vt3ujBEqYY1hGCYuOxx9
5/oc5NwmgQioeYbQFL0xEQz8L11Y/FmrdPQF6M6D7Btocp6cvTvcYq5WRNtudlWY
+UhdTE8CE6VmWaHbGVyzxcaY7SmKsncRwwHTFd9vdgZYXroBnsmnuVK4sgb+f4TT
hlvxTvOghfEO2kZGbuZQ/uIci9DxFiH3fpcZ2HRNjrnhC6coltGcTLt5Mmk/9KH6
DGrzaA5fOcxBbXBLrEhHJtZFiQIzBBABCgAdFiEEav8WLVf0IjqHcO9a978hQTb0
H64FAmRQ2XoACgkQ978hQTb0H66sjQ/+L2pkymGDrZ/Q5Ltng8Ny49p0fSaL7PKZ
0UlLS25hh/xzM7we1s7/tMntTzrumS3M976O63cglJ7zn6YDwlAcAfIfyH5DQVj9
Y6Ju6FZoHZd6uR/10zmfaJsMbuJLhgMpY8NjChJZI1rFxQz9IHdgtzkXjbTPtqol
NBJer5e5sVxrAUOLHin+jmvB1hUuZFZQ0UfjsD8jkbEQvvuLZLRtGB7vdTImKpb5
wFKbshge+hKkOFwUrPHUFn3Ml3xVQzOtgK7RTi6DAuEKHT3YYFeRCPrObfJ3MEy/
5kFMcYGYbdRfCp5RLoEJbCYgqiEZeF03bV/EDNq0yiXdLehO4URpBjgs9k3edZoq
kFr8C+roR06s+YIq8NS8NYFAdtkp1R3FENn2VnKchDhN8qa/8i47hE8tYpXe09wV
PDjdIc99qxCp/aoSUo8L7uE1SYofJUispTshUvc0fAJldAeEnPbcLmfA613p0oQk
7XKb1adYPPvRixEOWIHx7uOtij3p8yc/TOi3qp6vjS1wmGEkxsq14Ve5pi0NXpCR
Pi5BXUJSL+w7ql3bzdkRXxk+5mLDjzqZD61CR6Apx7L1u05vVzMwbH6ECh8zCXin
QV3aw863g5MsqNTZg/rZ6be/gMXYm6xkfljJMAbw+Kq8E4Mb5GZOXBYZf6UBmbs5
qqpoowrPbFe5Ag0EZEk1KAEQALk55lhwUuos0XBBPd2o6cyO4XYEDuFNyEbzhLLy
CkeTRnDRLNJ4Bnm8LGf5VVC4zeL2FNC5XqlYTwYnTV1KGQjdwNBdGdjr/DWXXn/t
hIUDwVVsRTuyQc4XvGdwC4/sBbZYPGpCYwc1Oems1v4icwKG6h1a7ncyqDtm9fwj
IFW4gEPkV44HzeZGPx6mA1O5sPoV7lFfT27V9S/MakEGnPeaDPax8yhx6YlcMU3i
ZxkLGvkx4is3vmBE96wqBhzLzkBCYXa7nE7+RaQGpCnZDhTXpfRRXJC0ShLloAs4
aRbI0O8W4q0IBVMRvb5ZNfquITERjchKqA+rL2BHqm4lEndKD1CXoqIgt6zTEQjR
y1a32diekgj5MX3WtPLs0nQ0FNf2D4zofGbUAzLu1nLWd1ztvPGdYMgUePVe32xb
NsOLEMRvof3p5caj+33cNZo1JWY1OYbgiYnpUtKBGiKZlKZLoJYu8eFocC54SthG
0qM+5ywQtMvgC1DnTJc/2NZfcUbfm5A4aZn+DuCHCDMYGdEDC6vKxw5BmhG7IGWR
0D0ufE9FxNyD99EPUjcbK7gjF7XdoWLQbLH/8KIXOiVbE7TINlWEzwzyBTWRUl7q
RCQe45aqQ1ifKKCXyUSwWrW40+fplUGjGAex7P7fs1mFmiSh8nPDulixAjVFeU3b
eRJJABEBAAGJAjYEGAEKACAWIQTmk/sqq6Nt4Rerb7QicTuzoY3IOgUCZEk1KAIb
DAAKCRAicTuzoY3IOi7iEAC517d+jlLiuN8KsOlGLdHJzehG1KiRwKQBeXjRZ9Iw
ggdlxC40sySicLjQMHqMAXWm4gZ4ifudNViFvnsBLM9bm8uX1EI2bghLCJLmiJbs
n1BT2+96q0MgBrrrHe7XgOFk/v41JLvYO5V+bFaEQqykD5Hden+gc387cqso3J+N
/1+ckCPsJW6EOh7inv9yN8ojsToJgh8zmsKQvT74RHCo+/USzN2c+U7OQLh6UV+9
Cc/AXu+i8FRS6eTLMd0tuGU1NZQaNroid8UpGstpU6clVkT8fb4HMM8RoLjjyUCc
LEHi2+8KaCTD6Q9xEaGkYou0O4b5sZJaWY4SmFgd3bep0OPexJPZaAq6dzCI0Qkg
zecRBn34h5LPck3hjFEMDuLV/ERNOLjiT5FGO7ghcxajev6nsl96BXz4JFCzHYh6
HzwC9TrJGUk8xj0n02EROOjQicPMqGQUP6DslnqmlEGytMJlv4PNcJvKeyykhhIJ
TKYl9OzNQKLYL8pTeQvH426LqCvv0QDLF5JPI22uqz37rlz2g4wssip+s0lRxE5x
1twCW4FWOdE/Ek6Z8WsgUL1mwr7vujThI1wm8mjiYoPuZdM5RjfVx43QDVwuR58J
smhkS/WA6iYdp1V1SQ4p3DnUEXSnCY2C6mjgKFq2Fkg4tYmRrKRwUw65zr3zEM8x
2A==
=OXSw
-----END PGP PUBLIC KEY BLOCK-----
