pub   rsa4096 2022-03-31 [C] [expires: 2026-04-01]
      F9ECA03CF54F12CD01F1655722E2C55B37CF380C
uid                      Conor Dooley <mail@conchuod.ie>
uid                      Conor Dooley <conor.dooley@microchip.com>
uid                      Conor Dooley <conor@kernel.org>
sub   ed25519 2022-03-31 [S]
      61DB8E841AAFFC44B8438CED78B43187A08262D2
sub   ed25519 2022-03-31 [A]
      D61143FC41780FEB80CC2D705AD7136AF2846CC3
sub   cv25519 2022-03-31 [E]
      EC2C7410408313532B2F288F434D346F7FDDE2E2

-----BEGIN PGP PUBLIC KEY BLOCK-----

mQINBGJGMwcBEADd4ktJXExl5txK/H+YP83Qu2cdAMWOiWFNDs6RmNpBcdl8w1FI
LDm0K1aIXD6lZhdCKfjMvexUL993ffYYB1omMk6stc27dWelUTkW5MQGlhQeXZbu
ixY2fRkmil/ldWXjSP2xULGv0Z13fBz12SYT503bUgb7Qro4I3HMcOtGwJTLAdDz
EoiayUf5qte2x87TDjqj/ifdEuAS0g2tCwHf1oC4/LFAjQ54G+F1FYeFEt/f4nIm
y8RlbN0dfbCDlbbnXfAh5qb3lgsPCrtbp5cn7Hw6moE4EbVzzY7h0mQQxhdLSW7B
mCbJtOjE59zASC0Fe44wWLybJ4bD6TXeLAoFI90PwEMFAnhsdPArqTWWNatLPLw0
r0ApSdKc5KQLKCOvrsNoBNj6foWS/A4QANi5vUtPB/R/6mhu855mbDDW3bC6Vavm
DS4ijT+FqGtf//amdltdWPE/T57UDawdraoEfSDLfxKVwunefHsYDC9z8OReRBVv
CELwfUjpWHiAERHNFl/kJ6ZVz73cj/0H5EibpKIgafOVlC8JMKWBxaJEkitsAx6U
+EBAQk8QIhnlEEOkUj9DBJDLGd51Cm1qYoCZGxroHX1I8CmrTwsxKCIIXcBUvGCh
AR/W808J8BJoHbcWTPMChK/+oSBVws3+ntNXehjUkAmc81fsv+agVA+P/wARAQAB
tClDb25vciBEb29sZXkgPGNvbm9yLmRvb2xleUBtaWNyb2NoaXAuY29tPokCVAQT
AQoAPhYhBPnsoDz1TxLNAfFlVyLixVs3zzgMBQJilPA+AhsBBQkDwmcABQsJCAcC
BhUKCQgLAgQWAgMBAh4BAheAAAoJECLixVs3zzgMONEP/2h/dNrL7di9T6y6R4j5
4WQpAgiNnVxm9Mz2Is6oxZpEdQpRBJxT6+8LhSJeGWG35yLdNK2oD4U39spxIMje
psnVLoHaSpquTJGoZNYUVnMU8CP+QuNAGiZzVtGcW8h6yMBxx086dk4hpRxIWwGj
UejfuMNHZX8mIeUOTtoH0F/obhC3PFkqgICAAXXGBSxO6/KsOReYjqyWgLTPbE0K
f7by/DqTRcIJOikhkC9HWrRY9607dkxEjoS2Y4lq6OEUjHOCNjgFjO/9SIhzey9r
JGTI0cAsJ+GHsT27/grGDcou3XSwfT7omcUqAFS0ppt1pchFJCqufhyBdlre6Bnh
wBc5Wme1AQgO5IgKgvLIoucr9MN4vVoRuw98RZNjfoAHPyXCg/QH2kKN84v9a1Q6
yvxMO28Lar+4Y0pQNGcSJRhV6S2xEBoj0ehvbBDrPzytVEm2bfY+U43s+zg1ivkg
Yuj75jFDx+J4mdDb/AKihgtMSZYAVf++GbT/Tz26F8MR7OW3SzLFIjU+CRBODSHa
muTBHRAGCP2U9eIxH61496x7zLtNy9gi1qfFmtOFnN+v8LF98BAeBdpOBDggbvCN
+qY7o4y2cQKh6JlT5Fh9p8NsnzyOgmn1u0P0Yi+dIMLPjQq06cpMuxD7jTXAUb9P
uY3D9A7YfXvVkhIYZDDqRy2CiQIzBBABCgAdFiEEEAbEK3+sX+gUxe5RcpMrf1MU
8doFAmKWRDwACgkQcpMrf1MU8dq+hg/9Fn754JzFVnixryUWbmznRM/vO4EwSlEW
TsdAz95MiXGctRhS27coUI1etLvqZPkf0cCQLAkC7zbrayYE7+JsHz4R7oM5Mwa3
NGNGEwtQ6iKM4MGiKmgOuKZs3kg/c3yC+/EOqVojUJ+F+NUG4spOe7JajJfiGYxG
vgTMljOQwRQmjV1PGBU97H0bqfPY40rY44EMWvCkVB3m9hC0oZQp9eVFDuM7cTgb
1ClV5bQLxHs/l033OqCa3QbkU23KSO3+av4uNeYQ2vMpHC+n3nzIKFzzt4pdeNvW
VkojKY31ibzV6AMSx87QBdzddPtghOh2JN3HyManffMSuxmdR+nZq/U3tZ560x2f
Wwj3+1zV5dfrqVvJJpJAfzk6q98EcFOiex81cKlatfrbyfVlGz589mNa/Cub/v4L
muiWdi0SnZTa/v9Qbrx9qKehuonibravmrBtTV8+p5B6sDShZW4VATyc6+XWdvaa
pu8ZRPMjW7BTmDZY/iViGZ0pgaFzvySzl0q3ZubiooDX54N3ESYQQGez+jdyX9Um
jALSg5e6lgOC41ekIQ8KMWcsjNC7r72JpJNiuEDgpC1ODLsZkcuKOE7LTvemOcLW
echSZ7k9XezUFwT6hgMakdop42Fm/ShkiK6dkJVlQZ5LWG/cYPaRAFodOYtO9qdB
gX56Jc1kizOJAjMEEAEKAB0WIQQoCwb9TKrSmAxG3d9NsbB5rSnPPQUCYphrNAAK
CRBNsbB5rSnPPeaQD/0f/tlVs+Be6NnF+miY2a2Z3RnVbD7sApqa2E8uaqpFa1Kx
QjMen1HqHoRDB+Hiq8l65+9o6dLJLqgswOAwyrWmAnkkJGMk6sb2/FcjV3oY2HYE
wgVh98Vjjmab36NF50dpqZGano21JnaXoug4GbiKbX/3q/MBmpo8YR1C7IpENjL+
PHKgNZxoBbI1R0X8jJoG3qeWHxD6xi063EKZwnRyIamwGAC+OExodM9PHEbD+AjY
OO2OUiMn7vgLDbpa1G5pbl0AP6F9XAAr1smVS7NG/ZM1sO6DwU2ChmrvB3xSZ9b/
C8Efu4cRacxN/LuLOW2xgb8+a4CVd+1acGsXZMHu++y03WCREIbW8Sm/HSqV2JDD
Cu/esyJh4utyXJOQ/wa+ozQ20sGyb09j4FA601VX55rHTjqXaZur2/hhdoidZ6fv
3KPa4PIhv6wY2Y0QcIZdYNNClZyvZsTZQmeXONyxNLfYq/zSbO3u0o3WDKmsczoC
fudfH9VaAkecGtG7J0ryKEuOn6EJ6P0A8G51wrE270xU+ZAEmgGDALpZadcTGuT9
Scj4wTytTZbmjjCVziEk0ex07BufA/WVjF/bEyvKhwIFlrc6plxcLTdLDFbD5vaT
XYURUif3Skv/4nd4MTKPcxy/x3q2uD8HSRROJ9x1j9cyo+zPfObPDnGCLnvoFokC
VAQTAQoAPgIbAQULCQgHAgYVCgkICwIEFgIDAQIeAQIXgBYhBPnsoDz1TxLNAfFl
VyLixVs3zzgMBQJmCo6+BQkHhsKlAAoJECLixVs3zzgM4H8QAJGBK8F+xyXetH9A
cZEbLmpwCA3X4AiSh2fOUPX3rKfdvxX80QajROiR25L5T/lYKq+hWrh3lo9nTVHy
toS+iK8ZAY+F6Qqm8NL8mnVU/FCGHk/ev5scqASpW89CDXqnxw/nb6W84OcxzRn8
2OwEmCXdpFwm36AcDsV7BGY2KkBHOeQMngDeizj2MSUnBBQwxxm9kWCErA1QGueJ
6LNG7IQRMe/qhxYl3RkN88eP6FPuqXya/9QqVtyg+0vSlReYwE2Ua73AqFuNuUzz
O2gfPrYj8hvSJi/+xbXb3jsjckp/ZnNTtoueQMSM76e/W53OnjGn9Xge620+cnCs
ZFe9uAVzWkIb5BJd68cdFxRh6EUpjd/VNkN4MrZn4oBnb9UDILy2hr9HHp7WM5tn
IdbcRaQEjsHiZTHzMUzVKz3/rQfDtOawVCIG2k1fEFsFncZP3mQu89N0zGHeffd9
+a9JFFrV5G8lfjBPV1+cpkxGDNDPoNZLY+fg9TX7gGrf2Ql7m7sN3eXmX3kmQHbO
fAAw2Qe7k/sFbDOldv/u8u/JSv+4CAVaYoKFp+DxC+n04zmEP0PQP73vHMZxB7Li
cNTsi3mPtDlO6HFaaI0qljK7RtCA8TSbV4L/Cgyhn4lWT8lQY80EJflietgTF0zG
QHjFDXncfiZCJAssmjt6ImtcbtZstB9Db25vciBEb29sZXkgPG1haWxAY29uY2h1
b2QuaWU+iQJXBBMBCgBBAhsBBQkDwmcABQsJCAcCBhUKCQgLAgQWAgMBAh4BAheA
FiEE+eygPPVPEs0B8WVXIuLFWzfPOAwFAmJGO14CGQEACgkQIuLFWzfPOAyuLw/+
Jj93p2aDEFLxq02DyPR3ll8yDcdrVC6GUnvNEg2Do/ByVRDqUPqgwD6AJKH02Td+
wTuUBYS2Xb5HUaPYojzwmzjwF7EZV+fFiCKssE2z+OoQLT1P0YgZEe4XDZPbGYGj
ZtvRSLJ5m6YCsKAM2mI4eWB4wGR22pSbr3dmR7SXyadIpBpj7INlVgeyv1ZHqGvl
SjigMk8/eoMceU85cFsOU79AmQ2+KIGgzaa9YWcM0PEwG8unhRL8CtA7LClqwb4b
XDRUxJcsAoMG2moZ5YS3Gvoi7akelD2hd5gxwQf99GaY0VG/1YWLdXPMZrs6WMzO
PCv/Kw2RI4bju4Sz1PkTriXw2dlLRU56JXSPWUcR1deY/fdhyN4H6qIgYoC4uLDA
FSQ764rjQw6FbnYTPjTQjba6ypmVlkpm7feTv95pYd6swcTQ8sQlHxi51mM5A2oi
F7xLkiOUKjJVIMB4hVvQE7sENc/KRepy/QpSyB+LnjZd9gfVw0WriblbICvyS2As
2wla4sXwfEpC/aDhWP0PaJHd8c4cojkV7pZIYBCbuVcnSbbP9YjN1IE3TVqlypje
rQI7gOB6ItDaJ8bX8i5rOUeI/HEGCA+NCRfrwm5v6dbRTdVcdSkFd8bc68pV2xfG
fAGmKRc4RBSuczuThcRuVszEEeOazk9iKLdxvEw3V2mJAjMEEAEKAB0WIQQQBsQr
f6xf6BTF7lFykyt/UxTx2gUCYpZEPAAKCRBykyt/UxTx2peCD/9jsc7a9TxB/uOZ
uOutYfPW7VeqEu6WpO0nLhug0zfc7JQFGc6JuxfTSMwfKW+2GD5LeAbJUZoA47cm
seg5EOjKHP6GglKLOQifHZyQeiYkp1aDySbYUuw/k0Gj+wTSj43Tc6eswtO2xTzm
7FZG5WfEano712OnEKI10/hE7QUUgoNLNJ37pldkAhQDQtfd0ArO6/BQgHgwlyGr
rB8RSeXZCW6jNwqJNgRpzh8O6v1RoxYIv4OTd6ZM8/wMom/aAih8dxHybtWhGtSk
jf5GXPPyTIxOwlwVRyO0YJr3oJyHIlMsm5MxO4pM9YgARFMnK3OdXYNof2aL/lye
3vW6BLIINciJmvzXrh+XTZ/8thjJHg4ZihO5LyWkMgr21sltHHl9YyupsgAkmpdv
xlnMN6kevE0nRQxT51SX8+spszAC1w1SfHc9eqxdNzUhGKY0NIjwZEcOOx22YEmZ
cKCACboA2NW6lwhGIiHrLdhUn5uDa7AXiDpFH1z9RDtzIN4L3JUKYVlzmR36XpKi
bgRny6k0QZiyOrrDM0ZHT9rkdxh+XgdcOoaq/5Gip8a3w8J0lFqAvnEizJR/k5LI
mvVXtsfUGg5uZ6RsZDH8EQgzbi8+iFTBlcTDikcjDb4H7NP8MmbLBcutp01PZsIr
c8C9OF+/FSfM2wZhSkT1BC175BjtMIkCMwQQAQoAHRYhBCgLBv1MqtKYDEbd302x
sHmtKc89BQJimGsvAAoJEE2xsHmtKc89Hk8P/RXXlhQp64tEncmU1tqLwc0x1fuy
/kw0VuHs24Lt2DefRm40vfPAOaR4F6LVw5ATCQ7e0Shvo5SVyWR/YjYq3m2FnPer
1JobN7qbvim5RNBh4tewjZ5cAObcxrOzEiOyCH/68C7SuN4v97hvYB72mWusXkgv
UNm/2bDS9nAfLEnKmRvzB5WtVQeXeBlml8OyYbcp14zQikvU2kOMkcMfGXzHT4Ja
n0WIBYOuTKMwx4W3Cl/4YbvwGCxYpnjoC2lnQTBx+GEM5ahxda4RmuYDvsciRKGY
KD+Ea0I/9p2DRhm9m6jI1gZLUMZr+noI2mgZJWhsI6lR6jWcD2P059rIsObI9bER
A+su8ZYY+tLmNKyf38GMmvGb7LCPNlo/Apkz2VKfDTTnrSi4DHxHwdoObLtyNK+r
7gqxWH0s8VNBKIXeZzYBRQQHO6s+9M+Y7m8CrmYLPPPd2jC9zGhZH/aqXPErvRd5
Pq8laKocXBmLizm1Jx7kY8r4rQSGhfXi+92bNCDlYAdWok1PcbZm+TYTBJPpPXct
2fH/PZd5hIQLJ9uY/NJsDMmqArm0oOQgJK0ZDNMC1Axpu5s8iN2FSAQLlEwtzALl
syaVN8gK0lG44M/Qh0Y1xP0hqyqUHzLaE6+fu+IinOxCpcCfwC0OHje/pWLF3I62
jwUQnmgQKxV96XIxiQJXBBMBCgBBAhsBBQsJCAcCBhUKCQgLAgQWAgMBAh4BAheA
AhkBFiEE+eygPPVPEs0B8WVXIuLFWzfPOAwFAmYKjqwFCQeGwqUACgkQIuLFWzfP
OAyisRAApXKnsEpITsSMHTUGr1XIHAdSJEVQodrQ5uhpjcKlEtlZ2Apy6TVgQhLA
80cY+hr7jHU594q3Gl/Fk+yZLFItqtB7K/kiI0COUU0yISqEjYSGwghFoKXS0HQM
btnlXY96j90to+CTdAJcs+nWdNMPjxvfB7vp6aQNWE+yyG95kkzzG1iS3y1MZptr
1OnEzhnVSZxnTQ/yEBuyczwkYC/IWGXumxOewJmbeHhjRPZTt8KhTb3qFJUudOxD
hY5rsGlP1Sd7a2os7cP1LK+JaOAnnw3ad1zh7rrFlRAtQcZJLRqLRHBIF1uvgNHO
YukzFCkQHInNlHNkDX/xMqpdUWErl46kSKfilDUxkfc5Ax4f69Xm0uQOEpa6D+v9
pRxhS7Wz8LR+Kq9oyr6/qNhK2NvPID0z1WC8SY3T+n1rN9pS1CCSuja9u5PQhSUq
ygk06qVj0U+PuSQqgUimUq7BZaJc7a8ETE+1jVf3vp9axCAwkcGzA1skXgck9Hov
WiL2gZnCK61lNrO2SEN8UVLOVZFCmmMa9VcTosvDaJvEyJg/4IQLzpSzpuG1YlLG
oE5InoSDUli1ybDT//JGoKxkpSoAko82WZpDpFJHYEK1JYQpR3e6rBI081A6mhWR
g5b1evbpdVYDjtZxOxuT1Jyi6PCSTRCNDLtEeHA8Qby5QDtIrw20KENvbm9yIERv
b2xleSA8Y29ub3IuZG9vbGV5QG1pY3JvY2hpcC5jb22JAjYEMAEKACAWIQT57KA8
9U8SzQHxZVci4sVbN884DAUCYpTwIgIdIAAKCRAi4sVbN884DEPaD/9NPwegJj0w
fH2wkfgok7wq7GDEFBwG5NZSWt/6PzJUdq7Gcz7piYmH33YxIUdS15D4r8lHyKte
cFrOwNAePaKQxNB3oHXLXUpwQhPlcxN4eow/akE6LfKsK6pQgG6ztGDf8V2NAk40
cClSOHVQVnDVC/W/ymBqMesqi0bfd3iWpk8w3uTp7i7q93eX+gbu3BbNjw00YEv/
bPiWzYmRVQG7qR4Gi1QO2TNIMUhz3pDygMDeFKKIGBd9K+v763tESklcFRFIacD7
pWN4+TwVAktd6cB36S7JThR5uII3mm+khve0GQbuox/bm99FbaHFXNgvHa/1EKL1
5ORrmPBMkyfYH9P/RHxYY4AHli4KiXt0j36Ujws9J4pbzIW7M3e/QRiACrBW4Fb2
oHUTw+PESAYALZW5vSatqnV5RQVJ9v3NMWPjB8yl9STMw/CSqrh3R61qq4BfaY8G
3igHOnqaWhwhxP+zEs4qYSX96bovJfjbFNUIkyeQihBOvvHE45VL4e+4l8mwAy7h
4YbVldO/f0ot++6JJitk3RlIN9rYITCkXaOQw14BgjlcEaoLJNAsn0Z8H7QGB5mC
Xh+rRXtGQSul/V4VwkKChHqeBYfYbk0375doACY/L/6X34dgQd5K7K/XEGzD9nS+
L1hpPJAup2ElwfjC8JFZT8prvG0H7aKTDrQfQ29ub3IgRG9vbGV5IDxjb25vckBr
ZXJuZWwub3JnPokCVAQTAQoAPhYhBPnsoDz1TxLNAfFlVyLixVs3zzgMBQJim8xW
AhsBBQkDwmcABQsJCAcCBhUKCQgLAgQWAgMBAh4BAheAAAoJECLixVs3zzgMyOYP
/04kCbNaFkhKxpZsOT5CaBrxYO5hi//1eReBS95m9KXxBhoJ7oyaNtiGXnw32/s+
FzM9d3nO/Clz69G5q3dM8F1w6Z40OUERfRItKTi/S/9FyjDvao0hh8MGyGWe1c8g
bRdMpurJFU/ZWUjaNwJdPxha+J/ni3Sc9SMHLeVecoM29iT0DrWURFL7upShbSzx
Hw8cBJqWjc6eCf5FzAqMxrnraP2Il8hCitoVWODXIJpZccrsB+QwNvTtFikfvTtS
DwcncX53/IOfEFvFRmfbGdFa+ygL5sGGf6bjEEuScrxxyxkgiabO/Y0CXGetM+AH
W1AafOzUzdc/IsGfKYuHEMD35QTy/DoUCJfIVaviPm14Z6tXirZv/Cv6N0I1ONk2
Qfvji4Rb0yFD8uC32jF/Bl2OX8Kj2fsa+8oxQid77OGN8A16wHYU0EJdT2W9PT1p
Jgpmz9EBIszebe1TLyhAhC2NEyiWqFcPFJRKeI8p8pCvk1EbHzQXQIaB6Rc/8pTG
LBwNVbMf6UOtWkTeMN0voOk14JJn9cnWj4gs2F4nEAtsPAkVNdln1i2x2HIpB0bS
8KEnrw33GKuIgDljwWUX06L52ZyZoR8qMyH4cmOtzDn5d63QKv0BaAXxzqz2wL8p
ERjecp3qrIJitNppEzNJ7NH+HMcdxcKdYo4qYjyfKludiQJUBBMBCgA+AhsBBQsJ
CAcCBhUKCQgLAgQWAgMBAh4BAheAFiEE+eygPPVPEs0B8WVXIuLFWzfPOAwFAmYK
jr4FCQeGwqUACgkQIuLFWzfPOAyfShAAnjxwQu7trzqIS2FAVgB2Jd5HVf3UxLP0
Ku+X1mPUAHYlQPotWxeTmjGFExd2xh4V3YEtUxhp/vqKUufee5UUBZmegtezgKSs
z5r+QT86GyGDnR/JjcmV8dzP+FASHsrtoPMgoYQPMjZvrEwXXxQjyY3xFHeL3NE4
aYR/l70/rntr/KSfk9GIaN7SXb5eDtg+MWmpmNVjojGPN65TcPfLOF0XNU/U4eJI
VLRPKWgwavHzn4rRRRnsAQ9PDxQ7tkak8xMpxf2MNRx0mwNzdrGqm6bkkRW7btyP
L3otEYIvEE3BkAC9LnV+eM7mSyZc0wH/eYxR4csbkOR4PRWuFZWbzLviEJdXYs1c
+D2JVB2eELQJ5h6kaTLaRihRrlxzR5BzyN0TVZ0F5getOfTKd8ys0owrqXoE3tpH
1BwHt3iCWR0ibXx7/+AQ4oJc6Dz4Ek85wEKG80CwXeXEh2StpdwZ5naKoxuhT9Fe
SlJEe6dp6dmCQoDSDnPbbnCIZRxAB50nRmjiehyVz4Nu56Y6ac/adqk6aqSUCXNc
4nIHDvevkdcCAo29CtnsA6Hpcb5ydN03AkHWn1MpcQBsDo+WRtawJDuHRHnPnKSW
vPO30XuAg6AOI/IQFELepdoqIydChDDmVESFLUHB9snBAkT5vPVHKFJTCiJqP8rD
hEmJe+/AKua4MwRiRjupFgkrBgEEAdpHDwEBB0Br5fu2bjUEE55TPrH5eWwZqIlU
StJAKH7tWvD61kgajokCrQQYAQoAIBYhBPnsoDz1TxLNAfFlVyLixVs3zzgMBQJi
RjupAhsCAIEJECLixVs3zzgMdiAEGRYIAB0WIQRh246EGq/8RLhDjO14tDGHoIJi
0gUCYkY7qQAKCRB4tDGHoIJi0sLyAQCntue1Q0MOn2LyGr8DnnnUE419UPGJPJZG
/FYXgIc+XgEAt5SvBr9sJqKs2JMlTvRxrZ2E5lynuFPPJDJh6SwyXAW01w//ebVC
dOP7NJst59D0/pWQ7Bdy4RhSd2bpA5dhxWKgdscJQk19y0lXeoCAktgDcAaNo4nH
k/q12YK8RhWeD4pbAH5SFyx2poejSz1RwOx/zEWVavP2UmGobL9DhlEsX7Jrt7A1
xHR+0ALu3uX4mmoS6STMHO3Po17ogTF/rwrjvDqSDaRCnq2PWBPBzyU5hb08x6/K
SyDLzyVSWzVM7arx6vLe+YXAef6aD7XhGhg0rYK9RWONFM+1FKbkNloMNneGqrvh
+Wlc+eChDZypL9tDV73M2m7QN8i3X+mjOHJ9OldB+Eg6naksXZdLzc+/6qbLntRo
v9ry+8Kd7vdOguzduLnGt/8bwncZ9xf0BFsZ7zKCjTtuEIaqvs1AgS849T62T1Qt
6XbbVRXoOp5jNAbW5QS+idSpQa6msducre/D+q6BlhyIzp4QpQple92u/6y2RuZI
7qUN+ymvyc954ye7ER5IMFSnGY8iZ/4GybWGWyH0C4NdAarhHoZTbIIXwhhizOkO
UaBPowZyO3jGnaTLz1TCijZj1ZTBxuOQjLfZOXv8B6BZOegTl/cBSD0swe34MRbf
4yOym4iMpMgzsjbRhMMRUxLE3pMi2ULvboDj+fydivQLX3VPOSa19cdGRPkF2kCa
Q+dyQt3vbai14pIBu2R3Ll95edm++zTEIM0F2C24MwRiRjvBFgkrBgEEAdpHDwEB
B0CzKLEYdG2kKWGARJBPRLJyv9KoOMRIgnUKc5NViJWpRIkCNgQYAQoAIBYhBPns
oDz1TxLNAfFlVyLixVs3zzgMBQJiRjvBAhsgAAoJECLixVs3zzgM9uAP/1hpazFZ
62oYXsVNTAKe34ZGaUgI+oATQK9y5qXqJjHB90T3ObQ6gd+XJY5/TdsjSo/ffKXH
DZVraTLiWSzLcjv2DFVp3z44jWMdjRgL/IsvSfUcbP2xBnnCtFD4kg8crsm3kcUG
ZkDSD0hljUtBnZp9s2OfolyZemkHm4IBH+r63V2Mry6y2TNxtVjNpao9DjJ9XAlk
NxocwE6Ei/unUoTAYUr8esYtW0ILg+zoQSGRHWTmKopNiOME+12iJHYJpeKjPvAV
+wYbGkCGYy83SMSdx2YO2LCypzR721yw3EojU6BZlvQNv3boBoOeDkKIrlLJ1mD/
mvhBoNvkebkI4xne4P8QWxtnqEPw30mHXsjf5DiPAHa1nUqzVAuJL4Hmv5oE9kQr
KtIdF8OjdcRhkARCAG7NHUlcbMopFbMEuBX1vUdn+6/+njpURk1kA9RHDEP7KGuK
52sbzVKqnHVfMk32/0HqpjEsBa2Zpmw2CNLNmcj+3e70ex5bmxTF5V/J27ctxOai
I6KY5EqjteZtXHIs3xeS32eWLeEr6cHsRFFyYBfCX/AZLfrt0Uizu8mzvx0u+bwn
vpfOWYS0RmwIgzVnJFuTgJyr1fBWfJO5vy8i2wa3mkv9hGY2yFfpK3NcGJXh+8+J
Mng6wXJTSSOSKvOZmFFlV7pAUJKtFfCeq8cUuDgEYkY7kxIKKwYBBAGXVQEFAQEH
QEKefBgkpmsFvytBjHIjFYECPTvTeB2i5euyyI/PH3paAwEIB4kCNgQYAQoAIBYh
BPnsoDz1TxLNAfFlVyLixVs3zzgMBQJiRjuTAhsMAAoJECLixVs3zzgMX2AP/3FA
vgE55K7FYejsSGeS6SpbKN6Xv8FPvz36QF61PFjodk5bpcUhR+a1h9iwgkUdM7Zj
4yH7tK0+Xe0YjG0poftnmu9fxWgU/Oke4GvU672ePOBdgXybY+WKqoCaOdT2Mtfs
qR/z5DpJFLi2QHRt8mbzcmLR7ppC4e6kPqsTd5b6UeZbKU8KaYZyacvMyojgukg+
cXPfzaMrsDxd/+EyUAEzv8sX5HQCCRMu8xrR/yJq/K7inMmTbw7JekvL33KNVpId
gVHa0fbSfacDwtL1uskaNZosPsahGRlwEFE2qkUbgT5fCZPRuNCD8s2EYuNXOJyD
C8hzHhpVhk1trLX3OeRUzIM4660uP6LaIAM6JGEq+bVc1RPkDhTLSY/Jd+kK0fAd
mICsJ0CdhAiTEEldx91yKMO4JYiegysVrnRCz7alLopONlG7Bm6OiycI/S1/XNIA
XawoOd1SRV5ZanC4imCWvsScI921Vxy7ifmKbOoWNdYI/MqdA8eRpmwjImntOlK/
bg6cGQRs/OCBe/EAukifVKOtPhfjZ1WqAvv0kjrCjPvM2cgd+dDjhe7G1pQm2a4x
Iv7j8MXFu1/e2Q9TkIMY18YWqtNxmkoVsu4g2wACn4nrsaN+RKkWjrTbzWuNZUZY
NprfmBNLp37xrpkh6i8IFEdQ+yVNDUyaaSQbSTkF
=+nEg
-----END PGP PUBLIC KEY BLOCK-----
