pub   rsa2048 2017-06-13 [SC]
      F47B9A6276E60E1ABF5C80C8256AEA1847BD5684
uid                      Miquel RAYNAL <mraynal@kernel.org>
uid                      Miquel RAYNAL <miquel@bootlin.com>
uid                      Miquel RAYNAL <raynal.miquel@gmail.com>
uid                      Miquel RAYNAL <miquel.raynal@bootlin.com>
sub   rsa2048 2017-06-13 [E]
      5A4175447A3FAD19B97A4C11E37C10579C5DD73A

-----BEGIN PGP PUBLIC KEY BLOCK-----

mQENBFk/j/ABCADBrAWnqPpax2so2sQFrihYOy2AebXaq/o3NBtd62v2q+HspQj0
h2NNvvXeeMewjVJFX6Xbd6o9UJRxu2nXZYRDOKaHwilqzhF+tgvdTUsQSEwwvcxZ
6qheW7mhaCt1jtCHbZ9CePDBo1l6lR8o/z7uhQkPf5+lklnk4KQ2+o6ml/2cH69X
11LcHRiJgOBvSra5jq67aEplwkTCCvzDk2e8L0kOk7jD8tm13aTTK16/Y0RL8lbT
9vcG3LraLssP630BA8vk8GpLRPbn4THKaOaepNmo0mrFOqo5QOpyYnJ2kl/32Q4+
n6sPXbGabNGokyGmarZKBcJg+xw0mZzw/ZxdABEBAAG0Ik1pcXVlbCBSQVlOQUwg
PG1pcXVlbEBib290bGluLmNvbT6JAU4EEwEKADgWIQT0e5piduYOGr9cgMglauoY
R71WhAUCXI97hQIbAwULCQgHAgYVCgkICwIEFgIDAQIeAQIXgAAKCRAlauoYR71W
hMmdB/9zqhphebXUintNtgR0e+/eThudwxNgbqX/8+fIqIWDrbczVnKl6S8YT9Qs
qHIjHzIDp1AL032zieSdN0ba5jun46Ou/kYLmmGPwa+BJuC9lZgajX2koF5N+0RA
Y2lWxipwNzOb3FVFDfi4NvTD3zqRdyyFqZQoeVc1qi2UP7bpua6zhXP6w9znbFYY
rdhpUPu92JIyqCGOscLkPtnZuTBq4JAQXKBmeFAW42MeItCm9II63WSrlfryiSOv
0gxmlNUitRWkLTR6/2v7Nga24uRkD/zoVckRQLlIqDe21db+7jpVbbk3vK193v8G
oYPDeRC3O0u4uLxOJ14+8jOMpP1ciQIzBBABCgAdFiEE1CZX9lvrnUWgBPz6ps2f
CW9kLLMFAlyZOmIACgkQps2fCW9kLLMD+g/+ItZLFIdGdBJsahCqo8Us6jA1cu1A
EeYoYzLQB+W0YI1PpIf2ySKnE6XzBGP6j/3TdaxvvzplZ2AL+Rqlp0fg5o03/5bo
yrrhGAYnY515ZnDNr5/uORS9bm+7crLU1a6VcPdqz/ct6UN2lRr02Yx8iJ35zJRO
KvYfxqPir1CjEoIMUCYVN7Lx3jjwqpIHGOTi7yHEQmwNrykKgXv6XyVX/BYpxNNW
23OEIuZJykqh9hp6VPMSZ0P6MobG5qPOnp5R+TMTE6dlFIDvNqnbsiO2ebxKB6N7
RrZgvwBB1NQfEf5r8QdTvDen/aGiqgjDa1unUQ5X3lG2CINJJjBDVcm69v4ckkul
OGYJZxCusXxrkRalKkT09TN3ITXln7oCWqvWEFDhTgDqmJ1NdW5+Wo3F9hIZe+16
gwxhI2RmP/iSsjlGjFAZFV8N7shYr2Gl16lIZywFMRjCduw+vploXZ35sUSLYdFT
fG/IwMHVJn70e3WKOQ3/+01ITjDTugR1fQfXJCplg+M4Gt2qmyesp/r9imdNEvbY
mh1xvHtoTtM8M0xVgtpKWRUSg87/uRXpUSOKrtQpCByf18uFDczA3Q7+ygBpQpDK
cApREmwHJjV2fJPYx5uQw6Q3TSZrfTWkQOV7QpAw93o5yJUeHfWLGSmvfOOHHOGh
4nIKRZvA918DUCuJAjMEEAEKAB0WIQSb0H4ODFH41ZZ3t1Qbk0N9O0FimwUCZvBk
iAAKCRAbk0N9O0Fim76LD/sGOsAtNb0oG7Ff60Y8OLaGIKXhk1ZdPB7YDCufD0fD
/fhN4PNA7Edy4nKiFxp2DpC5DLXa3hpFmZ1sDcVP9JqlImJxVcDjl0F6XGh16vyz
eY/DyhTPLmAbpE8tANsXkXPPzZ7UYMtMPgGH1n9OaVsIAsdzoEgpykZ76DjMaXZ4
hxvWjxzPA8SjMdDqxyLwgOk10T2ZU3ky5NwccOOPysngW8W8jjd+5rN2bPx8wrVE
u68h5aE52SKaT6njks+wIoqIjBbYN0qPoAJ4pgho1vDegMswLxRc1FoRpXRqONX7
3621bjE90rThWxeTWD0FWH5rnXsB9sIk5aXr1HLUmtqXf1D5R40Z+KtcZeOr/spo
57Buhc1BQSzj4T2UHCXfcQEjZnMxgBreQvIO3MmpiWbgzdUkENeXaBTqjSKJ7TK1
KhpnkJwND/HVb8K3l5QSRFEgHwh9smeC0j8tGjHM5BID8D/TJS2VPCTVPpXFbEpM
d+cPgpjhCidaAqxXCl2cUFLW6aDT93p0pdoNYQkspfVzq7VuBrVnY55bgB7yEbzV
5Li7TPudXxgLY/gGZ3GAgzqT3R7Y/9pIpfG1LVgSRgqKPEPqwRNvZ8SI/Sw0z2s2
1JojkcDzYgsK3wg7oxXC4vdzkH8HVRuZ719tc0e9Tmsl5/xJ9EyFlntlLU82mVYE
F7QnTWlxdWVsIFJBWU5BTCA8cmF5bmFsLm1pcXVlbEBnbWFpbC5jb20+iQFOBBMB
CgA4FiEE9HuaYnbmDhq/XIDIJWrqGEe9VoQFAlyPe54CGwMFCwkIBwIGFQoJCAsC
BBYCAwECHgECF4AACgkQJWrqGEe9VoT3hAgArbNClCLhR4JMn2xG8U3AS082xDET
WfzWn+Re0lk4o43xSPHUYAGc5pkaUu24WSSYrRaaA/WpuesB08rEXRXvPpnZnTPF
Ex8ijxUu+FNss7kN5cJVfiiXUQ/2uZHkWYVne4gBQBJ6A/aUXcQ/qnY3s9f+VVsw
AG3WWOK+7tXVMXoB21dVGYDvtv6ItQHsVpkcIrSVQwtBgdQmn5+mOpFmLdqHtMNs
fmgkyJDjnNDZAhaCld0OOMyZT0qA5YWqA5gwgMpPOYVGQUCmlXTmXyoYArHURNo8
iJPuvjKI6POl03nuCZo9CRIE01tKFaemH2Vr9N7yH12CSXeOa+nMqneHjokCMwQQ
AQoAHRYhBNQmV/Zb651FoAT8+qbNnwlvZCyzBQJcmTpFAAoJEKbNnwlvZCyzJwoP
/RBHiVyqK+BifFBABbmKHVMCy3B5bjLLH8MBtzlyWBnFjvQS0IlNGncMfO8xgdgl
3nSTF9PLYCU6CqD2EIdlKr5+G+If43DY/BCGnnY+SqvRjDoEAVXNFHRH22x/RpcZ
cyyhhYporMshzHoUhgQqR//lRrskAfPXeMDTt1/vWt/uyxL+O3lqjdWN/slG/GZJ
0/uq85sp2ZQ/mfYZykzQrybTKY2+0x5TtiM3BaN4YeiYw5hMz6OR4Nvk9orVCoUb
Qrfy9tge+kxaYs2slg3/DsXukqMANTu1Zrf/xpmWhJG+DmGspOOpaj2QnLBmcqr0
iltYKqOcYzH/752ZvXPPH2ojDR14gCGrjzLkau0iwoSI/Q2Lq2Cz3ZvAnAenlwt3
AFYz7pAjmJK7yt+Ivpevsj3RNjifZHn46lpcmB5eUn3QNh7X0pAYQhoacgYnAExM
14JkJi7DExqMjRh4ol9tNFKDAtaGhuVNr2xxMR8b5oDjGJ0YvUW+SHMkruZLzMXA
B1U4m+TQ9Qq2brf0qoDvp26xRGka/8FNJuUBvkDsO0W7J/+I2Wjp0obCjWhOQiG6
wIRaB7znTs898uWBV71mCk2bU2Z4R1LXs6Z3yy+pvswGtm+euO5EKomnwpJ3sjb3
Jv7QgYmEw6P2fJ3+VLjZFSiHhOSNqcWzq9bLrrsqiapjiQIzBBABCgAdFiEEm9B+
DgxR+NWWd7dUG5NDfTtBYpsFAmbwZIgACgkQG5NDfTtBYpvBbRAAkplx1tmXEWFR
vTsmZJZ4JfSki9enYTKzp33rqUVb8/kMZBi5L71q6HaJfMXHiU0pq/B7xUTFIMXc
jYXxcO9seF7WgfWWKvMKSUlpVGFf2Bi/tm9qhtkb4BzMOUl2/2NURGquUxUcnVvK
6VFLQ/0BUxMbRbk8FSZs8CTe0ebrSIZCi14ef+FsxJT44pmZbSD1T9p7yGQdWb5M
SpkvAiKph1AhObpxyCfIxQBr7S8b1KV2xMG2RiOMcMxjbMD9v4GK1aY/5m4yhAmw
Yb8wwTlTu2cUYe1w0ROLlGwoK32EywptgwwVRElLgq4tiBoLSQMiNbNVepwHll+D
n/YXMCk0QzMB6Konx09aImQJSp1Rma+O1gKKN19Ieun2Zf3A5+VX0WlgJtdz+n1b
d9pWX4PpyIHQZQSie/WlJNsuHJ104DdliaRSHoXM/2Bm3YAKs3M3UCheo95weET5
1v5oMIcfU9coeYRQSEvcvgrrw3Ft76MXUqpIufjotugiD6gqDoUCN9fj6U7N3f++
aXUAdNqgzEN3xTdUZGjVirBGQKegU9SDHWj9ihn2qlcc6UfLFjlbFjoV+crCY7vB
zbr5B270j+TRXJw6w31454+x2s4YTebZQkXUf93mdyXPGZ1ZuWf8U5TEweo/ipNl
5ROm5OL/ydlWQ/hXSfUubPSE9dHMYim0KU1pcXVlbCBSQVlOQUwgPG1pcXVlbC5y
YXluYWxAYm9vdGxpbi5jb20+iQFOBBMBCgA4FiEE9HuaYnbmDhq/XIDIJWrqGEe9
VoQFAlyPXrsCGwMFCwkIBwIGFQoJCAsCBBYCAwECHgECF4AACgkQJWrqGEe9VoQs
hQf8CqHHCSb269kKTUF++B4rGufFT4ENaG/vWQMHUlXqPGLO1GYiFOMyR/zLg99t
fW72HY4B/dpRkKHfGNJHEmQYOvd4U/cATXEP0qrR/2t0oFMBa4pfWamdB+Yp2SB7
4+jaN/Z7X6llZaUKugycugInxjwqAAL6HvaFGklJIeObV5GB+yJ/St9qL0x5UDLB
x9qc6iG6l8vyDtqhxG6UQGQ76Vtwp0ZAa4rPIIWHUVz4U82XHDm0ps6JeQFPIHJt
NAo7UqJUytX5DY+9AARg+MYXLJyzZ9QWIXTtQP3Jgo7hhp1IyG0ZjLtBUgsMKzni
6xmJAqM4fwWTgkNmN9jifiP9xYkCMwQQAQoAHRYhBNQmV/Zb651FoAT8+qbNnwlv
ZCyzBQJcmTpiAAoJEKbNnwlvZCyzuBgQAKWGViRA6b7gp+lMuH49dUDqk9p3WSB/
O7ihIiIYB6vF2HX3qUa+F7PSpLXyrr6CYIenGv/1qweUiddHdHKad3eKi+8kQ8E1
9M2bV3wUUbm+MlUJBYyT3Gp+na3t+H414OvJEUmcpha4tcGqaubxtPOZmi0bmBSR
7RqoROyadjFSepacEvHQ8CbdXJD9SIm4x08kEAQNbQalndeaaahH2W97MiWBpGsH
EwInun7ecAAnyWBlxgrpTGQh2wGEt+o3r5IrOvebZYbvHeNtGl0u+YiOGbFEWaxX
fuN43kDdyFiY+mJar5gOeWDVybRezIkhfgD0Tc5gak1J3b2Wg0YVvNhZ03e/1Qkp
eosZX6WeCuo+v5HE+s+/X4LGkmASOvGt86/Hb+zmWLeKa5cQPcFCUY+a3DK93uNS
/Ah/EwF6HA/pr75Hup/5nhQz7ypRilc19xdvp+75hZ395mi88E5Jw6G0wqae6s8V
oUm0RhGptltWvZJVvceEwoWeSrFd6Ant7EBfiAzihEqWPsmOgLzN/vV4zVglCYI2
6H7GI9k3A0wOsxvwc59naojE/O/3t3ybE3iuleZwCZVjhHka/SyZyxEriq0OJPVQ
MRzxkjcvLalBrmLnRMnI4WqpZRtPN9R5RnvZe0vHmcKnq+JpmqbtDk/k49/FA+mB
sTDKXxo3YxouiQIzBBABCgAdFiEEm9B+DgxR+NWWd7dUG5NDfTtBYpsFAmbwZIgA
CgkQG5NDfTtBYpv/aw/+LUdlI0kDrSBTHdSwaVnDiHg1KR+6akK0tjV6uwmnsoLB
s074ZPyBFS9hxiIYvudDHX/CZxprvyEqaTh8o3NE2QQf3Zf+QdhRkt+YmS8JFPFg
4eeyFikk2R5HfEhc//+QwXZOMVkfYXU698AWVjqPIrWBBvZ5kZ3fixxVoRieysup
RdcF43NmHJ6JNYqYN2bWNG9PBrTk1IOjjMHims4SZ8kGC0zi/BhTEcDq3U1Dj01K
lXuUDGZxXo+FFJnpxDDCPGL3OByiXgO0QLE3T2WE+ba7+ByQ9y60DM9JIKLIUB6o
YaGots0S9oAGePFKd2f7oeo4WoZmdbF7Q60t6I0gYxKOzGMKsxCi6k0mesdQklh6
mI3A+A4tjpGOpXYeJDBZX8GuDZyXx5dJExgpVn0qzM0gmwd28cBVSWyFDcD3mn35
AVsQJZKnMtUKn+dpUN9KGJf5TbWO7qp5QbEnK46xeu3C6tOaznW1snB8vfSxAA3p
l6TD7kVX8/OJ2HJWRdUX48hrUBkSesijI1AK4FWUlHqFdDyNAQRrBvcrYx66sVKD
a3bECm33lzXSIlA94L6IPyNyJ1zBwAJ+nj51e7yd58BgbSVzUg5jfwwhS/MmygHh
nPEd25cdjUtDkphLU4iPDFyF2nU1P1yt6zx2EZGxCBQVlsrKF14eaqHjq7+ZCym0
ME1pcXVlbCBSQVlOQUwgPG1pcXVlbC5yYXluYWxAZnJlZS1lbGVjdHJvbnMuY29t
PokBNgQwAQoAIBYhBPR7mmJ25g4av1yAyCVq6hhHvVaEBQJcj18SAh0gAAoJECVq
6hhHvVaER5gH/RgEIRRZLp/I9y1JMomUFtL3Rw7+gTb8wC8k2/Aq93u+/cNBYc1B
vkqOKGyLpfGg6mBNSavhwr+i9HEx6Vg6cRQ8gLGWDF/b62XGlqCVozhOemfwH0uo
HyjDXTWp5i9mG7PBOCPyHZZ22ogNr/nbXSTHLRvUG3q7LeA67v3wHUnaRdwLtf3X
yW6Zl7O+3B6AHd9rH7RPPevoGo9vePVXBtUVMhmm0tQRYWMfFktbBprDbsptKTGn
rtDxZtpjdP716Yz41n31zk/JaRxvDiG+5kS8wi2wvWX6QORYlkDRqtmThO5qF7iY
nkUW4tV5kOBf7AeNYPPso2Q1z+q00Giy8DK0Ik1pcXVlbCBSQVlOQUwgPG1yYXlu
YWxAa2VybmVsLm9yZz6JAU4EEwEKADgWIQT0e5piduYOGr9cgMglauoYR71WhAUC
XJ3v0AIbAwULCQgHAgYVCgkICwIEFgIDAQIeAQIXgAAKCRAlauoYR71WhIJZCACz
KEIkseyTd6drvYjEKqmN42JOrHG4TIaFBlH1jQ3JMbPwfbRuLUOJCTyK1fhJo9n0
aRHpNyfbrf1JNu5BU8PLuNYsw6wkzKMVb4Flzxh8Yl10bsX7ha/WFa2Qbeo2zZcZ
sb3jVrGUaZHPDSKTn/dC5WrSsznMipgFCqwH6wg7WpYQcp/9sFju5RlYn7+sfdk+
Np/rdUyDAPuGDZmvFnApZWuqm3aSkNuiA4Uu7TvFuGMzhSORrgf7hHw7HQz8lbz5
OJE0upSeN9J4lUJ2pwZRwZZiQXeMCgh2hSgvWcdETQrfJrnJb+zNAeUbIJFuTzD4
fvfu6UJ7W54UBSC58XAQiQIzBBABCgAdFiEEm9B+DgxR+NWWd7dUG5NDfTtBYpsF
AmbwZHgACgkQG5NDfTtBYpvBpg/7BnVUeSWIG5VIXBTpLDQUu4b5FJXBRGk1BQwx
eFs4J+V0Zj224YBNwEOgAY+FhB1i35iMuRQRjmHdfNH5zqxlTyX9DjPaRgMtejs0
GFVLV6F3hEDfYF8xvrV7fkjhp4a4Y8aIDjZZd3XSsn4KrQicisaMjbzs1uIM65OQ
oEc9fs28s0BKGwwBS8peO740KJlpxyNYvneLBynqZywjXNncz8WmP+ZJxj84Tx0e
YuypLs642nXu0hgSNjDf3qEWazr2YRnh5P1iKM/y5z6Nb799lx70DnYqQOU5Ashy
LD29e3aJhotdjRJ5PIFEFwvcGyi3x2nSSJTu8LfbqKjSE667ZuNsuU9FxKGN+cHl
p5zG76tJ/E9/l1BPezhn9bBbLZds0/OL2Q95ZhJHzrtF5UVVYmSDPAaTWiX7eMfH
wHwBhZEoBF3MUWdlAigzVmASUjD2HbIa1hAING03sjZjB+tkeqewL4wiwsK/HwqA
AukS+s2faBPCBW7nxaUpZ+EHPqZeLpXcXDKJVbH3O8hADOJNQR5Nv22UT3RAmUyn
fKLl6D+T1ctoyvMxbdGnJN3fakLFypMXIpR5hkT+Q+bnzVcJwsNolPjAxlNi+Lec
7cIHOmgzaAT5Gw4E5Pkdft8NR/ngQNR16RjtZvr1GC3uPet0DMhYflxBlc2Ar11i
WU16LGS5AQ0EWT+P8AEIALmo7ZmbVqYzCzzeBnQaOdvFn5tKn1FuyyK2FCAex0Qu
l+sJtNonnmn5jqVk0wYCJZND4XPsD4rbwr/+BTxqC2xCIy06T5rdG9VB2d5fmyOP
6T+DwRAg9jb2EfJdBbSTaMxiJlXuI+kDnovXi0KACFwA87CHu3B/LkWxPW1dNiu/
BNiUoOwvb/bAo6xB4cpRW1P7wvq6xGJJR/7QlE9XB7AnnNAE5xl1PiGldja3/Zk9
f0mj+3lgkobMqQ1qbD7QlVehiBMl41KdsJsnXUcEiuTdnzhHrlWtpHsfDsUhLFHO
hNMZo3L9cr3qfRZ5v/mMKUhol9Dh5F+x1hfB7kwDvp8AEQEAAYkBHwQYAQgACQUC
WT+P8AIbDAAKCRAlauoYR71WhAskB/9jAbuAtAiP/ozQkb2pQ9NZ7xTwX9U+TJJY
FH+yYBrjnU1B2dVVKwVqxmDEfdXLC1m+7uUMznv8A/hH87JzZnQPNKT0KCCU33zN
SiVpKZwdOcCzCYjyzfO5sxuBmnKb8VjKSXyCEfq6alw7TgBu8tLSF8ljj5R1dJvW
P0bYBzPPeK+4ovFsvnoodbUDVVYTshRfltGEufzbOYq9DNWxvK/DlLjW8e3g/oha
zPQ9PS3E4BXfWe7vAkBEbFm4m9s91DOiMaYR3+/X+rpttsqfj+ZOquJAUenzveQ+
PxEJm+cnE7cqci7NoStU20LDcBn4lJBsa87FWk4ia1O2n6YnW0OZ
=4lc0
-----END PGP PUBLIC KEY BLOCK-----
