pub   rsa4096 2013-03-29 [SC] [expires: 2020-02-01]
      C1400BA0B3989E6FBC7D5B5C2B5EE211C58AEA54
uid                      Marc Kleine-Budde <mkl@blackshift.org>
uid                      Marc Kleine-Budde <mkl@pengutronix.de>
uid                      Marc Kleine-Budde <kleine-budde@pengutronix.de>
uid                      Marc Kleine-Budde <m.kleine-budde@pengutronix.de>
uid                      Marc Kleine-Budde <marc.kleine-budde@pengutronix.de>
sub   rsa2048 2019-01-31 [S] [expires: 2020-02-01]
      9AF1245F380E7DCF3CD46B855AC621A391E49D20
sub   rsa2048 2019-01-31 [E] [expires: 2020-02-01]
      4E37B8720DD30C41B44E01150C0E78261850678C
sub   rsa2048 2019-01-31 [A] [expires: 2020-02-01]
      0A782090E760BDD4337A4524A99A3BE5C0207B24
sub   rsa4096 2019-01-31 [A] [expires: 2020-02-01]
      CECF5E9CB539255B05C86C1B0EE35D0ADFC4B3C6

-----BEGIN PGP PUBLIC KEY BLOCK-----

mQINBFFVq30BEACtnSvtXHoeHJxG6nRULcvlkW6RuNwHKmrqoksispp43X8+nwqI
FYgb8UaXzu8T6kZP2wEIpM9RjEL3jdBjZNCsjSS6x1qzpc2+2ivjdiJsqeaagIgv
y2JWy7vUa4/PyGfxQyUeXOxdj59DvLwAx8I6hOgeHx2X/ntKAMUxwawYfPZpP3gw
TNKc27dJWSomOLgp+gbmOmgc6U5KwhAxPTEb3CsT5RicsC+uQQFumdl5I6XS+pbe
XZndXwnj5t84M+HEj7RN6bUfV2WZO/ABXt5+qFkC/AVUcj/dcHvZwQJlGeZxoi4v
eCoOT2MYqfR0ax1MmN+LVRvKm29oSyD4Ts/97cbsXsZDRxnEG3z/7Winiv0Zancl
A7v7CQwrzsbpCv+oj+zokGuKasofzKdpywkjAfSE1zTyF+8KnxBAmzwEqeQ3iKqB
c3AcCseqSPX53mPqmwvNVS2GqBpnOfY7Mxr1AEmxdEcRYbhG6Xdn+ACqDq0Db3A+
+3PhMSaOu125uIAIwMXRJIzCXYSqXo8NIeo9tobk0C/9w3fUfMTrBDtSviLHqlp8
eQEP8+TDSmRP/CwmFHv36jd+XGmBHzW5I7qw0OORRwNFYBeEuiOIgxAfjjbLGHh9
SRwEqXALkw+WVTwh0MN1k7I9/CDVlGvc3yIKS0sA+wudYiselXzgLuP5cQARAQAB
tCZNYXJjIEtsZWluZS1CdWRkZSA8bWtsQGJsYWNrc2hpZnQub3JnPokBHAQQAQIA
BgUCV/+U1AAKCRBrv58ZhztRjcRdB/9PE1/O7YbWC8bAdO0jBVb83goSofvCqFwd
mSOjD9dL7Ohnxz+nuA1uColpSxuJRp9CYOGgz8rwIk+ORW/8cCGjyiML3GF2qvkt
eNHz47GrQ02MXFEFMSMsZ1S3hBryp1/tjy0yOGU0Uxs4UBVlgRTLNaE0vJg+BuLX
f13iJVQC8+1gnF6cZ0TnSApjm9Q3gdvHcFZTiUFfVikrsmzMiVwcNIZVWsr2UnQp
f0iSRQkkAD+zOWRfGiwPmo0noupUcuPkCxnuvYoeNDYXZJuJNmDl3qeUZaLi1X3c
v1+nt3LZh+2kz2/2YqlzvcpdmBgEM1z/MxZU5e2wbpt2JIaKaYkXiQIcBBABCAAG
BQJXWZtkAAoJEAvp4xV6Hixkro0QAJmkqWTrB0n3bT7ZgZkzyY9bSCuJ+5UzvY8n
NnzCIaPagZvh0gPbCnz5moNZ5xTM49lIactF3OZgXJXZo+9rHMr/dgEfkFOsO9W5
B0bi1ZzXdC0EYqudj/adiP5sGx68s8tHLGRySyV70y658LI+AhBFCmyI9bF4CwFg
qYDYc0sXaitspHDfQ4NxhsCP+zbmsl4wzCYD+uoJUURe62dUbt70axPm4VLd7KJQ
QkmCSNqIS0DQZgLYcaiaC/hepvXp8qnq9hs50eDItJ7TtEj2fHh/xfAZdEyw2LQm
V0bMqVMISVdawOSxHT+BhlW/UhTIGIpZ2+/99o7IpPcf0fro3XzvPTvmU/1mbK/S
4rhEHjZFXR2dq6WiJal2uRzSEbtn8tc6HSSeZkALrWcM2pbl9c0Ozdt6aT+OBM/B
llDrZx4LueA9KH87hikHYkylMeHlzYml9Fo0XYeMm+6soJKPzPj6N7GMcUTtfCSM
beuyi16Ed0Ust2zxkN1r8oIc9w+gh2RpequSlHXr6wGi34yhtcwH+1sRXpkChBXg
Vm1TvLFPP+7iSTwD7ZkF4yLEGG+HW0St2Z0n9++LQFnirx2NB5YzkxJ0c/42vANz
WK+QWNZMj/xBeEJWg4NFW/VU+uPvPLlc0rviNAx/5vz9oOW2cTAmgOCZ3ics5fo4
cfCJVl1niQJXBBMBCgBBAhsDAh4BAheAAhkBBQsJCAcDBRUKCQgLBRYCAwEAFiEE
wUALoLOYnm+8fVtcK17iEcWK6lQFAlxSxJUFCQzfrrMACgkQK17iEcWK6lSOPw/+
LCTeC+yry8BhZjliEI4ZE6Rb5zYN7qO5aoObZniBunwSxf6SG8S7A1DvuzRAaNh0
hAhDiVt3yTsSW08LVuAlAx8jg1GMpLwiKM1wMEEW5dhRnFN1eY2oY9sjYFf2R41g
mr98HWZMz98oswm3+GzDKV4wFcPithT095kcDBpOd7VSSa7btdP0EpTbQcoi5EVu
TdW4bR0TY2tFBvDOLv7/W+wJOB3KbghwTmgSmYk00gIMtB1iKpP71G8qWUDvauqn
H5rl2JbJAX+JvWdoO6hmxKJupPQyCa4I+TT/oi5Ve8IlwLppPzA1YlzR0oILUBEG
yEPLoVcMVLMGjLv0Q3IJrr7N5tam2pOes3G7hZGK2hdOmThc8JLE1Z1DlMja7jPB
56n3fhFIVzzjiB1w+qn+Y2gErMOBo0NjZ84QFuNwXmjdfxVl3Gx2om7RqtdAm+t0
NqqGMfRxKDYGe5BpuFQf11zczUZ9yc6zwn+PxDExVxDbAg1PoKVBSvstKrSPj3Hy
DGbZ5RrluvMC0YDjRYSVJpjjOFwH+Y4irnLaXlzQw1GGfi4n13wmGM2ifQMUkZz5
86fBM88VjZpgnlZ2DaHPnUK99lg+6aBO5yY32VNyngHGQD71u4G95ymE6RLvc9WY
BYfkV2Jh1hqg5zT/e9xg16ZOLY5OFY1JFkjEYN6Ayvu0Jk1hcmMgS2xlaW5lLUJ1
ZGRlIDxta2xAcGVuZ3V0cm9uaXguZGU+iQEcBBABAgAGBQJX/5TUAAoJEGu/nxmH
O1GNtesIAKabAZQ5/mwU5xnmVqaj6Sxw0/83v9q7i6zPKtdUw4MZ3C8rYUWOkca+
ZLPxSjaHW+Whefy2YsPlD/07WGDneDv34bgY5T1NqHFuX73oppSJgXEht5l4Gb+G
974VXpY7dhhs8ocLlO2vkEXH4MpZ6inBeY+8tXUioY0OQV08QZGkiC3Qb0OAeHHe
ABMmRzOm0Tm9IUog/N5uaJoqpWz7xFyBUgOd/YjlctFM7VpKXmLkN4iLV2tkG0MP
c6kX351RPkWgOKdAhLf6ckOcsN80HSvq8e0s+c50Y1SopvHIUq+iZsBUMdec8EKV
9yYfE/vV0vto4xN8Y0cuqQwNcKTILuSJAhwEEAECAAYFAlQ9PLgACgkQBsqfXR3P
JlkTeA/8C2EAbhWFB9iUxtZL1gZgyRRz/ZFO3PdR+X8Dm6kRS9aOb1VMzEKdmq75
yLk6hHlLfhez28wDjAM4QV37tDPUOJf6Efc4DtkXdf6KyB3M9Uyu9hs7EFSEm2IY
dOvSUF3f1BgM1UfXfBEAggNMo97yVGOaFD7azvwebI2gWgcUcODGKrJaTZEeYI53
ZptSFGA00qp++vamgM1Ye9RgAfWHpYmxufUOorKbNOQKitAHKO0HjSGpxerKouj/
q0Hh+7qcdI15OpjbYGVPEaBybyHWKTRNoR8sFEPt7yX6YRn3mrCNoAut4T/6dNsH
ESpzjA8vz8Zc8aJzS5Mw4ddT1hWvjP7WSH2af10UtUUMFon7OrboYt/FBltiXqFs
H83k/sbPpgZvJ+Czh8tlV/gQBxL5FkgjuXwjdricWvmVonRsAqN9sA4fCnZ5oWrq
acti7B2j4U5WEGLxH6OkZl7fXwLuU8GvYlrPZUWDl9lqSyyyUsRki9Gu+KdA/7RM
3jrvIFBAcimgHGO1xH9YUAvmuxoovv+ULOjBChoZbu/98+jKfNqakdirpfhyEg9m
bEgEQ8H2HwEzUM4RHc2Hbl43CgKZE1i53U0SxaYp+TJZFVLyD+NHMd3gkmwMgKT9
U7BPpDCvkWLD5ZcLxQKbdHW8CnRqfJHc9yZohsjwCz7ABdUIiy+JAhwEEAECAAYF
AlRHn7wACgkQN3x/If49H5GvJBAAj/ZENsvMN06dC1md1dC1tF3F8RWZhswbxRt5
YABkx4Kvc65XSOS1KNjfmA5J35XytnyWkMdCvlWSNIVG+Fq2zi8EeuL6lo0V4oKK
bjPsUd1zpX+wICdiUd6pdhH+Xb7Qeudd0Hjlrk5sIZAdKLC2pszLymbTrBoZFTdW
2PQmi84KfsBGX+5yJVD8ydAmaDBhYb6WSFftkJFfqi/ZewXiR/e6vq371xnZ9Qrl
dH6gYhaXhQRiLvvlqNc0AoaWpLyJNP9NNKC8KEH6nxTQcR0aDl2A43uytsnuY6Zn
oDIxaQk5MQQ3np+cxH3mGJZO+tQ4Zfww7vpAi2lvWYO6BwfsGHpC+45xM2Oo6tGw
An0YakrQSa+xq4ay5SQ5hEZ7FLwJdMGEgchLFnviHQcRXSywbjWSGzS+Oarg3Day
A5g83SQxpgbytudZeczOYVV13+2jcg6cnHHCVIcpKBY3PzdZpC2AiADOu21f/dVr
w+R98DOlneqhk82FbOkFWFqm4BxrA/bjFMFkNfnTll9j6EZV+AbDa4RcYIrNFmlC
HXg1DCc2sSFZOq1wTXFZIi3A8fY2mqrRU+EuT1CPPWGEL06XOxnCLpmqpK2N9DfH
9OCFUAjIF8CsnyTfu+kQz1g0BADTM3Txt3u0MttESWWeIaB0cwuhAFpV2eMdvfX+
9FjNZhKJAhwEEAECAAYFAlS3BTgACgkQFA3kzBSgKbbGnw/5ATQXnk8ZIIXyjU4T
lzhcBmzZgNCn9Rlo1N+pHvhItqm0qp4vF6Awor68CBLuW/FqykLfVh3AefyPCVzp
t+OPhXZoMNb4PEOgBIAfabmmr4AxwS9l1ZKymwDdosXs2GnKleMJ5ndn9bT2IgwB
4sZCuTZkuswSddI1FQHtBx8yYTvKuzzYEkOB69EzJ8ORmVcgIOkU/I9WZjMW73BM
GMEc0uQSdVJgB15IpDBl1BIt3ixWfMgct8aLIKBU1aea/4METPADjjCwVAlzAjsz
bAhoaqpTcfMkrdAei64nKN+76E14Ps9sRJzD6T5dBhg9uNKB0r6tUQwRhOpmwgVZ
5ODmTlK24thjWwb04l0YIwuhsy1ADFCqLlckNH+w/my61Xq6OWYrQRPmkdIKQBYg
i1/823xo6D+3vy7SVTHpyjiQVA1RYP1Zm2WbXKnF8oeB9RrGkLWTOevpa3EPCwAc
gvSddnjF+deyPZk4ai3hUHb+Zv/G9D5QQyKl0WglJUxsgb55hGCD7uNtu/wl4aMn
WGgIlmg3EoHYE8TIXByGoz+oEU9B26Vkc78UUBD9ClTbotdr9/4GXib0OhTcmPrn
sPbIdwhtuTRI5ThoVRXkFou1FAl2HoznRQ/iCe0BWAQ54NPf57orN06yhZQyQw6D
C+79drXhFtC45/MdRhrB5batFDyJAhwEEAEIAAYFAldZm2UACgkQC+njFXoeLGS8
sxAAkvXvvx6ngY0vKwUEugfiMoDfBrgXeMglgnGVStzPOJSmtdxOz+51e72CUDtJ
xwsFb/bL60pPAUl45P/T+x52VnqHaqjxq+S0nQD5g/UcS2cgGoxoI6uLKTMHh/01
f1WSUNF552or2/Ca/iLqZaES85N+aLqLlEGJDSxgvFkDhWJRD93tnwWwD3B4Gc6v
QPOZdwgotrJMV53X0Emi29RoHWhayf9OP0yToBkpdmUWUYFOVcUcux4KwhgxY1px
f0HA9MMV/wu6S8Y81XIRqS3vRq2yoaePOyllwq0wSD7YZ+lpX8FnDWBA6VpCGyl6
3BFNUzjoAqEyTtTHqaiaROAFDd6FRDztAfQZe8sXsm/IM7p3vfvF/JNifQFxg8oF
iLm0JkdDjoy+4KKanpxvo9ZMWfngapOpljwbYGAC17Cn7Sd2GjGcc2tEZJqCsqXd
Y8JWnWCB5BOjJ2ZPb6MYGAtDOUBPHSgIcrODw8+xqomGjJIrp53YKaPLivsbM09r
lYGRAm6CqsAIGsfnXBJ07WH0ydraw8TOnet/ZhkSUnylG/1ruMY+s1SHsjgpfhlN
g4GAUaZhDJcDohrEiB8QzzL8+sWYbaj5NArt5GKOccfLDmSZ16G4UVNewk+PFSOi
StbZPbN9khcNpMdhxwwflTYwK2NUbJs+dEgo22KlE3K3eZqJAlQEEwEKAD4CGwMC
HgECF4AFCwkIBwMFFQoJCAsFFgIDAQAWIQTBQAugs5ieb7x9W1wrXuIRxYrqVAUC
XFLEmwUJDN+uswAKCRArXuIRxYrqVIJAD/9kXcSj2dxjKmoN94ysCgG5/30agBVq
lB/UwrER94evv7hD52Xc4ZC+Gvaf+jniZ2ejV6oLMkQDk2bEhXMJX8SzR1cQVpvK
TMKwXnHbeJc640rf98LNhqsT7Js2tRrOtZRHWLy0kyMdrz2weBQHxNJIsygI0Wc5
cDsrhzq9opbow7Ck6RbXfJVdZwTTZ+hwSAUeUobyZ8MlHc7m8rTrEre6iRLxdcd8
uPWxwst7svjJmLqBMhus6PbnVM4VbCnt4R2AtpHwdemTgYxQt5R9lOQJ/skGCCD2
a0ll1Hio3jGihr24OlvTouFxLa8Kc1BoW3sMQmWQiK8wB9oc9HVIWnMQdtNWP32m
OgXU0u+Uj7Ps402KPMhPWPXhu8f5QetJ0IyYmVTb2fPEA31bi5f4XriKvn8jWowW
6m7QU+Qln5jj+A4eMY5t1cJc/Ipllv3axFSWSaz2Kr9B3T22PI1TKaqHuYw5aMlZ
96a3y3V0myj3sZSWlubZz3eJY/K6jhUoUZyxQom6Xh1iLpqqyKiJIkQPZBVt1zIL
VOiZCK0M4SW+k3OpmYNsLmFtHVqNqr3c4jID5DBYliabMTPcT5PQQVcEfrqIzauS
83QrF0NrHhtHYWjk2miA1lUvFP1fDao65emxhtqrqOWMyblyo7So2eEepO+tqRyd
7Z8yP455XNbF87QvTWFyYyBLbGVpbmUtQnVkZGUgPGtsZWluZS1idWRkZUBwZW5n
dXRyb25peC5kZT6JARwEEAECAAYFAlf/lNQACgkQa7+fGYc7UY3C7wgAgImbAuZM
ZjVx/boTWObu4J1YdbEo/aHfP5WXbOdVzF09eEwvB4ZABPo10O9Q9PqmYAetGEKN
QHmMuRprfGJZEw8CV+Dv5H9+yw7KVFqCbGh8Fs8VBcEWkFgXNN+OX9dpzsH181Gl
3Jp++RLy7L7E4NgRXshSYcn8jj5krvaOeK7p+HAmTXxP3lCCS03WPO8ml1bN0+Cp
7Qh6l586g4C8hrY37nbxpvapoct/7C4cTWg450sJbN+coMCCUWFMv7OuFnaeKBcw
6ykYIGLaJaKey/tPswEvESCo9DXJ5tSF8PlThkVvi727PinWUAi5V9mYd1XyDKoP
rvfu3RbMLWgdw4kCHAQQAQIABgUCVD08uAAKCRAGyp9dHc8mWQO3D/9pza1U0Vm8
qaCi7qwxbAoSvjB4QI0K9LvMa2t32vBZoDNMHkfv1hQ4tqxARkNbfD+ufZdL1jWn
PD++iOejK9i4UeETygPZAMhu79TIryo2Vjcyzp5UL5C+HQN1+0xu3kaSd9GPts3x
7iOBMXVgxG8xpweWegbUdyLzYnVtHk9RL/hNc9MFnz1IPbai1Wz1t4ieiBbUTYDD
/W5SDIbSi97t7EO/HAbet1o3GjPM0AUL3RyNs771i2GmTXAr6/oA0UWKMZ3Xdtzh
OFsmzvhAjrCP7IthNrwPb9RzyvnEFr0yemOpGgboL1A4J/ulRML8R6OB3Lngz38L
e43k1zH9Wyf2KUWtVSsZppxJEjNEx6eWAiEW9CSm6UIs7dvrOdoKuHrjyCiUltOJ
D6nKnrETpeiYuC05QS5Qxbbrq47y0TVBGqKqZ8Jnn2rm852NQidnNCUUTBFm+vIW
9mj7EugrDnfxd2mvQstES0Rd7NjcnwInKixOT9JfFg7WEL2IyUecwjIz3dghtDIO
7b8cyYVgxALcrUVsOCjJIGPT6KaFfq/jJGs3yUqNxrhTUuFCHSgAVPbsoiNWjOWt
KZfmOpnzXtiuZ6Jfo7pIrC2FFmE4tIgdOEHM0nSafe863GsR1r0JGD8DXxKYh9Jq
bjRigcJJLQz1KhkYxG1t6L82qJ+dUrH2xokCHAQQAQIABgUCVEefvAAKCRA3fH8h
/j0fkWouEACE3eyUi4Tm5Ckyx1IHFhBeCpheN3uzpMYdro3k4SiCXHCUKMgAoy+9
usg9tGf+ReMKh28ETueaaTXcDrliDlDPGavd7DNYTeOdGS2pPqo7m9PtrGgW7z2M
qQEzm59enI8IhuZboa2qSnrM7g8J5IbVMJ0hPxItiEMvNBMy1AgcWBCP0431bU9w
QvvKdN7R/PaUo4cuVG8uZDymfpJt79VxQ6uLUgcsNHYo3H93h4UXeMrS4O07paZX
8TnnT0Eqs7F8ExLgl1fttwpeqYaHHpRG0EQlebXSlYatqFm0d8GEtsn41EC1FCQK
B7yrppL+Ge2kBoidubzvwQ0scOpOIMzPjGp0aIAGs+wHAfQj/33zns1mCk32fN1J
UZxgQ6MQmmc+yt/ihsl+0CQnjCUHEOrq3moQ2q9IawNj//e4YFzDOzzage32jaU4
aK6kMNuccZ3DJ3I067SsB6mr8MSQiEHfOu7C9quVm8f6war8Et2ytad0rqIpHUVZ
3KJ0UqR8yXBznepeCaO89MNnYEJGDw6/jvam9Tu+KzFgvQz2O1vDjBazCDFtHHoo
co5K4+857PN0Sy1iEytWY40xspfO01Ydl+/V0lpz+JSgyuPFxm0OwENVznNBj5oM
D9ZCBf6/H96Zag9KhWV8DrmJZhxMvPGrWh1vA4R5L+M4pUAu++qOmIkCHAQQAQIA
BgUCVLcFOAAKCRAUDeTMFKAptlNND/99aQ3jWj0Wn4Q1uke17F+htac4kXgEBM1k
z/VTV+JnQhWkJT/2D/lWv/OfT4YqKwtxtKlyf2+SqbeWubEA4cgu5AqZLG/xtnxI
xpeH3XiYbfQFvsypO+jm5p/ek1Tklcn8TgZRjVheTdDA3iK0VwjNMHxqK6DbLnJJ
CJmq/K21gCso5f9bdWRs9AXYZD67/4u+nyFo3XSaYXBGlVc29Bd3qXcV62cOwq41
jPlnyclKTt3qQMMi8QAQeHPHjdSMsKoEqsoeG/hM/TyqA8sRdK1D/gGmkFyLc0F/
7GZxd+RaslNYp206EhsfDzZyeoXIrLubmm/CR/TObcDSqSSIh5RFCxwBW/yM77eZ
469Etee2uKb4yrEH1QVeEh+sZT8OPNkqQ3SUj0RKCe5Io/RjrSMfYh9Hub0leFmg
1C3yZLFYsJkFZpxOCcYdKA7ZAtGZyFwTjN4dbIM4ovDbRzPa/1UGa4DKg9VJLFLG
QRDOGmTcOJiSaUKAGEZWVtohFx6B50PSfy66iDnBERb/6/n3RCtwaX2JH3s5qbg+
JMKHf51Z2zNq+Iu2RLjv68YHqA0EyMGFSrV2h9mk3m2qLsFvJ00THurZhMFbXgHJ
zFDST/y2QfA8+8DgWdMlXycAmPtq773It7veqe/k2Vklvm95t3y9zxU3iVY+vePy
TTRB4jHme4kCHAQQAQgABgUCV1mbZQAKCRAL6eMVeh4sZJO7D/9OaAiETX3i3RrA
Con8pLTm+meld9ixPOTlcCDGsdLzPDT9LHIOs9m/LK9f575T4y0b+ptWW59O1ylU
Buo9PapbxQ9L0xzsmgsiX8SlOMCIeT2hWrzn0OdEb5dpi4Tf9hE69tmkHkSoyCx0
8rfR5e8x1a12YMgPoblfBANJnphAiGJo4vFuIs2TP95OihhwPGmpSaNIuEDUntfL
iGMc//Q5lNY5yHcqWMZtlOrSa2HTkozOgakJxBGyCWfp44IG6b+SO2gCnADWS0oP
NWiod/so6CZr2rP3fMH8MhBQt879gZPtECxUrXJz7RDms+NO97dPqotKfTCinhn+
gcSmvdD1iFHrv/lRX2B/aWoAPeE+YpOF1STezWzNTogtgLfbyjxHesIjB+6aGUKf
RjNjhH5AT7j/Q2o04v/9lRQIBTcFwJp2VRTNrsnsE8RZZY3bFSKpUy99RgNucWpB
TDWmLCjV8PYdVYXZK/VJHKyMTcjHfKQ4gb00IfZnvxUnpRJ1sxbkwp6yW1UVWYgM
8JwaY2rMRVoqmPc5rctjyNYh7jqsxvKhui7Mih8Em4X39c0xqWzJLDTNBSll7rGb
1voicwmLngim3WMkFBQdDdkf9fn5T4hGJP0UicpkeXRABrQKg7/uhs4MkMsi9aet
6OfcntNI9e9I36PXsTFeusHsN8ujE4kCVAQTAQoAPgIbAwIeAQIXgAULCQgHAwUV
CgkICwUWAgMBABYhBMFAC6CzmJ5vvH1bXCte4hHFiupUBQJcUsSnBQkM366zAAoJ
ECte4hHFiupUOgAP/1FN4yAIWTqdNHMhMH+wTWIvb1vkiphQ0xD95QJ0pjx5c5fE
l+pcIOgepxh0f4fK/3eYz9vfOVT7reN8h3Yb8hUM3/JYQk5h1HuXY4hRZMTrVf2z
wl6NV+Q3ht3qODNH7gzWEFy6ZLfo9JzDRFeg+CN028buaVkpJEUlWTgaIPxIzfd2
ZQ2h6KhuaBR1ZFUWx926NjjWH69nVuD2D6ejenbpAJ0h8rA5RtKO9wLJQsWnK3pi
fcYCwXwxDbF+i0PrJL4uDXR1qTOK01mFQvveppH7FQdOd/WnNf2WhIYRSup8F8mm
fw1YlHDPUbD2cSLMdbxO6qaj5b+7oTFdgz6gSwxszASb9pi44X/qEKFC1Y2i5b9j
8ZnUAATr/V9nMcZxAvq4s0sTlRAnr/b+rhU8b9EBWg92gcJSRbFZ1d0xE2JOdTTn
OI1Cn1eo20cvP3BCNZbwGjDGSIWn5lYPg3XkSeo4L735kMgXATlB/F3bkobzx8ut
mCO8lcFbQeFKAwg+jwMwBFDj59dhXmW93oxHB03Pzxpcdx6dSDIZEXuqdMfzbmeA
Fp+JvZSipcezHOp+LkOJ1KLpApuKmkFe2PEB7DY0gbiRG1K7DwsKDZGPkKjLcbIl
jVf4VBXqjOgmD9x2uSIKJgrk6hjpDFRyzEYZUd6lTb4QU5Zg8TWTRfxRZDaOtDFN
YXJjIEtsZWluZS1CdWRkZSA8bS5rbGVpbmUtYnVkZGVAcGVuZ3V0cm9uaXguZGU+
iQEcBBABAgAGBQJX/5TUAAoJEGu/nxmHO1GNDUMIAKRe+AbvRfGXvCNiHs8+d5Pz
MrPgIfaQslFbLKtu9HxqyLUc/if7KuPHpctOJ/cW/L7LXh/dYW+AYRg4DdHSiOcL
YHKuH94M59tFIhnCzVd1qp8NPKqn5Lpuh/EjmSlh37+1d4Cuuo1DKSox2DEtZpYC
vaka1capNyljjFpSVw8bpcX3lZfoOIjjIsxeX/cUTxPBrRcisO+dsWIrz1x9Z0Rg
GIJ8ejWeBwz7DXUMlP4y37sSC8rA1NBLuUCBe7fGRibQWeyeEnObacYDxF7Dkj/3
JIctdxmhKN9nTkOaxVabCepuKJScxC46PfNW+xyVPpd3WEJqP7SjoGRvSIq1ccGJ
AhwEEAECAAYFAlQ9PLgACgkQBsqfXR3PJlnFWhAAj/va9bWK4e5HXN6itizzVvmw
f2V+tnSY416n23A5LmTDzDFApzHF4/txU0M6nG1hcv28YXnTRdCX7UrjsJIzvGPT
GqiHyyDTxUa0ApzmdzXCWPlQei1OrxjmrdHsbtkeJRRwUSjCFmOOe0+USNWXRRmt
2SbQC7erbHnNuq+c0aFWIcVtXSFjB5V7wi8yoZuuLWIpxU5FLhoJBwPusH8LqEvw
upltGdcci5YhVCTJpbnvXnJknHv9qOlnRhAx4rgal5J6BglcVLHv16jW+FqxmZ+l
bdPAwMRJbbKBNdMUZt4/HpeI8RX3X2p5ZIopP/+fbXod4v9zuFKacnc0FUhyj8A+
95qaOW8jtcdBw97wHtUIZd5+QEJJ0ICaCQJgwNaO6yHs+Hr11cbiT/DoHLI2cafb
DJ6B8V1c6utDwfoMvNGaj0H/+RDzw9cLJfz+VvyjT9E2BfkiOWlR3nW+gpZ4hfn8
qdrZvNRslKLX/vZmsEg0td4awLTWJzlmUeUh7qfPowjD9hnNSuMWGff2byVAAVcx
3lOP5z7QFW3IQ5P2fAKe1Juw33p5ocNn4SQnjQP236ACtC39+wsSLtLq41ZQ/Ltz
+J6pgQVCZLtvNo8E5JdUkG/9dMZaXaEeCJ50msZ2TApWCdVeVR/uPhyDY3jvJ4vK
iVTCXkXLLyPR+QMoJ4CJAhwEEAECAAYFAlRHn7wACgkQN3x/If49H5EHGw/9Fds+
E1XZataVbFA6Y4rxHGtbbrv7KmINPOUThHcbiJr4dgN1EWOBGIwXahg2uwuQFlLq
Tx+Pjaukx8NM22IKTaPKlsG9i1zPZVwuK8U43FSFPBNXdreZS/xG9yhJgibIRoBi
3qAQ/g0Ap4fUE942kE1W84aZaOL70KglFziwIfFXy8pnyD4MCzRaM4h9T7FPEl09
8TNMNbEovLLOekC5g8XchPEKaXyYCjy38CndB8PBolee2rI/J7nQZRz4EZ5awg33
lBkLDbpgA6cOplUqAuthVgYsrYAIqsF5UWJXedL2ABBpyzdzHmLkNtWvUv5OOBwN
b2EI2XNqufMaz/+azmFhUGe2a5k6Uo6E9ywJ2WdHBhTZWsn75Mf8yC8JJKyQQZuc
2ykrOh8YXK/WZ86ni0g8C1dSJxaMxoBgyu/3yAw5zqAmeB0Z4SLJSwaQSarQYdam
7mew6bXbrBmAhhPx6Za9n304+JhGJ0NmcFoMLBXeZ4kssOGmZRzXh1lIINbL63Lj
b7tWrdfLibC4zcn11WKWfTdnovQnDjkYnRWSwDKp+gGSI+K2TglXI03Uea/M3oHs
g9Mi4AXNZtgAdTtDff3ynP1w1bsCaHs8bJ9qPKNrgjYLwL/uc5JjX+rzF6UfCfzO
gxNr/1vEvVgBpLJ7wI2t1XRofZMxmvoPkFsuFkKJAhwEEAECAAYFAlS3BTgACgkQ
FA3kzBSgKbbwhw/8DWl4ATsjbEAiC8dNVc4+5IbfNthcVkNemSuprSm9jlAK152S
G4ZXvSG+hEKbudH23XKREaDH3ReN8KoIkIjuM+wE+ksM3hMvPZFmhU/T2u9QPUgG
MhY1bgqChjJfp+4ZLD//f53CYyGA2SqJezAExhNpPmPuSPi6eQCrAORE+ccvz0NW
cGx/t/z6Fp1h9I5k/T+HZ/o7Lxc34V54GWoAuguygUElgoCJ+4FmQov28XwVWr7v
TqWYXH4G+LQfOdm1X7A8bksLTULOWYnNOKvkOf54W6BdQDUNMSqyp0Hc2UdjgH03
1kfyw4YSii4gZ5sjo37tqpW9voctrTBXVSm7CxWm+ObN/UG3tXFGJrt6KzO3wvzv
//AL/HtIH++QVfwakjCgi6C4A44FxaOzn5W9AVoVdgVpmL7k90sCFkTbhB0oG+RJ
VI6+ihtSbWhF0Uyl33z7SyhrZZ78J/V9TDBEsRctHrjdt+HVb70y+EHuqdDS2GO9
u7Ky0aePDamMuNYw+BnlYitAoJ+0zyuPMoivn46wcN6uooGXs789PVQPEjtDr3Ft
HBlc9WkFmJDGleD5MeeCeOVis4XnIQSA0IZS6yV5nykdohJDpnE7bK4jsMXxYbXV
7T6M5zWC/GW7nURkawphaVXUB8O21lRK79sNjaIXxvwcyllbLIgSM1OAFBeJAhwE
EAEIAAYFAldZm2UACgkQC+njFXoeLGQv1xAAoY+WkVzwxBeEtyMQGJnz7lZa8qCh
NFgMm2imQfDnqzefgFZmIq8yfAo23CQog5KGwlU7T6VUm4kn613E/CSeYVQbXv7m
O8rIdDqB6Wxuc5FAGoqiuBaoAV1FegGfOXe8pYAKjpeOZjPmfIE5Kh6O8aXhSEG5
3DoavwGWBFBz4dArYiU2pHPpJLdqg20p89/vJiVW+zYLHUzKaKw4BWHFHXP+Gela
5MQ+lKMUQAoVH1wrjFQufjL6+WOiQfZTZnCAtRAjosk8ZXbQ3JlB6Uq+JDeLHLK8
F3/HOVFZFx7NLQkqNFXlYNj9ZffQiHpUggKy0TXqGewlPTSaRWH2ypQfv+6TkWpJ
6QqsMI6gIZeQQJ7Q/ZtjfGvL+BD7VgUy+X/mhoOMaj7wYbHvLT17CPc4FddhhNDw
y4y84J/aml+RLvr0OVb6CG74XNh2ls9UJXUt5BEak1Zy0+4TpQ7ucO11hJ5QZlEZ
HQT/mw+CFgIdCtBRrZgXHE+Ie8Y+AWrjY2BwnMD8de0vikCm1edBwD1crciD3o1s
HB/BmFg5pnnM0N2iqtdwOJTUfJOLHt/SSEoLTLJ5axVrHdZkTaft+t03xS9vNLHi
p+zOk5uWnd8xGt0bGqkGb8a1Rw4oebV15bSr6p/TlyIxotsRL2KDWd3dR5ai2z6t
YHU1bDKHT3k4kmuJAlQEEwEKAD4CGwMCHgECF4AFCwkIBwMFFQoJCAsFFgIDAQAW
IQTBQAugs5ieb7x9W1wrXuIRxYrqVAUCXFLEogUJDN+uswAKCRArXuIRxYrqVG94
D/9krzVTdbtdyhCioG/H9kxq0KYjON1/PkkOHkbNAJxubnwdGmSbnjcbw6nGSWuV
hp2f2HGWNapaQ9OA6oL0UFMm93KDITqlAlNje93U/lvVCuELUhm12T1BCSpo2b9y
23lNMZlmpFeO6Y6zVsiQfsDiM1ax7ly0uK7s2ojRDqvshojxFkOV+JfA3B7d5bUI
KKw4tL7btqvH1HZTF5rldWqcbc5pyAtCP0m/Kd/qs2W0q2HtUTIt20WY2f7ZWffE
LJdf/wkwx9q6/ZmNPTYL35n/7WPiFGU1ns9p2SdHcPUO9Fz/78C3THUr7jX7XGDj
foGYtq3b/Ny4hBc/YIKSuQMTGMixYx8JoTI21wXQq1SFyT3wGin3AJVIOYRdbR8d
r1SusCeWYmipZTc9GVOocKuWFxwjo02peICyj4YpV40/LBoUoTyVirJGxfYXUsTd
MQAnX7cW7qJ9ohBHKu3/XG00SC0h7dPMf75nZ7B1VfLrvOaXG+ibwZkFYCbVt9rU
M3GB09M4x9HdC+5PKOOdxoXRMiP07jWV27VqxpWDt1naC4cltYF8D4lDLCIZf7Om
JqM1Uz1eBR9NYbWeEZOFWTxdvfZs12EBroJgV/N6TBcjSO+Cor5tYW22tMiMrlpz
gJE2zAMLKLk/yE8YNfOgcwk9VJ6BAKl9zAmnLQBD2/eLiLQ0TWFyYyBLbGVpbmUt
QnVkZGUgPG1hcmMua2xlaW5lLWJ1ZGRlQHBlbmd1dHJvbml4LmRlPokBHAQQAQIA
BgUCV/+U1AAKCRBrv58ZhztRjZL+B/4wzaI8+V9ZzmvoimEdUFm/Nu5kQ4B/b78F
a2etPig4I1mFpmo5CFJ2baSf445PkEceyyhNNzEG7HbYwEJ0Md+rmExQZijeW2MU
xEmhaUlgZlj0OLdiXG4qN5MakFPeypDhKzZftvNnmz7qRbOjYJB4Kad99WscUzDk
uTxjptXpnbuXsePPCwuwUUt8E2Jwr2l0+mhAyn1e3DUDdmn/Uij5XQ6DSIN44fqM
h//8X9G2F+Ut/VyI98xrRCSOAWAT9X9nXo++ae360U0MvZ7egS3ra8AABwc0cVSy
gVpo2Q1q3ewE3jar9gKuo2p+1ayLLLg95DSWhWXT8lcG5VD30a1UiQIcBBABAgAG
BQJUPTy4AAoJEAbKn10dzyZZz8UP/jSFLwNqsCoO2YFIBdGGTN/jvWzaRFE4gZYa
jpQfioIDoS9PLWM7IpyPkri/H5I57jxp3wxLjopctYJKHbGWQXddAihWAp0wVEVX
bIZeOA9uh257rhHnlsIrGoAQNJThbXlQiYLbYG76GIXuVH/OR6JX6lAQCaOQW8tz
HQmXC3PQnwc9UhqAnagXIqpFPfSmgnuR4bil1CVH7B1hf9hnxDKo1wj2VocrNisG
CBPlhcUTXSCc1+Pl/FCpySYBRLHWjQmXUVMg8agsjrtt28aslDp2iRGlSIBCFaIg
M7g35slC4j6nASsayWMGgwAnNl0QIX7eORhyhadPQaVXGSw3tvd+LYh3cD1+s5Iw
cxOUR7h4rSXfA7yvsGplp25vj5o+YC1GbJAOMpdmCa/mEfYdEbv8prPoURn/TbXY
K1dVnnJN3Z/rxGYp493aOUhfFAYFtg2Hbi+pVyvvc4Zq49Ks6apS/6BgP9a1vAJR
mVku0h5id6ghYOL3hRGQ6quub4znhDGBc9a4PfA6Ce91h0zESlzSBo5R5ANkGDVk
tVdlKgLWqcevHqnP5xWAxaNxptTRNNSMjNhn3DJw29yXOX2Jt2n3z8AyOncCCehI
fdVIfCUDZ2UgXMWJMUtodCfBuI/0Y5so9HEPPF6TQnXNldSRA8Sp45zPy8joMT71
YAFt6eLqiQIcBBABAgAGBQJUR5+8AAoJEDd8fyH+PR+Rt84QAJTdT9X6GvsxXVBd
IB7bQkiAJaxjjxj1nJsaIPX29doG/GWkz5bYwVOAPM9Kj5SLtJjGRANayQfNsEJN
UIguxOaLGYxck9yeqtHTRfUbOdPPufwzNyhlNGf0dfQYxWAlbMWML1VQCNC3zqoN
WaVWsEKCqijEiES21gDny/mrbHJ0jHRyV0M+iSjuVDMajc73eq2AslPyl6/zyqbM
L2qI9iZ7p58ZFW5V1tA0Pk3sRxrOarzVQRSwrNijwAqar8bvlM4XSQDgxsaIPw5o
KEMat9NF2QaET/BMkPoXYAea7xh2tUuplEYZ81pKNcb1lYKmvo+m6pixlmuj47S5
/1/wwRMDYlF3dD7LBTTo0A9Dwg6wvV2zOLu9Jy0txA0nhh3p8Yr/nwxU1G6O7bd5
IsIKU7wAiLYZY81xBPpwoGD6unCEouMGnHpDp1FXbGJBGP8JOEr7xtI4k6CAKHEi
IyKy4EBJkfOJK8Ckc//aP36rEfNWe/Ll0TPtOCyBUMna9jqCtEVtH6mE9Du0dVd5
DA0D9PPECpyRMo3H+b2y0yC7RK3Adr/pPFWx984UEaohaZJou1D6CQxoH5C5IXq2
C3u0RmqjgmLqMhVNRMsRveNTlNqteov91xCJ+MblyjyB/UmEcB3++gx45Lh7tN4Z
585KB+m2vaYR8nQ7DUZR9Qk8df2eiQIcBBABAgAGBQJUtwU4AAoJEBQN5MwUoCm2
HqcQAI4T032US75D+pURDt4bHn1cfBhVnpf0wrB63HtJ6ifPBtW4LkZAe/UrhrXT
uY7LjqG4zJO8pC2QVeMCHXFCxV+sO75/jj59YrwWgSwcnc/SSH15fPxq6Kcr6PFj
GNd3z1zAVgMPIutge6P8itQFjYxmFEJOw/CRriWxSrbuGkCoYVy7+aEWwoK7ngKr
q3/EL8rqf7R05/6Fb9CtjD5teym3HVj3/cguVlC9JhmcexwNsobfyWozz1dg9MQA
Q2YcgOUtx34KYa/Bd7/26q65JMnk1n/wt6mI7+G1WVjg0Z8kbST4HLsOlWnP/alc
ZcmCJJRmO0pNJPzukT/mw1tg+7kuuXT5q2XnkrBTQp+cbvSigqyo6nXJ/flrLMaf
9RXYEUC5UVshm3Zwk0dN6LwSx4qc88qT2A2muczT7FjxwVGG0rC31fGdq8hhbArS
Gnp+8JCy9lyOMYOngmR6eP42IQ4MZbchSV7LDoaOxTIbEwxJ65PcK+C+t6P1a5Wu
GCjyGVdus3SdIqlzQLJ7Cz44U7ZMP9dm3E9rHWOkCEIDvh2Z0qyZjs42StSGY9Of
dP5nxnJuMCn3E/fpZ8LETPDba3I8U1DPYd2nO88sYQRdhOboS8bfh2AyeCMRIqr/
6cXudiry2H8BB4rrBDWNf+Dq6IhdoQXz1O5gO76peyI3uIc7iQIcBBABCAAGBQJX
WZtlAAoJEAvp4xV6HixkSEcQALeOj1JTvJpUt8gkXlvK8Xhm/nWWe8ws1WcENi/n
4vyyXWzveSTvQOighoFLaZ2pmQhyeCQdPRhu0l20ET6R/gJAKC7nzGLNsSz1LAnz
qEl8lddHPqkY8CUQ0EZby6g8fOzrOtTqC3BdLEDKOGhy56dlCrU5v1n9NgqPjEZE
Jo2HsF8MC338xjKsvcC811zlsFPDRI1q2heNXANfRyYyXvPZkAqj/t3BwQiAgMIH
ys//rDDP5PkqzCPHd4DgTkK8YfnLKdQcjcfUH3yI2Qp1uKxvjimG9rZCstEPVLO/
jyAFTpRdL8+ak/2x4GZAv6XgPgcPe+6QukVg70XbLmJhfEbksZLDvsa2tY0KlnnG
cTrvFLpdzdPnJTTvI80Tg0s977ofwzJS3yasJ0Ca4P6KrU8pBbo2k4uMSrxCXheu
lPhtaQRhYb0e07t+ZL6OTMbyiKuWieaOrftMOIwoCJ15vgcHS8HUyC9d7ruZHqDa
YJfQAwEjfkfoxMlAvEFbwUfpoD/t+hpgayVZ5PKrHHw+Fb3oVdpIEP+2XyD+9c14
i0lk0RUcNspkGvYsOx8c8OkQ0AilCOhGy8936/wirFz1dsNs/ohT+dtQxucEkh9Y
Jdnxx/jzxFI/nZNmGhkdrlgrVic/7myMXWXr1uZCKrRldijlJa6UcwzarUX+cbwz
nVPTiQJUBBMBCgA+AhsDAh4BAheABQsJCAcDBRUKCQgLBRYCAwEAFiEEwUALoLOY
nm+8fVtcK17iEcWK6lQFAlxSxK4FCQzfrrMACgkQK17iEcWK6lQ99w/9GgBW5kmN
VQa1cE3SEBDgn3Fqlng+TocybzwGj5rbizg/+HD0Oh8SKK3c9vI6yBuAd2t8coOm
LGVjouVdvrcxhOkDj5ahdK3bqzlvKN1h+jIwORVt4fWZUnW/1GbNJGlTc5+yLy0J
ZPJ0IqJZa5Q9y8oeuaBjI66SjJicevlPfxuvS524+jfrbnFo0ZRtZHXyjv71dC4H
/5rckSDvKFzmPiOuSGsjmnOH3abQbH++MUUHbp2wpchO13B76+cFNX9ss9O1hNE+
+wpRHIzpugY2y6mvHAtJNFymWfgo2jtuzk6d9Euk7IFWv7wRQPwSGZsX8XgKmxoU
3ENN4ldzEwl1O4bkWBAIbBIRbbKmQdsDCXrDX1iDIFGf6qzS92UXsjDwiHSCw6vj
v81r9OblPBU7ppEFDbYOGA5ClT57Bbs33ilabmVb9sBo0c8BQX0SUPNwXeyQSI0O
mVHI3+jIPUeH/V4ToZZWEyyxTydqhxnbIaB8OVpE+HeUgLyMniHdJ7O4q/SP2vG3
L5g6wPzMw8N7csVt2R5JNEcHp2JcCM4q0wpcnWFOiOAwrwsprKjG4ZN8lJPWRKKF
7D4nY2dyGeUaN7xC+0NdmxLnXtpG06L/ggCrNwuxbKj/vLknl0bAI5MH+L5oMVqf
VBxKJHWVNvJvloS8YORzZ/L8dq13rTzA9MO0R01hcmMgS2xlaW5lLUJ1ZGRlIChD
b21tdW5pY2F0aW9uIEtleSBDMS8yMDEzLTIwMTYpIDxta2xAYmxhY2tzaGlmdC5v
cmc+iQIfBDABCgAJBQJVQzenAh0AAAoJECte4hHFiupUD5UP/0ZQV/ZzYIOGl7qA
7D6p0OmwNaXSbexpQTIxivO0iURl+smZ1kk5AkMlCAG521A735Hw3Nnkihr7ghkk
vVW1VoeJJonoK/rShODF/bifc6td/vJtuMK4j3xevtFWMqoZJDok19wZyVyiAKbb
ZmTnvj3GEdQ+0fqUIxgc6xq1QZfN0+h1SK9O89859vTlhdsNBYiEV8OFMET2tOTW
yyI+WzfZXL+tVXR1A3Q9Pv3uOOWGuH4/zHKQFpCEA5SMaBE7YcwKuflp653odsGg
bgKxryTp8zzEbOyFKlkJGC34b5qXsJDObFfMreOkbSp2hv3MgcMDChX0cx0x4Inw
wzOxIGuKpPOeXqBe0S2OgP4aaWtW2ZzVRGIpSKHdeZ09WI8Xyw/s3JUOR1RZQivU
1sMTMSJiNuLbs63Soc+wmFb+HB5oAANHJH9LMCgw7WjdfNcNXTl6roit59pP0eDd
XUOdjVtgLB1f74IzUjGxPLdPMVbsvE4DmMnMIDBwOUfAAzBU6/OeL5jIb/kBsTx0
I+6fw7zSfFrYHlTjc9RU2wUf7DE03SoXD6xiHw//pRgMb4HIxaMpJxLNw/szN+Kv
E+T6zunWEPuV0Ks4+uTDwDquo+uVsajUQSD92JJUUfvJ9sBIHG3EZG3kWjlbKgJq
37hMznXNdeautrccsq12DYdZWq1xuQENBFTYcRYBCACpmBfcxGvsK22RIKTrQDw+
SXnvmISzzU3dfg867I1xqpNkHAC91wUCjY0PpamoDbfxPW0YTcWwTgmah4TXPTW+
wBoF/WwPBL7UBgtTTGTfq15jRm66OZx0Hg7q/p/QeOzhtSs9910gn8Q7mqm3kp2D
6yi0HdlynHTsthvpKxl0Hfl71IL5uuZspBMPZr5SuF60qL7eTSInb+lsuWefiB0u
AA/cfKYF3vRPufxR3+hHhL8T4XLNXyotx/03wQ2TD/t/hluReV1ZpBLCA3kqfpeC
qIW6cK+cKwH/4qPa33CqdmnKlhta4+5e1LoUSiDrbMcirWNpOvjbka20toGsmeo5
ABEBAAGJAiUEGAEIAA8FAlTYcRYCGyAFCQHhM4AACgkQK17iEcWK6lSOjg//fcnu
S6ROaXtBAF0nfFFNyDpuDP100a0bacYmFtq3XUR85LfQpopygkW6SjIuQcrg7g2z
ACjGD0uwnTCmusFzTNGw26ZI7Fsq0uwmEdRxAYxXy6dpPIHuFXeRSCvjQoDRm20v
ycCCl+vsxernL/V+sxh5URkFiq0sL5mTKqMeCklBVG42L3ugQN4P5BU91nb6Ijw2
rjss/Nbp92AHj0tqPtkzRwjUhAFT9b8r1Ql2hVRRRKqjGGCoXFXxsK2dmo6xNh+F
XJ+FABDQSjV7HhtMHaC8mFgfK31UyaQL8MVLBjXzRDWU0PQTBdUTCPF2RRDibie8
srCYeKW6oJQL3k93TwCqVjm+k8cjCDzo6Fz3J3YFDKFetFp0z3GBtHb4COwMXk/n
6JnczO9fNHFBljrXXfOtyRS3xarutXPz/2BJn6F8S+DrJM1zGccevDOmxT8t7Azu
0eFRaR1X7vZt73bCsJd1jk7NdHyFHmHjw0axE6hs9F+/zs1LYiU5Ag/ywgwcZ0Rs
G1rLWZ/ppko9D6O+cWhAYoNV/wNW1B+u8UAkfC87wkdcY/rXbnVzVgNnXi+yKUvY
mrjaAaoAad/6UoZ/UAZAz41iWgIK5X+QDT3A8kGVeAgHhuYuFkb1DrOTI0lhgKm3
FpX1kEcTj2DsGeATgCT/kBkQtmY3Ss312eV2Sf65AQ0EVVR30AEIANeHLC6qLPhk
wvoD5KGf1nw3vMj/Za7GfAGlmKKT++BBBXpKkZPvqm9oXela5eKyHFavkARNQwPA
fpnGh6yUn3LqW10kNfVuy1X0qM5Rhj0i8RuGH5ZOs4wvfY3cAdMPoRQp4S70QRmk
/QmAgH/CQBW8PiEb4YMM02tSCPTsBNMQKghS7AC0gNfqpheyEQmuMYT2MIPOXJTp
c6BRnv7VTYmba7ccqSTjerl1MJyCKUbJKVmJaYobBUmOZIQ5224ugC9lbYat8Fba
OGZs0WMg7U3LKa5NPwAvBhsGra/y1CH7Az4jH4wgcZPSJG+jDAR0DDV5bOx9Sc9X
kaavAOiINrcAEQEAAYkCJQQYAQoADwUCVVR30AIbIAUJAVq6gAAKCRArXuIRxYrq
VGTGD/4lakOAxB/lkrInuV5+2NIkLDB8vMDA/GZspKOcRTBDt/FX7Mc3KC1hs2by
g1+fd8UW+z48SQFkyTVqYAWIkCTo2/VpVhRzIkZ5Z7Jau5emOPJ+Wb58bFK9S9R3
RRvKiVH36+rRHZjbZpJtEdTISpAtKxIJIFERgdrJsJ2UEfsCkUAn8c2uNaZIIEX+
M1Js6RXoyHMthbkRrx3YbqRoaKHKB+crcSt1/px7ascyRpqlWez2ROQHKRLqWXND
/sUpsHFClJlSQNtkZvF0EJIPNJWAmcEHOekWEmpDu19NUWYl61jJn1lAvyQeEctR
kf594RNDIauLL3QoAZPnCpftJNvcbbVOsc3SBYTwZuizqLIYxBx2la7Q+ylRKHvk
BmqKMZ1n0SiUkiaZ21lLEKuQ6BBAeh1fogmNeGBuYqcQUmHWitxRBXj28ha/1mJF
R35weO78LzNBuyqJtky58hoYmAld0toN81tM1sEvqTPwg3IiJHkRoEgtSMMtA7OU
w5zpCN68EtP5eDadugCI1EI9GtZa7Mxrya2cMlmXuINJ6jp3cRai/uDG1oi6QSIo
A8Jt0vbv7Nx8l6/mmALUeax16NGdnxKdfyHqILIUqhb4ihtAeLF1bFWchP5oI7CS
xcrVQGDIjvp49QLnEVp+OkxWePgVRklJLUmo2npCqG2ayivGdrkBDQRVVMyxAQgA
xSCfTkIQC2qMsREvBbEiMH8Yvt6OQLUf3buT5knht35n/hBWb8ZL324X2jfyJDPo
ak3jU7MPty9puxWwicAZUlZzAU6ox/okSQRAdLp+Ejq9dDCeMvZQaHdtgy/qGTiY
Zr3biyXLLOYR41MvdQnQa2tIQXt3HChCyuJoGJdpnKfh7/DzgBFE6rixLQ1tP12x
ahF+wB/pq7eZ9QtJLkHePfqPYC7Lo0Dme6cakEvnORi87Copc3tbDZ0fucEy3CHt
RxhhqzzUG6J6/bGndUcdA6XrQLeabMAPsu5NtaMwyQHIirHhh3jhWNoHPXvMfu8M
7kBlJ/UCphjIB7IpAkhjOwARAQABiQNEBBgBCgAPBQJVVMyxAhsCBQkBWrqAASkJ
ECte4hHFiupUwF0gBBkBCgAGBQJVVMyxAAoJEP5prqPJtc/HehEH/3OTZ1alRiM9
8cpvxBcfOdCPmSW8R/N4ErZv3ufJcSqv6gYyxjwKFNUO9B2xL/NEMXKVkaplPsuO
NIyVRhyMhNfqNlZ1bZOofhL6j8Og5lux1cuywCcWzdlaKmQNeVW15pg9tfhMtLC5
Q0KA/IWrTxPq+ELH6HD1CVKTfCr3L//+wKj/kZG7jtotmm9sX8T6/RIohNJm8oFq
nikXhKEMU/CB9Y4ABGH7ucWLbyOwGKP3CPZJ41S8FVt8VNPJx6DLwvYFv7cN18FX
A4ErvZr+7a3h6oboFClcluqWUBTHLwQoMRFHK1eVnCs5cLfQqYUOtUZRF+RAH60j
ZpkcgGSxLAi9/w/+Jw4m7ZfwJ+KfmQekIR2ufl7D5d6LtLEIdt/3QbmEa/Utv8LO
TG5/KVu+fOVDGt8ygcmDTaLKbOHpA+rrHSGogteeGJVkWP1F2H4pN91BCMohwzKN
qJoV4v+jZIzJHx3ytCJzJe6wv3+PvdB4mIv4TfZsBpoYb7Q7Xo/8sZCz/CD2gp0o
NZ2DoFzEG7jMhFO7dA+zLBuq7zAPraxXb/U14FoV6LOmR3FWkWNBL/OueNE32xZi
8Eue0msGb0cbgLu99dAb/oMXixkYhx9XuU7DleCpwyqfOVMxrDtV1f/6rnaCWec5
43Jnw43zTmhbT3afArV+PpynuSeJULyCQRK+FXDtlIRsb2dlQ9Ps9eJ+sqpnDdmw
Xu0wWPRJ1BIYzQUrsAKi9iQfuQGcqi5GeXht3vb606nZNgjw+Z3AV4hb1cPh876a
AQw8tycyE3gLh6H6mquZv4ScKS4fn34+3jwKjfzpUZEwdAVF+TfK9LAibIgpDGwZ
jvmkV/olLTVR1G+7XhQMG53CKU6jUr9LlfVctFf/cyF6U5ron0ZxqHsH0ocs2Vmf
RjTwA9GCH8m4JuLxJKhtrBqFkiG5q56qFnTAw1csjTyJFx+CF9zfpiuPu0waMio5
Z3WU0ry9JKiIiGWs7xjhIJAWTv72Ncn+ltOS0YjXANSCyArJtM4t04h7lU25AQ0E
VqtA0gEIAKmQFQZvFeAnOgorV8EtzArz6rc+3MEoxNKrjVaYaCmCU080s7IJjbfo
om/JHb5IFumie+hmN7fAR8zZYrr9L5e9nqVfiySSIe8YT3/XjwCvqUV3tfTGG0tj
X/cXiUba9Z+JZmPC6MLQ443EdHI+KF7SVHf/Bi7Gp60bWvQI003v9hAR51YkzLut
MNEzlTOr56EFjnIsurifuE+DL6UM6lQEseiMJyL1pKNcqpknOJ3oYVlC7Nwqh2JU
WQ3upoAobjn1zyb+rUzH7JmIzBKypw96Xskb3dWWXjDFFxFBbyV8PMnc8jU/xYnS
ZG9ZTbxrG7RwsG5SXMuECrY8K3w/HVcAEQEAAYkCJQQYAQoADwUCVqtA0gIbIAUJ
AeZ5gAAKCRArXuIRxYrqVOnfD/4tR+uECkdu4sdc2RS1Xgei9IVfDv/q5nGOOHsi
edi9GJcvuDaKe3cousemFl8CvcFjIb3/I/7IXajr4RzbSQmvW67EPN8weslw8xR5
/Wfm3sWafOXYSx4Ef2H+fTP02l1yBEnrgieFUyTm9KimCh/08jP/dmhuuLiOS4cW
HKrsxrzZfZxwUNVIYkLNy50q8v8wnc7wroO/mIviSBFxhZ6BG5PTdV6xbLDkkqTb
OmAeOe+TAbEPDUGDZOx6fRIVCHFBJMYCURe8iVyildnmcGbmKGVAIBX2UHxyMzov
qvQ/6ipc5SQR0kducRQSOZYtV0c6irLHNG4oZygcw4mczK+1eDU/gNeH1g4v7Jb4
QVB3Pf6wvVmzlMsEi+y/dTUYKvHHYF/rUvASIa7Vk74a6oj4uTF7SaG8guDhShWD
gMW+e+x1kVX1QtYZ/ECaA6F6t4Pu/u235RB9zR+L90GXzVpqD7uUfc4XT1UsJSMl
V2vxUtFqaN7+SEsJoCffU3+C8tawKxPurwvq8drULIlOl3TB21gMPmUyT4RM1Q/5
ClPm3taeu43TsKuwYcoeRCkKdcLa+EBQiJIVJAsNS2MZigw6Jp9v82Ge79T6eHb7
s8Io5enYsRekVbxLhCFp87JIQyQYYuzhDVi4STplbhiJz5qoMleiGkqJHczVatDW
6ESxq7kBDQRWr2cUAQgAwGD+yaLNenDRnhw7jqwOaaxtURhdpy3WsZ4qey7LnNaM
WLYltV8tYNxoSu6KWpGgLAencWcsPS3zOdhs70XTJrzDg1LdqIEbFcJaBsYAWBe3
UWOn0Yiq7U6sKvnx/3wQGBpwwYPNaIP1trzACN4PyWOtu93IU3GpfraK6RmZfiOf
RwHpWi2/BOwGrfQWTglYhvCJXM2N5gBJ2r6cSBLonarXuS72OR7yLbRm0ntzoH9e
CTvGZ+4Nr+1zXaTFzX3C3X1isRzH+IPBP8R1XA9QRh9qS4UUiVl/ivREabsfvzrc
d1pInhvvNt01mZIrbYZENr3CZY/GrDRr+AFbo33aqQARAQABiQNEBBgBCgAPBQJW
r2cUAhsCBQkB4oUAASkJECte4hHFiupUwF0gBBkBCgAGBQJWr2cUAAoJED07qiWs
qSVq1JkIAJtpXCB7UrVT6VusQYhLzlOWJjoPTWjYnfO4JPy0glvkAilkvaDgi/Gz
ANm/LP9SjWfWKg/FoGEN9LcJCaP6hjnc8h+hs4Bwi3z3z7WzxgDGwk+tIj1QAi7d
l3UVdjsVNgH23JqLVTQRBpVD4Kcb8W7dtUeobj3GqmQqRAiD/AqX64idqzPxzMjs
GC62KmtLNN/Kz/SsTx/0XKT599HfgCGLMJVtNuLyPkIR8MIM0S2nTlcvOtyuLjL8
W4/xYJFAPes0bqIvjg5usV1FgbqMbxi4AToBH+Izi3VehBblGG0m/5NT96ikLBjD
+H7sHY7EhEUTK/XTJJZHsFgjhHvids/7rA/7BCdilLNC1AAniplsFxlyLoVMaX3h
Mywu35x5cIDCaFxBJmRqxf4Yenfc1ENuXelPnwzTNlppCv4UHVRwQybozlmFXP9b
54cCQE3D0z8OpFoPXBHqcjz1PTRU4evBqfBCm/bPMg4mKXhEcxwuiaJWNy2Q+uI4
EqUx+EA1trHh34/lIoSGKPxXPqJLquWD5iSAD9DhZikJJjoI8hYBvhvsJV3oy7yT
5/Y9p+V5FmIM2bjjO7FCjgmqG1nDbEJ3hk2L/i+LZhprpOz03jtvqMzpv1CUNtYt
JLlkrw5dW0N6Y0s8/LXgGbRcaMPK9dlkhf+G7N7Z0zOrYf1cCcJVWcX3e40RAPVZ
KdL7b1xqAbb7R3ML6bRz/HfJT4NSK8mzyMZnQaRZaonsSMCYevIs8dr0yDTDoLoh
Cid8jawBdbhGZl2ILexHgG/EzfH374EKuWcFtnB5GbB581rX2M9lMbHXBpi8+Ty7
Y5ljuuEPeMsNa61DtE/Ody38vpjl1ZyZ90eMG2xqNzL1AIw4FYtVfWAhhSdMwwjt
Two0HiNTFx6M3ImXa+usV/HZhOfjRpqWjc5XRUEv4oG+C4uFChU9Zo7bzFiTeZSh
Y7i93KNT44f4KNtnuYAk9yQEY6FFpU87sjMYI26FdQfqwqg0W1F1d2xGtqskN1SH
XJIn8sLGXtCpWA65AQ0EVq90cgEIAMYF1SqYOM1IVS1xrdvd+FM3+YTJ57bnEMdr
6Hy0KLeGY2xULjz0797eEKQyNr1U5sz/mXUP0hmdJ0JYfTQx2aSI4+kOspuE2XU3
mDALyrOo3L6K1SUWUzYvNsXRVh6KIxG4b2KSWhBtK0XwfylSb2Ai2u26q4PXu3BT
TQ+cmBeQsqbDNz1kYwZarCSQBO0IuayxqXU3S8h4UauS8fbYyKccSG4LxZCNzS1A
hZpkUCLZ0slwCwqK4oY9GQdsE/2oWyB8D6+R/gpMVp0dnAjEGvD++PtcOUOvUyGY
98ipH10F0mmMtSH7hUFVuaLTHz3Wfkg2uWmuntP50CmFIRlxy+cAEQEAAYkCJQQY
AQoADwUCVq90cgIbDAUJAeKFAAAKCRArXuIRxYrqVFByD/9yzxHfD/icmZ/MzB49
+1poY/eFvnozkQI7z5bFyepdkm2zmxkUf1J8E7ktjmpFCexRRI5Ki6L8CyA7HcOQ
U73ImCOH8jc8X1DxcbDL28FCvdNQZIM5//3uJVNsUhG5cEN/NR2KG1jBqiQ6E2vd
rQipUzkZs/kc26ERj5WSofrECM8Gk1WoL1kKqt5teZIRC8xQAkBfAapQapyKlY2m
7eHxj6O+n9KzTXeHvBBuFI1OSJljmy4J3LaQnW07JWlb9X1c5Dgb3evF08QiHvIA
t+g/TFRk3I46lBCQmtO8b9IpSFwgdtr1erBoRUtFirsL9Qchua/iZfoODLkcvbmF
uTChSqxo5+E+pIh6aj2Lt2Ujx54yUI63f8T/3eRLFQmi8J/jO+jRDTSjwE5L+KmZ
rrEyGMkXnOuzQahRbrx2g6d57tBO5jR+gG59QcNkBYujUpAZrqQFOlfji+HGgiNA
yxS7TdeDjEUc9WGs713ukNKyPe6N7lFVOhKfR+5GGAs4lmEDXCENSeyUer4GmLs4
6Hy8atf3uAaOF4G0OI/m7F21y3i/yEEym+8b5sZpmr+rPvkTfUIAku92wbdYr8nf
HO1VTkjyHjfdQEV5Ex4uJSdO2Y/0bg2yNBRoMEuzDy86gBN17eqOmVxz9XEDQWHx
JZ4wwH8ZKXUHf4pMNer9uui65rkBDQRYkGOYAQgAvuQ/GFn9ODInxS1ZoFUkrfPd
8WhgrOAbXZsC48145VSeW/cjORDl+IVVwDIveZVjkWwNGecj3q6B4JFJ/gbrz9G3
ZKI+yHcV4txU0jKC24QXDSzAX6AV3TbZVP8vZVjVX4AtcwcVJNiu8Ev8Z7iJbZuu
m/iOZ7uCAUucGXqsCTvh/umLhBjAgkpuh0RQsqpDbpJPZz1lT0E7+nge4Mk7eZIV
UIZhUDNNKOaYsn+OPcVenxvHrKKq8SgWXzI1M5rDjdF2xiTIK57qxExEx62n7ktb
YRmw44U8FNbVAEcqqpo3AeRjDKuBobO2RXPPYctTmx99mLH6WCjbUOZ1J488bwAR
AQABiQI8BBgBCgAmFiEEwUALoLOYnm+8fVtcK17iEcWK6lQFAliQY5gCGyAFCQHi
hQAACgkQK17iEcWK6lSjcQ//TZ/XOl7iFa3AKkMqTKFq7pYFX/BVhDwscVbBM3dK
S4DsNPYbjJFBngwaWrDV+ck+oAlUfldP/i8jHspH1Q1+4kzliZuNCp1Pqff1U+t1
cRtgtJ93XM+94gpbhy0bd4BSN5wfjDqYYUkPKa/C+/P/fxkf44yyfd0rk+af0nBM
IB8j6jmkFmQfGDmuJgYFmVbNT3rXr3ttmellcbyq35Q5J6QZA19c3K/E8h5eSEZk
NZRPRcarrarS3LQy9ZJpku8/7lbI9S+S+SPtxGbIhbcuZ0NYQcjxBBLazme06m2r
NeTe5Nw5HkfihAjaY/Jk0vJTACz1+qfhoEbvwzzMkiW+hIY4dnVqTUuAnh/eIkwm
4ir+Un8P5OT/X+idBmSNa//3VMq+cGQjnrbuakxzd02WS+PHG8brKUJvpi2K1ZFP
fCkGlO6BN8NlTsjvQr0j0utw7dmYfUtcBMr67ARxXulWTra1G54Dy6i0yIwhX/qH
PooD1p1I2/Iv8hNqfZNODEsZB4cV6z3g4mjlU76lCEwXKkdj+DhwXtdC3T70sfTc
awcHDdytn3sEh3EfFfNYlNlKT9+GtvrCON74Ydy0GIeE+y5r1XQlHTLPtVk8Jebu
Ml6W00zJ9an3rmJNiZaIlgxQFEKczwXap6/jrM2Xmq0+xI+g2WQYnJ4udpYHybzQ
GYC5AQ0EWJBnbAEIANr4LyKpN9oRpvGDF9zZX5Jy3bkAXjG9UQ9PdZW7ZmYkGz9w
dkTHaPRUyCOX+4EFqgf2sdpoNHt5KxiDW8bIwTOOuiG4/FmnW2WALcoi6kMcOOwr
Vw/pB9w7Vfj2ryw+5imtQYaVbETkPu0+BAutu+QvH9pEAGE66borOyEL4sGODZBB
f31zXkef+bBj5899o+LdxV4cIfPZpqs4RI7JCZ1ixknl+tf8VvmQ8qsPSMFtOOhG
6bQGqjTx3WTfL3Asj7h2/sVJoUyutNGVgevBPx4g66KKX0tAVQGVeKpziev9VXlI
3Fe4V5nbV2Xiy98moz7/w/QjKbk3oHwCjczPnvMAEQEAAYkDcgQYAQoAJhYhBMFA
C6CzmJ5vvH1bXCte4hHFiupUBQJYkGdsAhsCBQkB4oUAAUAJECte4hHFiupUwHQg
BBkBCgAdFiEE4bay/IylYqM/npjQHv7KIOw4HPYFAliQZ2wACgkQHv7KIOw4HPba
9Af/TjTP5OwOoLLDnshjXJzFRDNXGlgWox37PP0T2/J7opwRfF7UdPf0WeWpQUaF
ND8P0TICh5e9VfSO48bszV009Qrlnw5OdUpjjKgfsNjCiapFBwRh/qZEiU1TgufG
Zv5vOyMmF+kp/b8zY0JSWD4ZFzI+83miteqwh+d5I2p0FxPQRaHSwTv2eRQrq6Qb
Qup6HiUEIJ57lEwJOYIAXITxvAsUzCIAXb+MzMhENsJFaifsdnIkhNhnn0gxVSmH
RD1K21KdZqps4P3JWXjCvYk2s8n+ProIvDyMs+KJk+WVYG+hCG5VxUBOaaJNe12y
NukWORg84qD67RTXSgXfK1IMZtnZEACou7nrgwacq2nX9vQgsuBuh1jSemZSvv8f
LCs62SarR/lT+sy5fhI8ZoH1cZRUaeko/3Ie6VwXgLOYyEEGFZ5KkbsL+jimKLup
bkJJ3PL0dmaQepiD78h8v99Ip08WhkDBbPhCSSU4HVBof7hbY0z6ob93e5G9Rd4R
6fj7o+lLLrrHfO62Mfi2YOPFDiUzgo/O4rLk2gWP5H377Aj1MNLFu+Jk9HmQd7Mf
bgLirLXUnbmtjV5/oVZVbLRNgbKaKgl4jrcwKPpUcl1m388pslHxVz/MQ9Tys91Y
WoSRnT7TQaMoEaYN3NwlUMJs0+dUwF66RvQyQaHf1O6zqOYt3Uip0tzXjtkPkJZY
iaqXvpz7yvomXom5yCuaW1JXdA74GCH3FpE7b4FsuAYNkPjZPtM386QZKYhM40yx
ZpayD9eJVqcKxoVx8QPTp3XHmHoSh1i/EuVm2JmQr595gFryIu3TJNtntqwe7Di8
jrYFulHsjTBnDMt1UBKL6C59BP9K1DNdojrBhP280JY+SHZeV750EBfGeGQm+K9Y
nErBDk05HXv1uDUJCkU2TUAPR8iigYXH6ySA1wP+o4AbJBGYwtoZX7pifOlY2HZZ
hv7jnTeX0NL7EUVxLIyp8F+Z6fAxUHw94yioGVcur6gJdkBQ85W07HjDg2ejS9SY
usxFnJozybkBDQRYnfCoAQgAypr2V8gZsz78MWlXuvSQPyYMmFGdUpQLMb0NdmE9
dS41I3iIiWlyCeT4YwQozySAPgppOvrxFyInjCcD9AWA+MovUALih7C8DaBaE3f0
3Bvmx5PXtMY1oX8dbn4TD6R2b5X4TCg3peZjms39iDDkNcQe3GwcTP3EHxij4Hgh
hg98XX8+5cUDVxivPmdGSjNfG7fXv3o83u2G9eRtn7jIdYxHqTlqR5xHkrxYg+/x
CQKMrPUS0+OlJg8ps4zfuVtFjJ04Ax+eB0Tg/lCE7844kJJhMcS7cZaAu/WYg+Ns
wZiCarcLkQYt9X8BoWgPFprmqXnWiJ9VFlLE1Wo4t3xSGwARAQABiQI8BBgBCgAm
FiEEwUALoLOYnm+8fVtcK17iEcWK6lQFAlid8KgCGwwFCQHVVgAACgkQK17iEcWK
6lQwaA/9EQsMJn3doe4uKFo4pLKGozQL4ngPWxqIhcmszWEAwi90065bjrIcEloR
dmrKr5Z7WWFNoxuxJ84+3c5JU30P2fLMHSl6VcINhNgcX44/LYjQYKN6PyNQyAaf
YBBVyFYiBKe7OMkMm4xCxTufAM0INbzx5tQjn07QnVWnPvr3Hwqqm1NYVPZR9UXu
Vpwj2ADJ7C4n8YBTjfdQ3zrX96kBjmr71LWL8M3LmaS31XAzfbb5xwg3OLBnkY8z
B+3Om4gHUz0TBCapZjPQjl408TN6XwfMwQ7+9EjpTGUmPvqhrEhGhkcR6gcqby7Y
BlQL5dLnaf9dadgE2bTxm1cJGkuvDcOeWnSLKdAXppmL2V450Lenwv7WUaBugp+I
ZC9ztAm3oPddMj0EIHcIfRkB2hIwVIWo0bYzSZi0npvciLcSM1VuCABCtA/jhP+R
ZizRf+JL/7gl/xktNtnoDEmAXZRDKqHaXm5aKwzJ8AJPo0A0JL9pk/k37jqtQ9M7
tI+jfkmy6YLINrNOKZmK5zRhI+zPO/LkvkGDpOH6hlXoJ8JsyEAnaCiXNC+zqA3i
1KevcIz45hG2vbUSAfEXloaKfKuidK7G2HIqL/kaHG3wC2Ehy2+m1X2kHPGIsqvo
HdGg8ROQCRQZyXvfEMeYegTpmgfg0qSr8iI2lICov8gc49fBxZW5Ag0EUVWrfQEQ
AOTpSEGwm+uqtv4rb6ZX6qYXdl/el8jQ3M44CeekGpoJTZCnwFWDcdZvsh5AdY3x
tu8FDdUbnqc66rPrH/yp7YzdUj1Ox+k7Z85v8v6al+fRGt5oO3IkHhcfUv3RfcYn
Wq1qX+7B/xUjNjWycwhleRqESw7rwi3vG5YKZCNfz67i37udgvxLnJb3vATkE0x3
YjpauXGfjAtSqq/TXvqrL/hTBOUXzIS42cAyt/Z0H3UgLdZcK9jeFWNVMnsmNDNE
QYUJ2H6DCUu691umE0x9IL12ksaSvzqyN+q5cLmbInxSte36J37eCYi/Lm1DO1fL
W9PGafnR8b7FG/GEBKIQXRcQ9DF09QhTjlWj9Jx6boHUXXCBoO3c68bskQamUvZE
NM16fpcja85vZm/WfIyDn5ZR87TWCq2NDyLNEq4WpFlZZHLUb9e/VP5zxE3jKZ+l
qxbxoaK6J6mOTNQx+AeyskcTZxypv1s3jTs1VgStWiaVhUyM9j+k7GNFAS+3mHLd
v7E+cbi5NiCvG+yEjkeKf038qKGMCMFhKDI0mCSVB7yyTzEPnWPCz/8K2XnHbT5G
6rlfQ6EXI7N3azQqjFzqUY6fgzJ/Ub95fua72hSUFYBdIZ3+0cqqrWvZX/SryYwK
3VMJrontzSfpcvdB8BALmMvygQ96KSBN3MYtsDQiqA4LABEBAAGJAiUEGAECAA8F
AlFVq30CGwwFCQWjmoAACgkQK17iEcWK6lQg2A/+Jvbez6EfrFbtTH0hFcS5qjpA
S0QHiYYOaXd1ekt99Dms+2aNR+RpBZW0xp/HaQuQ0lJQDz4To0kefpAaoiEyUU7Y
4oPqna4nKvSc7O0sULqiq5yyE37CkphcS337xLZYbHM8gIywx4RAAvxh6ZkGoBJF
PzJHSaTw7oLjFpRer7YLfvnpjH/7Q0CpeLyrPW6O3IxHVw70esKCWBIsqLApGrce
s0Li2wq/PfjbNi9Lmadnyu0D3XFH3phMoBBM+k+9aURh+q78TQAKpdn06I5ZxQrQ
duxiSRvbCoPL2w6jOP1tRU/qneQwuh6g7tcw6M5U5Nm2Nf5pFakt1S2uD680Krx0
OhNKpXWHEIJPq/tgPD67DPK4HGmSDo6t18ch+M89Y83BdbzTd8KKtnG9C8PeaIjU
WC8p0BHhhL3zxTKcTFHeDhA13sL5xbHkNdFAFv67q3nhOiUrz6fGZDKuSLEIiqfX
Eh+iNfjzJ4M8RmmiSS+JkjJyhIpRRoIWj0WedGSdTzXp4me98PVHCJNn8p8zRbFV
Wr/fL4d8gwIGoylAu0CPHVq4c4c9Pjz5tdWO/z8ueF2KV9/2LViUhNUNEu78M/5Q
z5DKe6m4efnNxaau0tyK0XH4QfF/0mRsAu4PkgcFaTwwHe9PDpTgOla5IVNWkG9s
1axbrSFHDfgruSED6865AQ0EWm5BJQEIANgwuk72ynIrFZXf273rUJlbHkQIwt/H
HHzIpjeAXuVxtfMukk1JW6QlQIysfPeOGyYhEG9ACHdXazH7A/8hrSAd4Mbhp84J
v2wGjHfFP1z/5Y+wMG4HXGWLdaPwWG/UVHdZ4/JxYaZ9h48Rs/DYCvdjkL5SkGAm
ReMdHwj2H7OjfKqUfayEo/bHyWvx56TrulgpHtMVvffo9xpjT4syjBC27EScHoOt
Xpi/Bp1OJeZat5yhGIHIx4lolXrtP+y5itoNd4oe3+4bUTS211c+BTSkOU6nfw4x
4WDBWU0QK0UJ/8LxGMwFmnVC8uqWsaqC5OJxzjDYsYFRgHzP3N6uLeMAEQEAAYkD
cgQYAQoAJhYhBMFAC6CzmJ5vvH1bXCte4hHFiupUBQJabkElAhsCBQkB5eWLAUAJ
ECte4hHFiupUwHQgBBkBCgAdFiEENrCndlB/VnAEWuH5k9IU1zQoZfEFAlpuQSUA
CgkQk9IU1zQoZfFehAgAzKQ2TQndbLKIFIj3TpTsTjsrI//b3JYbKCHfF7W+0z5j
BYxBXZ6ibgB3WelpF3P2qLecYYRMCQjkK37IDQI4tiglToNacQHjqCLKAMdeOcbj
7M+xXO8E2DUpZBXmifBdHiqQiR+gREHm6OQvaC6uSbwIP+KCifQMWYIew7qegQIj
9rCkXJU35tOOgHg4xGJYvjORUV2ez1c4peMfVWJJPSiCNcQXR0rde/B70RxFAfdQ
g10rzoFiPfjk5rJgGJbPDCGNl4muny8AVLKXYOpuQRezkzk4+ZkklqORLBrHnEJJ
IRsIj9K9Rq+amypl5Vz2yJI5cbLwLqISiKRFitjOTmkZD/4g0qURKOf0rQXpwVL/
tkK4Sz/rmSSos+cW0PTHqNZfc/mytf+QBinGueTNQD7m9p9GsD9zDAxjBE02CtkQ
DbLri8aQ+7qIc2X+5uIhs/VfRCAapLp7gqRxzYYmQytOETnOUzJilhVL5V3RRsFD
gMnbvI/yXE/tPRhlN75Ltrh1x3XSOb6nvWf/CaHwv12L4hyKrqOz9Ux5qY7BiyGw
VKvpiesSYDSyXMDT/SWxWTF7pxS5ae2U1U4rk2IQv3QSH0yRiDIzQpaVqhx5/Wxm
LKzT7TprzY8KHUU0MdpHp4Ei+wDZPQWwOg0XhaVpjyi0f0CfLnEiff56eGJ9O+K6
cZFkAy00zr/O3k9sqQWWhAwhrdyuzgbpJxAqL1k75Dk5zK2+/EEvEKl721bokfoi
E5CKzCxthXRs8upl8MAhCcZ+bPWOWN9YTxpUJ2AzwLmDKw1QUbCEFcALFqVfN7yo
6eFhT+MAtSxGI/o/zqK6rwC7DEauPVknJTjL6g3Yf/8Jn0gG5Mp9xAOhDL/ZsSRy
byluzzF7ztDJNbj//lUdxbnTF4Wc8zFGJaqTtwf0ZgO5T6DGOfipvHOP+i/QZ9L3
GxjB+KYh9CLhCtKceuKF7Sn7YuO16wl/hA6Up2cIRJzYwisgCU2mp4Hm0abzsCVG
VFlYfoaTORTHMCRir1VzZq5ko7kBDQRabkE+AQgAtXeN/8DcXLmRKxQsUUAk8chR
5AHThEz04cgbhiG0wjpPeEesIQ8BD1J6SqnWk7jQoU2xcWRLYVwSYgIQ/Zw6FKOY
AcWSVqKpy8s30ADSH42BRMPo/0/Usd2feqd/yg2gwwF68rfe7Wk1/HM1gamHUHxu
lMI0ynDMOckNls4DtISpBQy8kV2QKD+4yIlZvCVTTXZ0Fx9DM0CEQHAEtCTWEgv1
aacd8POBr8QA+nMfeWgchzZ0eYG8nIquKR7lLKsNWAtFmpHdn9i+h52mGL7RcqRy
zTvGtWFX7GPtYeg9rpez+gBlG1EIIWn+ZIYGKQX04uGG0ICssTmaGGH4fLLD1QAR
AQABiQI8BBgBCgAmFiEEwUALoLOYnm+8fVtcK17iEcWK6lQFAlpuQT4CGwwFCQHl
5XIACgkQK17iEcWK6lS/WQ/6A/t9vjdIo2UPKf0WkYz7UpwLOoqzURhNWSnCqYjO
+nkRSazex73xYgxZlKUofvGw8jOZHP2dQF4V5X9FQU9uDWSwV12hZfzOBypCU3Pj
wN8mIG9OgoXzFrLeYfK32u4bagIS1G8tjE8nydMXAKbQlk51tDghoxC+GSq/DJf3
4ymD+4ad+4gV8MEBd5UknYzLBIzE//f/SKdvrieefRfKQphVecDYB0R/o58SCIlC
C6EDA5+NnMoKM8X4deBsAqlEj1vhKgW+2Dlq3lgNw95G17SMFe/2V0+y9J/9Dk8f
aSvSvwto5XkMWnqfGx5h6kxBKpKwtKzYaHE3K5zmL4hDtE5B70qrTTGjNypzi9zb
G+q4Kg6Y9gVVpKyKjD4tGl3wbvwK2bAIqLP9EBweeiHdwbISG7NQNlTZhYK8ZISo
8CfAO4Hg+T159HLq9PG8suuCpO4otIsGyWWrD31Szy5jBFY4kjoGb+IWysnnFlcL
ZTId5OK5DLklQw6/thPSkF0tkRH3u40xfVlMxYZtB2ImEookMh7mTy3Orfy/Tqr6
zVU3WGhJAbJvy1b+oeq6qZJSS0IVP9irS2yJh/CECuvu7qdq7cMqnnoWzXbIqsgw
OkrKOXigqMSimwBTOz7RGDAtir+sAHGuUqhDlLUR1P+oynjtcjaQ+VICPW82swZ9
ZsK5AQ0EWm5BQwEIAM8niIykjcAtedP6cM0DvjYPD516aRgcaYMywjoyi+zQuJQ5
OdMMyx11dQjDKssDWToLIJsHXDICcBHlKa3Ii7lijQTqpbNqerzCUOxLMa8NLxwB
geq+5tQKMNkLou67X04zR8sb7XUzk0EfhtjEfA3CG+cLcQYQJrpHhGVHBG8WvK5F
VOby2ViDXXs1cIJLMWJyoVPlcjMnR2I7LSt2lUu703UtBVUgV1iuxPpUE5edhXrH
ulnoWl+EZZB+z8mitCGE2K3s+3B4SFlaD1b00WSRVRhEuGmdeyWo3Xoqkf1YDHTW
sAuv8HyjC9QReNgoFgNPzMzt+wOCeMxKh/+B51MAEQEAAYkCPAQYAQoAJhYhBMFA
C6CzmJ5vvH1bXCte4hHFiupUBQJabkFDAhsgBQkB5eVtAAoJECte4hHFiupUgmcP
+QFnpl1vmBnOj8Au7Oj08BOMCgbXlcb7O2uqQS9TUaeO8zJT7NhfpZ/zCCpJx147
OtuW8uFv5HS97uglym1nd6oNnynr3ZmZ0bxu5Apj6PUatq9z920J3iqrid7BhIyZ
ktQP8oPkdY7d5a3N9D6BFuVZECM4yCzEszDImjqyySCEj9FBlcZP8w92u6QilxKy
JQEv+y3o9V/gHGCTGB8A3lwVHzamiwQ0e8DWsfiYu3lagtTGCuYhGL4K8QgOJVFP
IMJV7CIuN5+f6NFg3LdNtGyV4h68cRZfCpef7pcWUOXWxyRFfcnOsK8Hxy68BpB8
GigcCUVrsPxdNu8/ng22W/6PhQRF0e/aF7i1NQmXvDFzEZSPWTnnRQ3OvH4dpQe0
GKwJ4GvSc3A6/H+o+ooM2iWdYx1yagYjEgg9y4WvDy6wIywdvIKqoDR512OjLeUx
sDzI3MDvTYShIqZyH2nBrcPErOyrxvIQO69J4Djs+uZzSfl2wGAqRmXNHNXXeEug
s+CIBAiY8bywI3riRaBdzNKznr0zEGNGs+JF9jGutalUkua3wlU2tjI2JVdpUNvo
DCJIyaedl6W4U3AYpm0hpGPoF+q0fIZlEL+xPywCutakzwv/qqEDyQ/rxVayITEN
2WHBnUcZr8FJgELc+WqGNSjpoIkT3E4CT7jwcBagREx3uQINBFiePZoBEADf9xwx
O0f2v1SafABcjOqNEV1p2Zh8U9hnMKO+YxkcdynMBLlAfi6yMAVq7F1g4v/5ZfeE
wF2ze3A86sFHO67b1OHQ5IkKBDs2Xa7BLxIyJblhw1Ro6tbjIxFYkJ8dAKeusoJg
mzrrCze0fPuV7ZqQDNFmGCaBIaYKTaqVMdyNO5R9Gl4XGxVRNtCZahz4xvIew9FT
6ZNUTAxI8+j8u5Lo3qTr1hApA6/Pz4ZkjQmSkot/vbcQb7YAtfkl9ths14r4Y76M
v5+A634jq3oxHQq7QUOM/e+2p/lngc5SoX7cHmiPRxtcBm2FnuOJWVoQWu/9p0Gi
EnGofEizJtjyNvWTJr0HF3c+5sJlkXfToeXJQQKLQzVuU1QI/W0SME2HrBM4+MbM
BT9sfUAebTFL/lbOaVIdPoyc2NiFkSYEAfLHRClrShF19APPSs58x6e2cghlAkXC
6+uPwJBaVFsZ6nzhuCrFX4c6pCJGwTeYhX+/PTpsCV63SM8vDrz7jo0/vXyuT2LM
hZ/aeQ14z7GIYkkQaMcR26htS7USpnrAPGasWusnNj6OGDN1/Xi/0ROv3JgXiFsY
LI2UO8CLdND5BgWpykBud8gfmKs615i9LS0YXcjQp3vRzaJmAJT3Xq2dZPFll7iO
NrAUkWvshjvnGGxCKE0i+AX99rilrFLX5WFchwARAQABiQI8BBgBCgAmFiEEwUAL
oLOYnm+8fVtcK17iEcWK6lQFAliePZoCGyAFCQHVVgAACgkQK17iEcWK6lTZYhAA
lC3/BNZXxKsoipua4F8LvJWtD9K5M9QfZ63ebsdsFwQgb1iKXm7sf8AlDlGVfrH0
6+fFi9X+9TN8dLR+mZi3wXle1uDE113tdUYe5dDWZasLHqa4nHWJIMXxqu+/a7JH
hCIoEhl+7d5g2NypzyfE+3e6511+tyTYkzMeZyHZrdq7TJhqQiR485IKq1OcnqkT
ddUgTh90HpbrwJWRIe9tLSlDubfSpyA9GmCpssNZTTgtMuOO2A0WYPkHpbF2PvmV
NxMre+zr9oa8/5iPh5ZR9Y1o+uMS/FSO/Thl4XuKHDQD2Dnvsfi9QyMCkpwLIuBk
TDAvgKKqMz1YK7YFl5HAEhcyJCxBOGPRLveelptYXZptFmDz/d/adjNchnrljp33
leA+nB/Mh1u6XO5r7Fl65QlSUD3fHvFQcVs241vAhEr0OXZz+7J1/nl6Ij4WHiRj
MPXCafqKsm2ru2GwY8InKwGBZvotyRaM+aXvKK0b5m6f3fNpeHpqVJ/a054nx3bk
CN7ClkJG3+MZVUClrJkuHKNQLXlAUUdVCF2Io4qCrVsM+B5e1KK5TTfQ+CGJOxqN
wAUdV2IipVOJPiN5W4vr1POpCt56o+F/Asgj+hoysbN7ai4F+bg0LoAJABarVI8T
2puV+0/KKl41XC59IGbgzFhZynQUK4xkgCJuCOhHGXO5Ag0EWm5CMQEQAM8R/7nV
71/4KFF4668GGVVBE+Q5wQcxH9zPKP/Azv58b3a2PFis3xisZtAjmVIvIZfyc2AS
mbNFz3gtOVUs3UdRaD9jcaR1sGQx2hZRWgMrt3j/XyFhEhmw31FdiUS76f1iFv/g
Y2L0XBYkFmHB18XaSL/Zfki6C3JALc1C21xLi8kaHLTC+u1pKUtmvpxwybBMVbA+
kp2Ql8cjOcJ4APADjax8bwimygcaOzMZokVT11jLN8WyeDBxivrXbuBAwtO2LwkY
zPzBmvR082kRnNfRYN7frbiM3RstdsIAK0Rutc0JmMUp85C8XSqKtqtHgjdDJ3UU
7mjfdD+i3wZtv/Jp3tDeSpkhs6AmPMpL9mpWbsQ7iZsdwPv5wEKEL4Ugu6YMQze7
sgw2B7uVyAl/tC+4q6x7bvXFyf2rBLck7IDrRqGS+8rYYHlanoPBbXEgVTyg6hsa
XL8OOV6UZiwCDHTrf6EhMxahc6gtw88Rezax3bYsH22OUAZhZFXIABG2ILuxpCnI
vrMgwiqEfVjRiMyPiCMnIQfTCvXiLJS+Tgc4ghL4awqDnSHsGbJGUoG69ntJOvLu
B8jLXD0H75e6CcxWRRAwpsBl/HnrG9Hk7RX53mlgGx/YHcBfMs9rL05kM3UR0aWB
Edz7/JYpVMC2lvKpDM9Y4mGBRUnVK3JxTuVRABEBAAGJAjwEGAEKACYWIQTBQAug
s5ieb7x9W1wrXuIRxYrqVAUCWm5CMQIbIAUJAeXkfwAKCRArXuIRxYrqVK+HD/9T
NOE3qa3pfue8M9FxOX1/52ZQ90Pkh5NR/uLfhOCk9+OoctC/OqZ/K5hptz1YgGIO
rODy5GhKcTbvQHIZowsMQGePTtX7hxNUoJATEwIokdFpguJPhL2OEDdjjB4VcApg
AicpwjVjACgeyAuRvo95oawCwlpJj6LlHqYySBDvnOUgdPJ76dBNcgZp1DMuDYRO
wLclXkNidD17CEu2Ing/VNGrHBix2V0fxnQ0ddbXGA1nKBpkG19WaeIV70S9NS1a
FOe4rziAfdrzvVI1BCGfKYSwjAjpFCCJcFfdscokoDvt1kWH0nYB2koNqop47EhZ
Eq2EPUKdCOV9a0oVjRtDh4acXJOmX1yZnjhjRFNKa1M7hOCo3X+nEr17w/fzOghp
CeGNo2brFuXnirI+/S/JOBr26dsK3WvOoj+3s5H5wUHFzf5DZFQDP8Y3q/lRYQpq
U+pOy3qSdsfM2dj3BUFedNXS8Uzuk48DBJH/njGToBKutO25rIWjwzzkztz278yY
Bt2J/96M2bNQAi0bMJasxy4lNWcN2VqoRBFmB7qCZ7OpKr8ys5ZNzE+vl2wHajgQ
atcpEFoa6YRH47SaKD4yfadqjkl9udtsh0s6Uv7TsxePa6WUOxI/MPQ0lC0/0wLd
kzsG6MEi1hNVxay5SdbbXGjraYxIMm7+l3cfxF5K1rkBDQRcUsyWAQgAufLh0RRI
1VRNyd9XshEE+h9c0hQnHEzDzv3sMAJ6LUFqPfAXOu3nJqa3J40Y0lCk28mP3hcU
ttSZwuGQdKSSsTDcCus6u9cC5qbHlzoI7n7ht5LwoMByxn/55AR15kiDR71tNHhS
v5CQWpMBxG3XavA6+HsJqxu8q/HegNwkp/6oTmFoSMTTkSt0laOCKOxMTV/5Y24r
BrIEc7Fr2NSZTeLGm0jRK+2vGGqk3dgnxXv+Xz3EERrH4QGx9qVRooK+yXXTjST1
xhO18zq8eSk8BL9fR+sTXvg/1txcI2XTuEyiKL3Gb3kg6xVjouKNk3uDuTgf9s2W
zVjxDjfDGl4vcwARAQABiQNyBBgBCgAmFiEEwUALoLOYnm+8fVtcK17iEcWK6lQF
AlxSzJYCGwIFCQHijZoBQAkQK17iEcWK6lTAdCAEGQEKAB0WIQSa8SRfOA59zzzU
a4VaxiGjkeSdIAUCXFLMlgAKCRBaxiGjkeSdIK8OB/4rYpf8q8iQr84uormR0rLk
hxzohH/lEB4m9TCz/eizOxZg2m41UpiQ6R+E7DLtewNB0xvmzzAHXomtPqvRVkr0
h2FvA8DYX5G/M6I6Wt+6gaVaYjcu6+gShkkUqBTr+pv4iKESbidONQBCmqOnY4/x
XUBfDldRLVikTvpxNmzbgwnMB5IRz/hRxMXc4SkppyLDIxqRsCECjeg8ZSe3zeFu
1GRSEHUjttXovmpIpwaOCjtLjQp1Znj1NVM68FyhtrEtn/ewPrGRPPb5HOfTbXzx
4aHyNyZJmHsSBerqiwNz7pk6i0Ni7m8sDwAt2DaYZYZgaxufPafrHbcA0JaaB/Tu
zXgQAIP5chjlFCDja4Xoov5f80dMca9kwxOrauh2VnbY1qKnGpMujEsiUCHidtAI
83Vfz8TJHfMzoo0VU55SuOG3H4nahTOsrk9W71wDujTj8qbwUZ3z+ui/8RAp2Xu7
NO616TRcu9lxjWcIY/PcX6SuGvRPB0HDg9JjbQiWs+007oKgTrEMduOVTx6LJoXb
QUOv4I5X9lmPRV2+UcnHnkriuJVa8/bmQfn1BwYHv4IjkrK6haP/X1gGbBOu5OjJ
HW6XO2UMMXpXKT/4IgfTflwHwbH30PKupCMrhVeCC7CBAgiAOJ7da2Js6Yb+reSe
j5pU6k81vYzc22ADaDhQBp48zUcnPYvFIi744U82ijwTpEH4UrRCWma3Ulrkf+07
dsGQQaDU7IDQMAPnBLvklgr3V+7zabAhzIh7XBJlbeUdE3sdSsvOxH13Zxkdpg4u
iMsYtzEHB3s9wutRmtwWnz/FLV0es6665V9tsV7aTSX+COGekWi6Qf2ryF0xVz2y
fAlFG1Q9kdpmf48s2k84IgAQ2bKW0oMNe0EFKyqlKINJx17mhhgNbr63h058gVse
T/BT+64bb2CocOl3SdOp7PtkhXEL9Ab+j3EgymkV5p1vjrA7YZ/OMdWJHxiESRD7
75ojikLBRIgeDlLU19qYXmJmXGXPNShXyTJhPGffi0+kcrkkuQENBFxSzQ4BCAC9
eKgM0zAhNT8Ea2CUSP0UkBgBhdxy3WL420HfTs84NNit5jQhdj4W9XI7GzJP1elj
MWKGQhLQoeF9ho0Bthgw1uCgvRzmvHE5q/VXJ6Pn/qVJXtPUzM1g4LZx/dlisXdB
SEHr9cw28VO5ZNXSKsjo46coZkfD7rer4Lp77iIxifxmqRy/ztMo1ZabprZqMOnj
BNprnE3iY6WqT1gRnMv/FVOCzPMTHjFr/A7UDC+aIMicWdEprfgJ7SM3BfZoldkn
mFwNzhYqI0LLRb0nDe6MC9V4kN1IyaLQqeqVHElYFb9EoCV2w6OTb/OzNorZ+vFT
307trgQcUWKl0KL7EfvpABEBAAGJAjwEGAEKACYWIQTBQAugs5ieb7x9W1wrXuIR
xYrqVAUCXFLNDgIbDAUJAeKNIgAKCRArXuIRxYrqVG4qEACeNGxCZjDhdvLxXBr0
K6SPpXxyRpPc0q4eBeEpScjlVldclslACDa/ML9WmpoNpwKaWdes+JwJxlP+O7Vm
eD/G5S1RvMeEls89w+zAstRbEAU61hi6lpXT4ZAQBqdlR8QziuKy4bkFsdx+c3d5
D12iILxyNxJYlmkDfrtsZk0EiTe+SP1eO0LGj75JuE1XtyZQe5dRYDpkr2Md9WAv
t7JYfPWsoz1rfIRWky5wfTWlvWy4bNxNhEhfQ3otBUVyLd6pxVf4ZxE7Md1+IShJ
18YUkQ1XlET+1ej/89/liH3XVSmZOWSx4t/Xyacb7IPWC0n0rTCf3CX4j15Nbyna
GvhYze5xgGchejR0zYbCO2h572TA2r5gA95SugmPlARrRkAN0Ia1HNnHnadVed5V
8KK/w/w91qPcGIklyjpeHxQodj3qO6mJhVGg3cogsbxZvmHCHjGfMDubnc5Iw7T+
JVigJ+LVHHXMDDk+XdCN6lgEz+MBSPEJLTQahd1WOOxxcBfT7TbjmSKngKrins8s
FHOSqinahFgj8faXy8QQIdxltmX46ZT+gObqSrNpLQ2Tgth2Vz+CCdRk5PIZ30uG
nXvLPRTXMLvZtyZcXBiiz6uQ5yGz1UCNVFEeBUMgKk7SHUqXhWG7x/A+6TuJcS0s
9mcgTJPmiirOhi+TKhHIvDnBVrkBDQRcUs08AQgAz7QEChu9MqYzL3ZGwsxVR/vi
p9mHadjL7l3m+Wb1/miPIARi0zA9xXaVWVUvNyLKVRWt0RebbJdAVMtLXAxYPUNO
P0uleGUnHot2CY/fbBc1WpfaNQjndrp7f3NmBHU/ihw51XLS2F7FOYT7sPFlQe60
LcTBCH6cpu8uqMjKMXoiZaEEk2gEzTstPa6HIZmotGQ0mr6oahaIftU4aOTLTRHX
IrDWajXvrchrh6VGfky/L1vdUX6x/qcqqIOWeRvKKLfJe4qoQYQTOohS4qg/eLSM
kukIkBpTKC95Vx7AW3hlUEDvg/EsPMhufPTuE6xF8nZmkvB5pcHhzHqzx/lskQAR
AQABiQI8BBgBCgAmFiEEwUALoLOYnm+8fVtcK17iEcWK6lQFAlxSzTwCGyAFCQHi
jPQACgkQK17iEcWK6lQZSg//TNBT1wDm+tyZTNMAx2baoME6jMRp14h3tAFzxZ9a
6SU7V1QYsvG64LsPJ3I68V74+zuV3ejgFslO3e2fASJYrtLUPpwr4iQ11hWLCwQp
eYRN61FSyeuUURVr1z8i7/wquBXYeZEvun61IHvhcbKV4mpIbW0+u4gIfpXvrzhh
EriD8owV7tmYNKPlMDNDzAcd6ZGFQMnOCCbhBG9fkdswEHK17hPvjCvIS5xUPaP5
5slTq1e+pBB6vAt8ejOtgd9mEgBbF8VBdFwMs3smqGAWL0d1/iyBGTWDOr6H7UcD
XZl8d249KdXKP1MZx+ySS8gbVP71PcYWElv9gW6invgWY59uj95rDORHkuYaooPu
RhA5FXxFMSSBLkpGCU80jTygxekekyzQPAtdyyOPriHeLmQZ9ps+GhgEhgyMaGRO
Y2vlLE4YpM9vBkWynCbmwPe4rkGUmGBCmnirX6lQZc125kO9K1XwSKJf7EnjIfVe
k2ucaTfcZJG4WSTjsQiiQzSPkMUuctWPi9qaO40j3+aEVvBoWWQRUmuzKEYFyJOw
F8fqjtExNLwn9M321ik8dZqE4b0No/q7N+uwY0V1cmqPY+nF6Tqe3aQHyioFeF7B
chZ7t5VFC/zjUXKZUfP6lhqodXuDDcp4nGViKXC31BVfWoWw10soSRzURuWVj6HZ
Fzy5Ag0EXFLNowEQAMbF4mctcEwDIgRmxFR5FDnc/34kJMv2s0UgV5GXuVz8slaP
0wrYhQF6fKHYK+XL72i+Wn6fHVfHqRqhPoj3t5RgEtCCn2Iv1ZOUOVXEzYkNmXix
25LxjRK/Rld5te7si0KsVRpgLe26W1ecdAVa6JSjBxijUy8YXEbQDDLf1gOVXFm4
M9vp7STJ3iakVEIDpgwyF1zkuKWUWoWM3YkewdcVpWx9vX3fIrRZAo6b0ya38hIH
DmURG2+qulJz+9T4jrnBNutDuz7x6x+J5c3BsF5JdqKEgXSc2yWFQLlzYV0ik3KC
9dsZRck5TpKnou+pr0oG65RF5ZHmWS3JK2Pv7M93gt9lf+kpIyrr4dts7U+iSd4A
HRB/IsBYz9zC7CsI5+a/AnPDT8gTSHLPMgYwFEAEjNep//Cm47jFfLqovAJBOYSt
xozE0EgF1ewDAgZVvx93CkXZ/X7DsRJ6RkbNjfxOH65e/dcTq2lh5sTlwnfV7I4q
2XHfUohyL3ikjw9V2JFKMOBKhOM2a4kzy7Gz61JEVH3i3rZKYkOQLgBzmPt0c+LB
kwYkaX3Ec1HwlMHJs6CThSFfWEH8HkvpuH/DRHQpls8hR/96C2ES6aZvFpZi8HGW
hDrasqzyzxjFn/HFYoSKkAEaTEI0QP18vz+1elGo9a6fsnWFrxCI91BtisH3ABEB
AAGJAjwEGAEKACYWIQTBQAugs5ieb7x9W1wrXuIRxYrqVAUCXFLNowIbIAUJAeKM
jQAKCRArXuIRxYrqVJYTD/0Qw865xbRcSR/MMvtpGstOdoZl///ebDM28rPwTFYf
DMWXQvlmwgtw5tR8w5tAjW0aRyxxVQSv3JiNQA+noszmoRhzo36tfKEQ4a2cV6kZ
bjMtmFsyhYT8/oTKeZZgyXf2xmLHECz03tokapL5vqFRzY1tIekXzpt1jod0rdUc
2MdtTKtxAXpH/Vd1132x8XFNYE7F+u4rbPHIfe1g9cYwQdqc8DsrRn/rFgWfWYhf
nnfwsoIYM7kGGgxtKsde/nF5dx7F3+rk6O7pFFQE1QkaJ7VkMTMVvDp/SbUtYM43
FAfHrq3CbmlrqBtpPwoMk8TjQIyGkeP/KPnFZXadeQSZKX4skxEzvHhRU/+H0q/q
XboJOCVz8upNNV3hzaP3tpabKnhJRzjCXspWwSwyYdpHQXpCyNPTUM6q5jT1em+i
OkNYYKPU1NIE/UOSzOA5QFZ06sTtFfq0gmcYlYn/X2J9IpHzaiqpvXO2lepODrB/
lRmXaMh0lZmmL9xqT/3Tfa+mw9jyiUStNzwJO1NxKl1y5KaHFW9DJNBZ2r3bJxHw
imN+uP+hTifglQ5Gcb3YpmQJfcqCILeCrdDbtO5DtWxafZ0G1olOQC8ZHKAw75zr
aPRf5YAewsR8M1hApZjc7FwAUOws43j1yPKfZUlF8ljxfrKDTBOgC1VpieCppek5
rA==
=Hgtw
-----END PGP PUBLIC KEY BLOCK-----