pub   rsa3072 2023-09-20 [SC] [expires: 2027-09-23]
      252E39C3640DAF47B32D56A8345DE8450DB7624C
uid                      Frank Li <frank.li@kernel.org>
uid                      frank <frank.li@nxp.com>
uid                      Frank Li <frank.li@nxp.com>
sub   rsa3072 2023-09-20 [E] [expires: 2027-09-23]
      6B57A9EFD32FDF9F4ED52A874D5B0FB6BD364740

-----BEGIN PGP PUBLIC KEY BLOCK-----

mQGNBGULWP4BDADUf5/dUgOzlcXAVFRebzH3/c8SwR95Aadlhws2eLraXjlXH/Jk
rDyrgxNv+ZoJqWlMJS9qFQi0QmkaBFalc30dXjPJi4deAxSm3VAIKLCFr7FfhHWg
1CuAUsMZ9pC5vfVowUABLj6fh96nJM76TuLEPs1dY8uhIrUz0HbKLbnJVjjCYhHb
jmJgCWb5N4SHQtQywQ9mJslEn2e1nnLezFNjvRJRPRXtm1CttXXgwqyOy54HQ0sB
SdeMhncJ+T8VMY4kLlL4X0Fzq2J2cEuAM/QZu5t4JciVP+T6h0+5PsVYmt4KdOuG
PznxUe0ThkfFEeI9t6+u0xpM1iwutSrpCT+aCs53SDl7rXybol+f5A1X9/XN2fyE
oHpLS5jKSUYSmOFyfYFOn95e2U98DVN+636fmGtPGUKg+PVLw/1Ntj/evb4dnzaa
vzEZzi/ett05H0unyDs37zbBMaTQWAk5VFJokFqaDb1cxYElYEHP4nW7hkELp/Wm
fRzIXf7887aKjd0AEQEAAbQYZnJhbmsgPGZyYW5rLmxpQG54cC5jb20+iQEzBBAB
CgAdFiEEFmJXigPl4LoGSz08UFdYWoewfM4FAmUl9UEACgkQUFdYWoewfM4hrggA
tTUxVRLdpMMTyDKvxisZv1nHM8XtokB0QOK1jbwV3dli5Ju8EEs/ctTnoB+9gZey
ALzX0Z6cML5rvfE/Mqbh701z/49XMvEtdfNdg0LRQeKxB1GEVnhMjROlLV4cQJWl
7C2gC7XdCVzf+iFQwbTjMizrS7bL2qyCTGi8f5y4+5zGDjedC1C3ywDQ98tzER1X
IYgogxCbSpAJhQIivuIfmcJqzus/EKE6Lw/LYFF/fUoQOvaxH7QxoumlGFMPAPpz
0EKuJaqLygFPgqOIUYZpHGu0J05t/7iRHObbo6og2oNbEv6wL5o8Q8X+xGvW25lo
iITCuLm9mAAG+UAUQwxkn4kBMwQQAQoAHRYhBA2mVGZhcURv8DU4a0hZKYFQ1nG7
BQJlM4KMAAoJEEhZKYFQ1nG7EpcH/3osHcWq65BmOoe9cbcbnq5CBWy3tYQezn8U
xX9bcert0F+0gNui9HRrOlOA9dU5bLCM1gsZBpfiW8ed8Sg+c7fanU0rAvfsNt1T
+0UG3AaVODgVNYd4AD5M7B1/pkfmFA/cwPfP06Dii37/wrgSRmLeJl8/FAPQS5oM
B8PCFndZv+yQ3TgDLHZC5ZbqxrxYNGdqYv8ixYdcmkBN0xhqc9nxuwVbiTP0XFFg
gLepxeELrswsBpQBXN4926KZ+3P6Yk/RDekBz8rYlWk+sDWAIZkSe1pPmBUCSpV4
iD0/kDuHmAQJTL/ko2h92iysRTuWY/5MnA1ES3wsYPnuM0W9G4aJAdQEEwEKAD4C
GwMFCwkIBwIGFQoJCAsCBBYCAwECHgECF4AFCQeKGGEWIQQlLjnDZA2vR7MtVqg0
XehFDbdiTAUCaNMLGAAKCRA0XehFDbdiTEjGDACDSw+kP9PQi+0mdyEL3pEbZc8o
t2LZM5VbwIFHKtQqd3fNRbBzWiF1mT3K+qHQ3ZWh5TZqUuVTgciejZChj/vEPj9U
LdmRafqhufz+VqI/AuwPuWIvmYxqfhfxkLmcdFUWzorU8pNjeXbAw5J5EUAumkcG
Ah4Gj8s9p6ojK4LLTA+swUipzOQjIrYbrUGm7SuOZ1L5rFsTxaI7dMX37/aVhKsb
TajQ/6RRgtrN0eFhBy8x44OLJ5QEdI78eHzs/w/83Odbl4/C+8cpEXS55EXxL+i/
TfAcXkR25Ar/cds15lRJhtYBWuafwZ1RF+YhdGd96R5C1hT7IASuUfKskJ1NJ+If
pT+966YC51fapaALLKlDSD4+X/zUg3x0HzGajtfBHrzWW9x9scz0WgjWILJwVuxx
70yEQxR/e17jXigGf+nh8RHs47Rr6A3c/54MyxQdE2r4vRM8ousCEsI/BYIXfbNL
S9nxBDI0jDWNVaZs2cQhg3a2Nh06YxttPFxPRDaJAjMEEAEKAB0WIQSb0H4ODFH4
1ZZ3t1Qbk0N9O0FimwUCaiZ+uQAKCRAbk0N9O0Fim2Q3EACAFmzEZY8CcnUEDstJ
eei9n1/XSkY+XqqlmtdOoW0el1hmcZblQef/eWzHt7QtjGcSR8eJ0BJhLtuGqbV6
pELCK2fup/nC4HgjrgypnX9jVyiiDZyeO2Hj1+3UAe1FEeAX80gseAlgNBlFtwoV
G+F95rjoQuFFUuXfLRRLNd5Cv6MT5x+d0U7b6fULZIVynhJXUT7jMZaNyeOtdpJb
5o+D6B3KFr7JIeSlt2pzHpPFlLiSvPxmA+oRWBGGn/ZN1saNyVdaVXCSzln5CtLv
NVZ92vry7jXV8gsyl1wzQmyhUXEiwsNSChxOIeg5U6Xx0zQ2LqGe+vWZRa+q3pPf
MAYvCuUiK4jgf50VZldGeGJOTUau7O1KTTM2w47981fgUGd0amxG9x2YzR59am/M
g/f9pXpxal1FgjxF7Ewys70z5h1VDiDgMVXM+9zzgwDGNhOCm4/HMEDwmH5vZV/O
du6/RE/q1wpC56AU28ECilO29V7Xky2WB1uPTuB56Mj7qNh/MEGpTfICERqGa+4S
XLg/s0AbBkDBGTfF2lIhWHx3BEdmVMCBwgVTAKTj0VvUT+d618OIlomvwJcDENz/
yN/ErAosKedcK0IlWEj+5U4YlksCJccM+xWYOObww1x5YsPzU6PopSaASkb8Glq3
9ZAeeugLPwr3RtaAfzWSJ5KyR7QeRnJhbmsgTGkgPGZyYW5rLmxpQGtlcm5lbC5v
cmc+iQHXBBMBCgBBAhsDBQsJCAcCBhUKCQgLAgQWAgMBAh4BAheABQkHihhhFiEE
JS45w2QNr0ezLVaoNF3oRQ23YkwFAmjTCxkCGQEACgkQNF3oRQ23YkzMuQv/Y5pM
weVNSDZlfmqiD4Sczj2930rcol5yU+QHAK51v0b3KK7SLtCcW/vq68MleeXKn5Hw
JsSr5/IkDo4IqQjBUj0iXDWKQQs7sAqcDo+XbxsFsH1oAwwmdupeoSyJ1fpaMIpn
SoxVxlV30iwpIkNxImrfGJqAelkq5vyd7jJNOrMQJq/8gFt1J8jD84a/ZOgnzioh
dyyBC/ItZwXxVC9rzbn1lgF0sRKgw5cmHY/3mn4wPef9uVksQEqPKQQdc0D5LYFb
Ld2b4rhl7L1O2XcPIX8oei+kBbr+G92035HtoMG+xyfnVqn9xK2AvofAHLLdSw4n
NPBfUEl+NVl00pVTPOoYznktP9gVWtvu1xWjg76MsL4OCpDSFeDNhBuo/63OO0Ol
lhR74aiwIhweGda/0TbXEJbDqDZTwdxTY8MYMdC/RVHNSuZGR06Q/MHY0vlTLJyl
hhxmiWJf+/USpGY7xNjCA5fmGpUDs+UBREvrglr+GBP386pvbmJoCQF6Al7viQIz
BBABCgAdFiEEm9B+DgxR+NWWd7dUG5NDfTtBYpsFAmomfrYACgkQG5NDfTtBYpue
DQ/+MEJ2mtBJ4lpKz0Pz23uWeX7/KxQGfuSEtEwo5gwRWDHyJjrMP6VUzc2UzJbW
4eG+m9ucB7Lfl8XXwAYwxFWqkvcdtINrRAI44PXSoJwjOpVGENGYmUyKHdOvFCic
ZMvjPFIUTFMIJ6NXi7hx1IrivyjRnrslxlubrpTKlKclwbfo6VhRT3Lxg0q3Lq16
FSM4T3ZrvUqi7IwC66IO7ggfFrDLWYmNbRryJv/bPXuutSKCphh5LyvmO/KgODF9
g4J+TzLtIAivnuaIzCD5Ylw4N8wwpaLP+3TjPMPpt6YC7eLdZxE0UD4YDbU7Y3At
5v8fA0hS3DbWlzvrwFBzUsrZFBxCgV4AjOeC4QxGykbo6j9ltpmcupzbtIWH9dEz
z26a04/CQ+FpDtGGOl2jew1MCsOhTwWmpV+WuWatAJXdqhVqKw+iWSQq9TVvdOrB
mj2wCA+6rbYtkzMZTWsxIgtYjASKSN7cmd+WP/Z20kMCLNmUQkWM3IGt4tt4zUjx
5Cwsfk7/xDG0IXbKMInKCrHw1TsH3uuFpI/7g6mlNApA6ytyeqh5SuLZI3WTtPjZ
ICFr4dv9qtOxjnGNVb1Y8XU+1+Td9yLlPWkP3wzpXd7w0bNSZVuFx6G0V4c3w43C
kVCHCzZt2xkJs+KZU3ML28F8J6r1yPXpuovWBNKrJy2U/La0G0ZyYW5rIExpIDxm
cmFuay5saUBueHAuY29tPokB1AQTAQoAPgIbAwULCQgHAgYVCgkICwIEFgIDAQIe
AQIXgAUJB4oYYRYhBCUuOcNkDa9Hsy1WqDRd6EUNt2JMBQJo0wrBAAoJEDRd6EUN
t2JMBEcL/3PZlRfbsvjgc9nYmAob909tcbYUYorKqHq5vmndZg5IzkFU26hejM8W
KPxwv5zGzWwcVpfFXGc/tiRX3XA/P6y35UfyfNujBILCweIgvJMSpLdGo3WIezSL
FPwAoQD2VHwthkOpSAh6w4IptX+yzu1o5yfQc5LX6SkZCLTjXdaqcPqE9mqcQ+4G
rLky1P4CgnS5FgJ2UzAQLgPCQLFLkiqvpYwP3x2qgneburIllBq0EHwA49cAPSSW
eGQtkC//yrE9tC8GvVtHWLmwLWN6ZRrQuKDTtlfbGheOydw128H3K+T0OxNbjlBv
bBMUeaura8WtxgFJ5Vwvp6kyAIFm+f3FilWXRGnModmxMJQjVuXV8oWi9WMf8EsD
6nMCbvOaqI9QKrNkAH8F85WlMXttlT+I+rQ6pvipXffMLTNcME4H2i+8YS+T9SEA
7L+Rwkp8jaqNows3szJHvYLNdfZHurPKCVZAdqDtSCilabcYJMBgF1mFiGUPc69o
18rardFIXIkCMwQQAQoAHRYhBJvQfg4MUfjVlne3VBuTQ307QWKbBQJqJn66AAoJ
EBuTQ307QWKbZa4P/2yEEN/8HXdofPNp3V8uUB+mZpULPr+idcATu4jE0OX6IKWD
ueitmWNmKTj5abtaK0F+GdU98+9LURGMzcU3M30nmDBiR1Ddjp8J/iskgW9WBcJM
PXUi5+/sIdp3anEleNqXxU7SmiNM+oXEPo4ePYdjpYR2Hu6HdvgvM57hfOaM+ATe
/pVw6WJ4MGKULPKyQz/+q89vjqUkFiI39bViFf3l8jmgVoJtl7dm/s1IBZc8U0Np
G8vjUE2xB+21n1h5L2064RcY4gzegw9rG4MMkfCw5CNavWu90h6DvyoiyNU7ESmL
I/FrqVtD0h5nDywmFKiPebiIfnxcIyiKhJCe3Y+hLyARzq84u+RetLjqtDjgSMTa
LiQU+JjwuHRwpoi2FbLaLUdThOFUkQTpZJl+F7w8PP34Ky1rUtH+NtD+kdEEOwlT
ul7nVIq+gLjJgNkV26VMsZsIDTszJRa1YTp4RjbxHdkhoRF9+KYWSBlbbfFlUNKf
/LS98YRn46Xhc4UiWw1XjIdU+qsTHiKPs/fxEqTt7Q32WNGAjJKzECrW8aX/X536
0+03MfKYjm/bagrYfXaf57C9OcnhL0GyJS88Cr7TCEu6K9hzD1xNe3ICKQmX/XAu
3mvZlIkKN0JHXtAZPDAZcmitIyIFWQVwwzI7LfnvhGxKLA9uLabztfqTWMvhuQGN
BGULWP4BDAChKhyICvc53xxwfyI/mF6mGmMDJtVOobqaiI6TycrVAniYp7A9YJKN
vsSiaBaNSS1hWWDe9mgp8WatpkQnxeDcZH24rojRLA1TeOv2jmm3uuZPMFWoOriV
mHkQQaJvQ29pjrBVbYHjd8MmCNBqJ1ib+O9S2lkCNzu3W4z9i6gpNQHxBQehhIdW
eQI1H5IfOXzgwDp8/y0E/uhXl66VO5SgG4SQGI9b9ol9bh1FueYIJKbX7qbetrIn
80B6OnVNC6KrzygqjvNnXxcDNrQVHPfQKJN3R9FAQVpgETPrv1s6FJHCj6FhHdCo
W4PKvGtRImxnTpdahpdhdobw03KZWg1uqdENutuQX7do20ANS4oaJJn7wcdNp9zV
tJJ5HqwwbXjpqPJHtwH31AsCZFkDLrPZUM/IhlVsbQHRQo7geiky5JmiHBJtIGCu
RS1o7O3pXbFayHEVZpiIiN6OOenHUwaBPMc6z70w8Xl3SyzA4cJoIOrWYtE4xcPV
x+3j4IH7+LsAEQEAAYkBvAQYAQoAJgIbDBYhBCUuOcNkDa9Hsy1WqDRd6EUNt2JM
BQJo0wtzBQkHihl1AAoJEDRd6EUNt2JMB1UL/jm1YMVLYc6jrg3ISVV8ChspSZVJ
dSs1u/fuMsN7S87MQ12kZHUpokRnb3YTK55lhVCXHHISfWUQE2pPwEDUDJ8h+ebL
G3kNX+ASQ06qyuxH/B6jaVVcqXB/cOMG1F734GC7FQUuvaEQlj0cofrhobn+MWK8
Mw3LJpfpuF/EbX0VAv2T98c8qNVvShbACtVJ8sZmfNlxl+mMXbhZWzitHTcV3c5W
QX1DBl7Ejv9dumAudusq5vcT/M1fCsIOxNx8hyZtvH4dBCP1wHnY035Y6E/Y8q4a
F4kGtaOW4CDfsFHeGTnUp0rPc7KRWg/3qfSavl1Q+IZ2qPoJQkwbNcanvKg5BYx9
0d92DDPra9jKKn5GmZ0E9h+ybLIopk/g5YsIpuw2hJBNi6EZ//sddkCAquQtc6g0
kNdq5z39pT01++AMEQVbCUq25q3hliD8JPOmHbgD/9XhMDpNU+apNoXXdaxmtAXy
Ysunbi+nF8/vC+Tcq01KC/4xjzGrFUlD1KKQfQ==
=ga27
-----END PGP PUBLIC KEY BLOCK-----
