pub   rsa4096 2024-07-25 [C] [expires: 2026-07-25]
      1B6F948213EA489734F3997035D5CD577C1E6010
uid                      Drew Fustini <drew@pdp7.com>
sub   cv25519 2024-07-25 [E]
      0A3926DD7889A74D12B47B72FE91783E3ADDBBCB
sub   ed25519 2024-07-25 [S]
      B2F06ED0A44A55F5A09FE8B6DBEC2CC3D928B10C
sub   ed25519 2024-07-25 [A]
      A8EB1E80549257D5AF33CB0D4174FE1BDDD8ABC8

-----BEGIN PGP PUBLIC KEY BLOCK-----

mQINBGaivBMBEAC1mJH/52lpo6TGhPPHru2IIzKhdCGQzptK/1y1S/ldOb6pqX8R
XKpE4azZRTVUKqUpqTygCp9JsU0z6L6SO1QaCpZ3Xpug3QTtW4o8TDN/pje1xqKt
gvbgp5pMC2XSmyQuLEhboEoYJ/9jUb7OUCVJNYMuHAD7XiJ1Pstje2peKxyo+YGG
OD3gHdQ0O2+/bZzT9psNRbkc3X8Y42KIidfR9JmuvoswOoe9j0tO0QRzHdiQ5QJn
+XzLfHTaYeXWduFQwKZkoKEnwOm35fZYB1P6b+h7ShZhGsovlHadYLtyt8LvLZdi
Cqbpkm15RwbJ3gsjJdJcmtHiKM/F4uE7p3Q+JrYEQ9hyD2obF7jgKX1NWlsFnnYS
ygecozF9OFMoz7+iyBLtDIgIX7unAgbtrWngzk+PxgBHRKeNuFLivKgIxSta4xKC
O4aTX2fsmxRwL0ZfkPVh7hrQ8KPWtiBR47NeqErgvDKGEmvRtJ9poXxn0bc6OwXn
5biOFCq/CqJ0CujOPeYW6nmbTHHwd+RuztBE9x3aUQ+0GP3vRr5aOtiOQ9K1l1/q
i/UokDqJV00FWYjsDGKeNsTmC1a6VPhfP4Oo/IuVd/Xrnef1e13mgXhTKWoFUNvZ
D9ZEDCJlm+V5tOzgMMKtHZw9uDZJJ2XiECYzj0mn5YqmsLZK3m+b7MDbJQARAQAB
tBxEcmV3IEZ1c3RpbmkgPGRyZXdAcGRwNy5jb20+iQJUBBMBCgA+FiEEG2+UghPq
SJc085lwNdXNV3weYBAFAmaivBMCGwEFCQPCZwAFCwkIBwIGFQoJCAsCBBYCAwEC
HgECF4AACgkQNdXNV3weYBAolQ/8C6bfrrGGaxIBzmntfJAyA4unL7tivVvw0kI2
2wQ7KPiZNEY+x8InIFI54O6H8Y7pnwll1NK4u+YqDxGJvlsCeGwzBxt0U8oGxpBG
JnGUZMCNQnVZWeAimB2/HhlHkFXkB6MBXCg/cQfv+AO4h6nJQd9dc2PH3IsyQ9Ud
rU+zhKsWbF4p0kDh1LnFSkU3Src820aBS5A4WgzUg2lXiqByb3Kaf1d4lcvoqWy2
r6e6ibzEXc3BddyCiRIapmSyEktuH3/rfBMuDFfhNEQZ8/NLOzgjFp67Q6ld1OHg
EPVKlSTCk9wluFUHwvJoAOVsgnyAaBlPzwZVnV4MDZnmZwlJlx5FHePUa3YX/ofe
m/K2fdZczx9cEs9Uiko1V7FcnRO8nf0SuD6MqJ+ugE6cz+dADUijV05BODQtXNVs
ok3kIZ6AClTtNuUS80jY9uZijLgoViC1XKKiEDcWja8KPRKYA7WVERl3E2uU/keK
6PfWYCFNBJQuWeR7kDUGi8lQ8mmeexCoRxdCI4GCNsI2mbGd6TgScbKXNtdKNiBQ
xqT/s7nsqz4ytJqcBqt0WL+IUmQXFdyd4hcdl2/pOuvNtVz0f7r+iHe0JUV9Mxcb
zeG5V2KZf0PaWxmPFPd90D/1syBbDTIFOEwdc54lAl0v58X1M5/EnZ7yzZurSXX5
ffHmQueJAjMEEAEKAB0WIQR/jVBux1nMV0DwR9ke0pFqZn2IAgUCaDodfgAKCRAe
0pFqZn2IAhbsEACUVBX0Y9o/el7yiReTIBbpnbJXTfrp3c6EaaCnMs9D3yg+Zgey
3/U27UsS1GvSwi0fgKR1tPuhuYeMSvMaw8DicUQo6jPb8NbW7LVAWYmewfDqGUCG
MN+yBP4hwP8dL6ySb9Wv4Xz+sCYGY0yQ/FLrXS8KWPJ7BL1zqyV5XfgejEVefHop
3xrZ8XdtohcpHRW7saTFs/VfG0D5CUhijRBP0lRi4XCaREf5RVmjTBzn2WBLvwCJ
VkrNFHISc0AxllYcZ9h04mmlPBHTYZQztWwGf2fzXOJeTFgU8NgeH+3fQT7AJaTm
6zCtG3br5w6Bayn2viupiRKoFtIU0wEci8PPuQiAAtFf5JIIUeKPznXmjJHKJ6vd
B/0+N+nbZjOeaadfRMoCuHVxQgHb+AlaiyaPjiu9kn/HewxH1sjMbzs2mVdKfTh2
KTkt0eOZFhjEnLQEqmbzruIMPRGWug3dnJJ2AmmQ+a6ckyGnmBoN8sn+Ch+jKMNe
MD4/58Won5Q8i3FE/KB3LHMpC4V0MjznQymgDmaQyCXGy/LV369WJDknSydNJ0fM
vr+SWUWaz3F70K/CSqBWsqdRHlFsVjJITc7nmWVdZKRhiRFxDRGWIkocdFhMl3l6
CjDlHd+Hp5q3QshDVpnHDyXK+UvrIzyMUanL9UPi+2rIrR7V9d15xog4GokCMwQQ
AQgAHRYhBADOdtGDSWDfzoht+O9MoVAsy6tBBQJoTzk3AAoJEO9MoVAsy6tBX2AP
/2QwKIAb7/Tu1d0gNBx8+oX6wvah8+uMBWzoFMZ3T2EBqj69JcPzpripcHpr7NUe
JEOZZbQ37hKtcmaEbgMiqM3ylWA58i6opp4go44djwpAoUtmlJtqt2grh7mFxG2g
Gr+1yJ1bFzI4mZ+zVV0hYMWQGp2XHtIQo7e5h6On85+26nEWKOjnpARRt5Zl2Ze8
lDSkXpbjBK39n3uF47UCjXa93ifqE1M69dYC/wYfaDb+3eiIDdIl8BI6IFvjQagW
1z/vDDjldbla15FaztUGugJyoiIPTmJnZ0eYxF/P596ybt85eM9VQJbOK92Q90cp
kl/HbjMZpF6DGj3S6ZD7STxujB94/jXpUx7lRf6a79KGiJFEeonlapJUmNOf3JrZ
UkbMssQz9BBkB2o1wUdBxmQ18Xlr6w+A6/se8eF24OLZHA0i/+0Cn0dlug+/8/BC
IBiL73l5su/lvXZbJb7sCz6X1Fpc7hmF8Q4lySV8V8aRLLoj7HEw1gGSROfei0AM
TmDPQzNL4J4em+xj3SsfiY+cS+/rFd9zFesXz161/7nU18sOqqnXYXYOgNck0AoJ
aUFVZUzRK80uhA90uXPMgkgtigwf5CtMDnMGf5MWpfcUR0I/i6ZrLvJ92+imrHF4
QI+DL0QJXYScctWhsLDdrOHw+6xwecRU6rW30rvnrooouDgEZqK9BRIKKwYBBAGX
VQEFAQEHQGJcsj97a5KvrD5GwZfor6JOY3TXPyX+PbbiTe3XcmlMAwEIB4kCNgQY
AQoAIBYhBBtvlIIT6kiXNPOZcDXVzVd8HmAQBQJmor0FAhsMAAoJEDXVzVd8HmAQ
TdMP/3pCbbcqOtfWdMc2vtxmPWJxyQHoaFuqUeQYm2mK5fptG9RSk4tyAi9KCVdW
iC71E/a8UYyu2qTZyNdE0UVBzL1NJWTyy7ibsBpGAuhS69m8loEG9fb98S0iRBUv
1G+EIlFAuGsdXilBF66riMNxmBP9YXi7jmxc3qZOC69m5hqcgpP9XbeNjSaQjo4O
1cQR/hd4NQWSqaY4r1y+5o8DUKVafai1duQtNOSX9ebyQdVv5iyswUOCi+DWsFB7
n2j4P0EnX2Pb6/b6vPQg36WVBtcCot/8bW3owmGChVwjfOxT5xhCKV+wVQ+fsduE
9O8X20i2abm6koMHaAdbNBlTY1jjNoWsHQ+IvE1J6rsrOG69JNbuUfbTp75+2Ht2
hQtVQB2XffI8o3WCU90UdO/pbCju6SUGmSJ0X3c3JqGm3OwfHu8knYEhtAxyAyIe
tNiWFFknkIfXELenXr/QVFWTPdxJnZKAgIupm0hXAI+YBXVNb7Ltbwm1vaz2INOu
pDYOS40peBHE8hEGW/lVekp0X1GBHQHAJQdn8J51Pkhglj+zVJtIyJBa74MkKHIx
q4PnufSLMp/Mss1q2lK9N6jb1xo0YIzlkvldF+qe+U3aQoIzTWUDg/BxIBweeimC
B/rW4wc7JlfTICFfeBUVPL723M+WUO+6CbKUeIMNjn+z30rLuDMEZqK9FxYJKwYB
BAHaRw8BAQdAE4hbbo8sR3DlVtWrp6aHsqLzIRWUNGKxkBBi8VYzo9mJAq0EGAEK
ACAWIQQbb5SCE+pIlzTzmXA11c1XfB5gEAUCZqK9FwIbAgCBCRA11c1XfB5gEHYg
BBkWCAAdFiEEsvBu0KRKVfWgn+i22+wsw9kosQwFAmaivRcACgkQ2+wsw9kosQy1
kQEA0e1NN0KQo5XCnsS1CNucApLCVgIcFJ5KM+NKgpUl5YcBALrTxQxXNCTBSo1d
teH+JLrCR0tKGDBER1mH8/OBJdgHuT0QAJNkiaSWmI7RNSm350385glW30l+2Yux
fxhld10U8PXUaugogdf+ySza5bTatPeO//GMI7iMdITpXOfdh7wvBqgkjHwf1Gos
lsqSa7MiSfMBzUHL8Y65R1sJ2szRmK/Z0MXke+3sQ6qR8ODYoYDZo2Y7HR0O+IjX
EGL0uvFDDBGPBiYerFXF7FTdhn2t8cf2lBlLGJQyoeexV5ZISEVPNfhMIJT+dTMV
c1v+edYgdJgVymmZdUoSYEHBVaU1d04WVntbd/c7DeB0C3/Rl85oU6UMNdasQn/X
gNEw3FYD1U789pTqfKbGj6i3QEHVTMcxRmoXl8/sDkbM/d8WHv5Qds8Srn/Gg5Tf
l0GYq6UhDU8YR54r+wCm9ChS2WGoOe2dd65XSeNwENgZpPT3dO8dRtIobXapw5OH
5znK3nWCmqhq9d00g4p3ZzUlBhy3vWkk0q1ba8lCJz99GpoRqsJTYa/KWv2p6jXy
hd8wwsGN2QduaBbWZtHLwM+/Ucr7VQKZfQdMsVlUI6x0CS5gxBAaKZlJ1kq8BX8V
UEfECUMBakmT2h7wfpxK2nvQdM2HyzU268h4E5m/DYuCmFHou1vn1n9l8+TYDYaG
9LQTqcj8RxY7ahNvlkGdovBqHksPggmSisVkOUWbLf/WZ+bU4sbfEYjN+NtO5dSU
QqlnnZBdyijouDMEZqK9KRYJKwYBBAHaRw8BAQdAFN4PaVWGh6ICs4zrKdgUWnvl
HJb2aIywNR0ot5WxAymJAjYEGAEKACAWIQQbb5SCE+pIlzTzmXA11c1XfB5gEAUC
ZqK9KQIbIAAKCRA11c1XfB5gEM68D/sFIpK7G5o1/V5pxca8J/clisoZ/qzCY23z
8uZoNN8VLCWLx/fbgXCTrsfRw5R65ffDP8/CszSgBFx+5MfIjU8DUjQSQfeu1I8A
8j/Xs8PA2dNvEu3AHBSPT4qSUfmGrr3SGIemBh156cJb3Nd05JiTYXTiaIMZ8zds
TDLcdJEOpFhldJsWU8hQq59jmUYAKjs/LsRAqqGiXgeXm8l2v7m/PWtLHUXSMZDM
c8KLY+ziifkT8G8DlnDtPrE5Ypmy8Q8rBWpU9GqXH7YhFk5Yg9Zw6DtLcjbB4Y7K
5bBZ0GAPks24lj6TpVrEB26TR9zNGNSAzNABbo7xJZuNeVW0yoiI1BCpsqxVeUGC
wg9LmmTvLD93O32Q6dbPM7pmUjyVpdu85wUbw1O6a5ev02Zr6QuRx+e/WLdSylHm
8LYwk0zgyTI48dtZH5w6ltABSFwJnJX+hJ0U83oUzvwOCFDirud15zIxyRckq0fp
vhUdBoR6jFqhCAQBGDuzCC7UPnlFwDElmctR/BNTzCx3qX7Viqrx2Pj5pLJgODjw
WXmuo0ArU25QhXO3Z5B6cYMFE9SP1BOAbxHwQfQREhWNyG+EIVRkeqp15P6+VsvQ
6czwOA9lVnxtTTDRakNAAAj0R61G8ewGMKDJ2J5DA3Pd2Qrh5b/0nC/dxTCb93bE
K3GsUMMKEQ==
=49ov
-----END PGP PUBLIC KEY BLOCK-----
