pub   rsa4096 2025-05-06 [C] [expires: 2027-05-06]
      55C30B6B67CECA0B42DADB04395CD9C2DF844075
uid                      Viacheslav Dubeyko <slava@dubeyko.com>
uid                      Viacheslav Dubeyko <Slava.Dubeyko@ibm.com>
sub   nistp256 2025-05-06 [E]
      41C01E6119B5C7395C5C19C77393E380D186AA9B
sub   ed25519 2025-05-06 [S]
      F8C15A0B086F76A68367305021238C53876D4D9D
sub   ed25519 2025-05-06 [A]
      3CD9C1BC9FB922D0DA9BC5F528AB9B220ADA4D85

-----BEGIN PGP PUBLIC KEY BLOCK-----

mQINBGgaTLYBEADaJc/WqWTeunGetXyyGJ5Za7b23M/ozuDCWCp+yWUa2GqQKH40
dxRIRzshgOmAue7t9RQJU9lxZ4ZHWbi1Hzz85+0omefEdAKFmxTO6+CYV0g/sapU
0wPJws3sC2Pbda9/eJZcvScAX2n/PlhpTnzJKf3JkHh3nM1ACO3jzSe2/muSQJvq
MLG2D71ccekr1RyUh8V+OZdrPtfkDamV6GOT6IvyE+d+55fzmo20nJKecvbyvdik
WwZvjjCENsG9qOf3TcCJ9DDYwjyYe1To8b+mQM9nHcxpjUsUuH074BhISFwt99/h
tZdSgp4csiGeXr8f9BEotRB6+kjMBHaiJ6B7BIlDmlffyR4f3oR/5hxgydvIxMoc
qyc03xVyM6tA4ZrshKkwDgZIFEKkx37ec22ZJczNwGywKQW2TGXUTZVbdooiG4tX
bRBLxega/NTZ52ZdEkSxAUGw/l0y0InTtdDIWvfUT+WXtQcEPRBE6HHhoeFehLzW
L/o7w5Hog+0hXhNjqtefzKpI2fWmYzoIb6ueNmE/8sP9fWXo6Av9m8B5hRvF/hVW
fEysr/2LSqN+xjt9NEbg8WNRMLy/Y0MSp5fgf9pmGF78waFiBvgZIQNuQnHrM+0B
mYOhR0JKoHjt7r5wLyNiKFc8b7xXndyCDYfniO3ljbr0jtXWRGxx4to6FwARAQAB
tCZWaWFjaGVzbGF2IER1YmV5a28gPHNsYXZhQGR1YmV5a28uY29tPokCVwQTAQoA
QQIbAQUJA8JnAAULCQgHAgYVCgkICwIEFgIDAQIeAQIXgBYhBFXDC2tnzsoLQtrb
BDlc2cLfhEB1BQJoGl5PAhkBAAoJEDlc2cLfhEB17DsP/jy/Dx19MtxWOniPqpQf
2s65enkDZuMIQ94jSg7BF2qTKIbNR9SmsczjyjC+/J7m7WZRmcqnwFYMOyNfh12a
F2WhjT7p5xEAbvfGVYwUpUrg/lcacdT0DYk61GGc5ZB89OAWHLr0FJjI54bd7kn7
E/JRQF4dqNsxU8qcPXQ0wLHxTHUPZu/w5Zu/cO+lQ3H0PjpSEGaTAh+tBYGSvQ4Y
PYBcV8+qjTxzeNwkw4ARza8EjTwWKP2jWAfA/ay4VobRfqNQ2zLoo84qDtNUxe0z
PE2wobIXELWkbuW/6hoQFPpMlJWz+mbvVms57NAA1HO8F5c1SLFaJ6dN0AQbxrHi
45/cQXla9hSEOJjxcEnJG/ZmcomYHFneM9K1p1K6HcGajiY2BFWkVet9vuHygkLW
XVYZ0lr1paLFR52S7T+cf6dkxOqu1ZiRegvFoyzBUzlLh/elgp3tWUfG2VmJD3lG
pB3m5ZhwQ3rFpK8A7cKzgKjwPp61Me0o9zHX53THoG+QG+o0nnIKK7M8+coToTSy
znYoq9C3eKeM/J97x9+h9tbizaeUQvWzQOgG8myUJ5u5Dr46tv9KXrOJy0iy/dcy
reMYV5lwODaFfOeA4Lbnn5vRn9OjuMg1PFhCi3yMI4lA4umXFw0V2/OI5rgWBQEL
hfvW6mxkihkl6KLZX8m1zcHiiQIzBBABCAAdFiEEAM520YNJYN/OiG3470yhUCzL
q0EFAmhB9e8ACgkQ70yhUCzLq0EkFw//VNjBUEigsGzNGSAkNCLtwK3lhMo9jfGR
YUfu7kiXDQGZ1WvAjo5C94PoBUN8aRbsBU4C8lRVylX1U3HlZh+4Y5LHq48m0lKa
jcFuqj973bPmAI2QBrs9YboBeYH3M9q1dnO4yrydZ4J6JOzrvfVwcC1bDVtHfOFh
BDEoHQrjX69MzBANBluai5y/ZOGsTc6YLkJrY0WJ7E+C3ZuPBKgPPZ6h+JZ4BCzK
7tYwicy9G7ixdsVpbDw79ozt3tBtlWXlz7Hv4I/3QTJ++oHoPUnYZobn+YBVrWdY
wjmAvvN+n6r8EpDppwWZkqbDw20bPrJ5GQPzxm9/qjPLj95jwMSSv+AXhyRXMXT/
dj6FhXPoPIjHDMWBZhZSJdH9Xp9sB7cpSsIIQEH/N+1Z7kJf3RCw75eOE3rNRbDu
I1WZARTW+o1Dfi+j8TG45WMU65sdM7MzZJpZgCA23O8Y6nEzE6ksZgGcB5Ct1s+o
MIL74EGn5txPmoSbHkNfXQzjaaK6EZwyt3R1LqKAUm78vGecqLwOe4/j2O+VHdg9
R7R+GuqLqPIiog1mKVf9Pxy6duNDrovyFlkmKwCybHWQuzN7Tns5C3xt3dEIdxmi
om6MwDmdClFpmZn7CAc+v/LK/VWqm7+ujSZb5lsut6NtNiiypyfQmQFz4GP3FDCe
lciIyohFtWCJAjMEEAEKAB0WIQTkBT+NDnxLmgogqyfcVTJQ+P50BwUCaENvCgAK
CRDcVTJQ+P50B9IfD/9xK1P1tSUroiafGU0PWHGCRai1pDusOiMTsMoczlEmspMh
GHfTbECBGp4SBVT8X4Q1lmX7fodhg/4Lur+XHxXAnsaqVN+HRYhGP55THouXZori
+cEg31X2j8N/SqjNNClwlGJ/r1iNCGerqoQVvuYw1NqAWroer+iKUazuisxUhUhR
8AYK8vPrI7AKhSmr97UepM6oLbFeS85eIQnjS5QjPnTGMhRc4M2DhIsbM+GoNX/n
G0Yyzjyy17DkWKzp3ihNe8Eiai0zaCIFcgMuSCERVNTYv8rn04DIzrdFqcA78Csf
bObtRaD+3Xq33LjTKW/76+br3hMEeSxc+BEmSlslLsCgR1iSLRkPTLGflGx7xA/Q
mSmF6jXkkViu0IQ5pMuCuwpcnMqCnY3xV7pDQ0C6lxsfwT4AklD/A20f5qQlUvxE
H8yvXF6mi9JfAJAKYG+B7cb7OLg2nVEwyCcjfS6T/3I6VYrbhIP2bwKbcatpHiQ3
FhwdCA8q5toKgiLnekygfqcWyn/2wBLmkKWi7+L5j3I//0f2Glu103IZm3LVm7q6
LsdqMu4ln3BqDkGOZ685AIXtbcGFReV+cUdI9qWdBeXCQo8wAz14szdO0ROtdj7c
7SlP0zl3TC+VOBf1xOJhaH/A0nibi58jXo81yqLE5FRYC5+lgIG5PhfZQx5cZ7Qq
VmlhY2hlc2xhdiBEdWJleWtvIDxTbGF2YS5EdWJleWtvQGlibS5jb20+iQJUBBMB
CgA+FiEEVcMLa2fOygtC2tsEOVzZwt+EQHUFAmgaXewCGwEFCQPCZwAFCwkIBwIG
FQoJCAsCBBYCAwECHgECF4AACgkQOVzZwt+EQHWIxRAAolgRMmzLdcY0WxIGmd1D
+Ytm0sGsg8GA74FluRG0T+yXKjnGdr5CcKyt4LKgtxSqYzj4e3nBNCOL62mx9UKG
3tjfAdmN/es9uJhp5EwW29elM9zwvd5xTdQQNMLjo5a9f6Dk8uYAWOet78m4Z1z3
0hFHF0XdvIyO8/LUcs14drS/GS3b9buL0PBNDu5VSeeafchsW8IG+b11OE9oq6kS
i8Ub1PNK2SF6BDO8y3+a+0WkcYMI0ynbuq2DFDn6MhEEGUw+F4PWBP1/KWc3G2Bb
OCJbHMiunF1NKY8K9rLI3mqziywye8oL3zojrgmS/usx0bpy8KtiR/0ZsLi1Zllk
m4KLGQ+nOfsLug8Vdecu82WkdzRTzkeRK6QhVKKyswTtZwOHcDgGzcpvThpIUYCw
MscKXmtFdGZUrX6dJH1WkmWKOz13fAW7co2pYtJ4gYz6RFWXYLVVKQZT6/e4wWGf
i+Rhd4XeliRWxGII/uQH+wlI21/Qx8HhkP7XV1kZyR0c6K8c4zkt9NN3XUZz7UAw
zd2f183QGcEALNEaql603niay6aRVGwD/h2U8ji1SXAAJVUETqKvD2zN2SiGjsoI
4+mMNHpiYtQ/TrDdlCo6HuFtfOb2phVl+AWuNY5gj62CVgFh3wDI45CJyD4O0Sxr
PBYsMX3KZCCz9GG1Vh4jQGmJAjMEEAEIAB0WIQQAznbRg0lg386IbfjvTKFQLMur
QQUCaEH19AAKCRDvTKFQLMurQfdBD/91ktauK8ALKUkYn8P0kIlZj4+U76sdSdwh
fcv1+THMcIsEFH0sJE36GPmPQ98zD5LQ7HPNWY+iWr9Ij/NtScoC7jZYjRepYWdm
MQtYmtV8W7+gaYHrBZLfMw/d34K5qbUyxRx40X6BIzyzAGkTinU+AXNB3mBz5+WX
Ax91A5dZLYfEi8wZ3xbDBBR9DnCBDVr52b8b04z/lta1VGTsyf6jVgbN+O4yECHW
9O0PiEO4pK1bzkrssFX+M6Yb05vWyVP+EdFSdrTv1QwY5Fi7EFAMrBikJuLI82ih
fr+nd1EqDVsr3jwtx3zHDOS38FCcYnlzXzFY1vFzVjFjdIsbWmVuv/TOWHsuT/lp
iBc7skv5Zfns/fJqOmBLnDLF/8DdO+48FVQI/1EMGYsJk9iymTMzN/0EkvyLWZpH
Sjbmmrcg7uf9LbLRUo+6eES+vqsG12QysoMtqHpOjz22GGc1IVhaoNWsL3YjZnmu
sZs6QPod23ioTgPpMcc+pFEfWZor38oT3rTbPUYODHA5oOgODPjRsz2ZplaPu26h
cybVi3OBYP5pUra/+sRunKcPyKXyssnRh3Cp66QlCZxie6ays32UgwbYRNeyhWHG
00pWjXGzSrFago/mSRSHQDJ0XOrlnFroVXLGBHIgPngsV/reZ2HEi7bldHk0/Le2
tN+lHTXFMIkCMwQQAQoAHRYhBOQFP40OfEuaCiCrJ9xVMlD4/nQHBQJoQ28OAAoJ
ENxVMlD4/nQH18sQAJqPhxZ6eW6Lv27S7/y6rpGoEUKrTQuSfKYV/3hZ9hFwQ7uZ
dPmZ1iMvNRyNqMow4cJsFZywMMme3BAXcdZRJ7qJzN880WrI7fdb7l3lsFyzQJYd
oGerw9U2oRRILuIqVaUc9mSuOLM50IfxQ2FXdF3jW/oRg31+lr0zwGT7oF5rYWy8
kz4siv0OXaNY9f/DvZvIh8uvFjjV4tj4lyxpgHav1x83H4GieV9tXVWWSKweGwY+
8pbHa6oEYRFYu3i2b1ENbAerr0gSaUt0TAh/4UTJfaI5RmZwkg2jJjYnoIfjalja
tUkGuAP0txpZq4m4SH09SXD2pkfBuRdhvr8c6GuubE/yRtGwJqg7iEMcqwTN7wA9
XLXtfRNnzsn2tkWGJ1ooPOEvcR6Q3CsV5bUnMNT0vCknddFilfmK2AcqCmSicN8s
nLukQyHO6IsJo1Mamj5iSgAEfTZ/xPuwjoeET9FgjSr9nwzqKiQv3o8j93bUiPe6
iKP0AeXGPW9YUlNDDbDqYT8U0wRfqfaNAMi2wkdllBEx4PIZqIIM0zJvLdOa95Ql
TMiNj+x8Xpy90Rdg1FHZbpVSUCGWuEB2ty3wWoQ8SmhumVoE/s9P6qcAm1Q1nnU/
42FNUMffaIUVCfWR63NrsBrI89tOG//LTyvdmPXyQ1U2PcKRwNUk0yKZVwHZuFYE
aBpezRIIKoZIzj0DAQcCAwQU0mTLXFHb+h3bq6Plriq1UQ2e0f7813v/r39E8uGW
/CRGu1UxoD+w2anQYD6l6Uj0c/MwyCAjLe0GDYGnn3kAAwEIB4kCNgQYAQoAIBYh
BFXDC2tnzsoLQtrbBDlc2cLfhEB1BQJoGl7NAhsMAAoJEDlc2cLfhEB1pY4QALDM
5WTb9sgM+YHrFtXnI3lZ1GCiHS62a1nKxjjK6S3qka7JLq0F7J1EZkUhf2mHe+wS
+uBq/XpeGHtA5TEkR/YWzPyXFEPuhA1NtFk805+NjFomAszwy20Qoqc1+5koXZ5c
v+cG8qgF3c6eXUHYsTNvon0eu3794Kk7AmB/gcvUPdqDJeT9E9oCsqTW62yhhJrH
M15eVfqGFVNM+PwS3cyLRIymA6IOWJYdAtiua9heOK7v/N2SzKEUg7HAIG+KU+pZ
bHwU+w6t4Yu+IXl+quJ2/xItAXdbsHvCHPs0uqSawtoGYhyeKxv+hng4lXKLvT4c
z6OUIExKGCD91MWs9NEneuqlCb/8OvJIPuRo+ux3CiCjiCXa/DEE/0ylKnsvJt6M
yn5grguWINkE6I+5sVj2sENpvfdbsA5ru6T1VCuyRqilxu8HeNqvJrfNaRm6pcIC
5s+ur+LJqsHbpAy2jwAUc37dAn5vH+EZgP0Ki4T31LxzO0jkTGnng8z6gfxs9lz1
bjbyCEmAHTxLWwRrzvjKL3QLIgIDQJECNaGMaAXfZj3vWDCs8n++Qu/nF9gdeDQF
upwZwQPdy5xskAlQNcqGu/4nDj7hOfaGZOzykbt2jROV3V1c27aTRzbqPSprmCiH
zDbkFGupoVA+rIYEMbrPl8B9KpA4H3bIcDYuqj/6uDMEaBpfohYJKwYBBAHaRw8B
AQdAXj+MKCHqKwMOLAxtoc935bCVxY+ztR+Qasi/c0y2BzSJAq0EGAEKACAWIQRV
wwtrZ87KC0La2wQ5XNnC34RAdQUCaBpfogIbAgCBCRA5XNnC34RAdXYgBBkWCAAd
FiEE+MFaCwhvdqaDZzBQISOMU4dtTZ0FAmgaX6IACgkQISOMU4dtTZ2EigEA1r3X
h3oMCOUIMwS7sChv20nWztW4tCeUsMXaY4wqmucA/2P405bHSKoJg8ZXfm4riczQ
L7s+Y4CBP0LvyRk3UY4IoZsP/1EHxMi4QfEGpWV7XvTNxzABzmcsort/MCwrjmL+
uGSUeq0Oii2cCIJCkj/q1CRo4mPptbH2aBsNbQYORCGJyZ+hsvRz/EXXvnPnox/K
1MKXpZmxfBbPMop88fbpIQmgqK71M9ZujXWslGmlufIYeetlOYOjLMRJCVfDEDDy
Dm2596KHqnFts1sSrgUSuWyK64I/zem5T4BpMbKOGVxulqgXtbdgY5dibSIdGobM
2rfMYFCvmGND3LNEt3VEJBRx4MpEcsM0TpDpdWhEyrtM7lb0VSNLlb8LkTqDdLv0
WxIoMiL/CTFnAKlM7z4EUPAbBmTTJPjTYDYHMI7Yh0mfXptwECpUFmo4uAgaRvXd
sMQQTEMIhgJDYBr1iE2jVLAIOnH79qOqhHsT51qvWKI517mWniTY1RvedP47eO6U
p45+bPsm32XICxPSat+9dDuNLy4x3AuoRaCWMBaA6CtBZi3yA08nsr9vfX5Xz1ZA
0OSkNxZ2+QiZwZ/1e6OPWcT87PhdU0ks52AUSmIDYN+D8ALCKaM3tf8F3l6U6RGa
dTNV8ShEEKscDI6HKZsLHY3abjFIZPtW0kWxffvJBFVO2U2eIWv0kGLA30hqrPCC
1lo8sQtQfwv1/TxzE67bxRCzI/7g+53mg1wnpwQEAfuMIYAQbtsHUxleGwe+2I2u
46fSuDMEaBpfuhYJKwYBBAHaRw8BAQdA52eDGA+NykisGILeVRmg7bxuLj4uOOxf
Gw9NcbkxHnaJAjYEGAEKACAWIQRVwwtrZ87KC0La2wQ5XNnC34RAdQUCaBpfugIb
IAAKCRA5XNnC34RAdYqkEACzFVrHlcftYtlKhFuxHXQC92BLrvOvbOzXXHV+OHFv
GKijcLLw3/LTI8uBsuxD0b83UClzKf0IjB9ZrNwGTlaQbp0nL/bV8wzkDXjc4C63
kcH06Qn4lm1Czw83a6yMElJ2jCHD1mng82Nkc3ZuTQqPM0gwmv6vQY5eB6OjNVjQ
msNjd2NRyEBMfyo2kOtSkGlf5Ec14ffglzvAepeVrUdYobAIwMbMKQwM3TyjaxXl
kPWFSZ+40iSzA5UTbxR5YCNW70zOs2jKvfLZtC2Wo7/p62mkyV3hJCYUfwHkGKPK
pKA0NP/2CHoX0my+b9i9G5GR00ktblQleGS1prTJXUYaZfTT7Oggwff5GGAiSh8f
SimsDvhKC5bVXTXpPIgLlAXdh3ODELISgpb7Iwlx7f4Tnc7yyqp5pcsyIqOPh4to
gQRT2ebaqtfJlxRVc4NqTUQaoQvghuY/5Oyew9JFudMae9/kh0bLtK1d+aBeFWBu
Ha09sS8x0GnCVu1WeKfl7vGDQLGpQEEzejZ4VNYHO1CJWeYd6IQIhYcJHgKdO3hx
nS7aT2pIX7C+t0WstYY7viS0D407HdFtrAXkLb15UocQYDvIgBojyltWd2AuPRZL
B1uEIIQQ9+BC5VWYvOihUNMyt7H9Xbtd5BbLR41N3HKaJsizPPDGNClx09Jfcwdc
ww==
=5n7L
-----END PGP PUBLIC KEY BLOCK-----
