pub   rsa4096 2011-10-10 [SC]
      6A86B80E1D22F21D0B26BA75397D82E0531A9C91
uid                      Jes Sorensen <jsorensen@fb.com>
uid                      Jes Sorensen <Jes.Sorensen@gmail.com>
uid                      Jes Sorensen <jes@trained-monkey.org>
sub   rsa4096 2011-10-10 [E]
      890840CD14E4515D7F97B67A644B03976F748647

-----BEGIN PGP PUBLIC KEY BLOCK-----

mQINBE6SpiEBEADK8djgRkRD89J9qCgtu84qJD9DRXP289b9ODGfNn+gLRWiSx//
EYLxaSkN4Amy/Xy4iBreUE56cNdZx9alINlTE5sf9ZWGcVIBue9+xW1Xx899VMk/
dvLIvd6PduJnC8ukYtMXCLXEl7NoLQpTq5GRaXbH9BY8L3hxcge3BoBoMxzhO7Dd
bIKCfZE+8Ritxy1KCq2QhJcCGV2sVHC5wHlWaSuuFo3wxUvUZiEg3WxpLFFBxSzq
dYSYhKjnGHr+DBqa2232YD9A82hN+tkeHrIkcAsBGS+CfQWqUSQrrHK4ThzVxH33
qTDY+dOSwtS/rC9bDgApUeLbxtI0FdBr//5O5P/NNK3tWdks4QGtCJEHyIJkCpK0
7SA974jroFFVNkR0jg3lk1mETuMbGGiUuceIi7ovzxV8IcrRzJ7CSb7YbEaMWCPG
+FXyzgu7Tz+GQ1B/l7Y5/iPtGCumk7RVU+1YbjnPDHURLfnhMSP+ggRH/sShLsXL
/RfpcqKkOuL5WwGo5j5KTpUF07zeUHo3oYThZs2Sd+9lGKhU6uwPUJTuUuFd9O/s
ioK6lzZPtNuVUE3IKQLCQkRttDiJTXqvzNVzmwWtm6gZkdm4AyanxBhYUE/h24fA
XANakjlpck/o0jO63CUgKFf04OuZ73JamLyQQDcNpGKn96yYxEN1/JSD1wARAQAB
tCVKZXMgU29yZW5zZW4gPEplcy5Tb3JlbnNlbkBnbWFpbC5jb20+iQEcBBABAgAG
BQJQTcmuAAoJEIFK5HwhSFTWdpUIAMnqpcio55dvMtswCr8evo3EjHM5rQOI6U+m
3fTlc5HQmwSunRrzSOQHg5N5p2yMwPY37mznTBgQ1VdvGkB5kZ59CpfsQKsPj/Q7
QiMs3mCkS1rSQ6gDYxu9Hk+XCsffRgmaK13QiF1zv3c+QvLQccN8Iw2YnGN2Zuj9
ZIvZLeqKHMtE8/KhZrBiIsVHYbPQDmti0WAtd5dBc5vD+RWqg6qK17SBeZnrmFLW
KdCwKrCCc6MzWG6zYsFEO/qCzRT8+4NjfOdyb3p8WywXbm+o5Syt9O/CUqMNddjM
7ldcgbP3b15SIkqmbuUiWuNGKrjEQ/37mYD8iTqCwBi8DN3p44aJAjgEEwECACIF
Ak6SpiECGwMGCwkIBwMCBhUIAgkKCwQWAgMBAh4BAheAAAoJEDl9guBTGpyRguUP
/3mN2viPYsWeRNw02PxcnZqXsp+AvZ9kfsI1bA0IyvLl+utuTYySaYLIDorXee4n
TcAykrqehr4PBD64wZ/9jmunWv7ghk2weW5PJixpmm5drcTHald4EkfNGi64X8Y/
yTaE/5rlaE2cQ+XdngpLaixKtoULPHm/jwoQMY01iJ3NQxGmSKN/qcJwML2xvCcc
pPrdBwsvQjAFK0SlfdVR1hSU5MHbPv/Z/3MepltkP4faAH9G0yuupwmgPRSQQFrU
RL3zNhDZKLEL7JTEG5vFMJYipbHjiWj9nRdzZdSyZaQSDzvV2sjsJmebFgbAJilz
RGveeyec4d5upXiLDPFowc8/SFQkOJhNCm03c9o+w81KzuO/pZ14f/7g/J/g1Vaf
P7OhFtT6axJ+cRyQdzjNaHcHoCZ8NKJ2iANqF/sx1k6jM/Os7oO4+8AN5BDQk2TJ
Eh82dfvveao10F2H38kqjx76cxy90+Oe/Fg3PK09gPDaQp3cxO27gGC6nUbca3Gm
Jpz8/SNUNHEbCx/HkDYuJriKzglkH3NpkIVzzJJx8iYg8NpGxIc8Ywus3uWyAqOZ
e3ovWq+51KTH2WDUFLwuigew7gVfkJeo1VX3yBzYkJNEc7HDmmQj2HQ0WoOTVBMq
kddGORXhZ0aX94gyFyTSI9NQdwkCam2NPZLV6WVbXLOmiQIzBBABCAAdFiEE9gFA
LeavmdAdtA3SShvqt79ymrcFAluS3FwACgkQShvqt79ymrdluRAAgK0Qfz6J3NiO
zJnzQAEFfERMzyZS7XsQ6bRyXjGbM4w18CBCRWqbcMUw6bPC4Up9TeNqMGm0ulOA
bvYC6IRMg5L+v1T/xULqjC6B3O1x7S8ARAVGy0SysaTtxgLg0LoAIgHtHfs8sxvA
jV59bRBZtDOrS01jkdp+2BrZQr3LdkkQkSrAH3qvpiY068jK7aTJfJXUrS8iBNh0
5HKr/EPlRVZzZGuvoo8Zlr31O0BkWVdoF+YNs7dX/tZAQV3etJuqd49Sb60878Ty
PmzkAGvgp9C0/q6f6eoUaMdn8A8hkoFANhQwX9WOnoAEqTUSWMRn20NVbpCo3l8O
kvhA9M8Wh9z553BhrspPINDRTRzpUkFamDlmZ0LX6/sJUf7F8DEDV5cGa2ck5EyC
N9r9ZdJ+PYHCIODnNI9GckaCMeRoye3TuasVWfsEzq6iSCNdW90FCKH8VOipvIcf
ZT8bNQ2GrMweNKoolsu+aDTcCvT0rI8aJ28ULYe4P4IOWA+UB40tp6uwIXy5zhXx
qtsRcc9sz6G/jVMaTxJtm0ff37r3m/OScrd9/u1UCwf7wC0fbSE03FValQ2gooBE
E7YFUoABUR5jMuYo5mXM7sbIbSKJRiEV23Yy9CKOEBEGKdBVre6ERXnlYS8pg7Wu
9sZK0mPcml1C9YX4M6ksX2ypm+d/x2K0JUplcyBTb3JlbnNlbiA8amVzQHRyYWlu
ZWQtbW9ua2V5Lm9yZz6JARwEEAECAAYFAlBNyaYACgkQgUrkfCFIVNZWPggAoKnf
rAx55BvpesZJpnHN0a3AQtQfUqVVuCnrinUkTSKqk4i+epZ70uU9tjZ+IKDUGvSo
fnFSTeaG31EKr3XVFRDm8vFgM23CeB95O3sVEFKi0/DOaUzbezC7s3ax6Nsoj2Zf
sHDcXc+zli85rqSUMzxSJ8CSmfGWaSG6JttomiUNvePsXM/OuuGdTHKuBaZw1a7R
BjGNMtRXK/YUMAN586VohLsczN9CgF+RwDyJKAOd9f6TePLbw34MSt+Jxb5EIETn
B2cufGPRlOpkdTT+MCqmJgJIoFC1uoGPRr9qP5MB/WjsYEs+vvqzyNe1WpI9Z9WG
6Sj5qUJXN7sbl1ZeKokCOAQTAQIAIgUCTpKoYgIbAwYLCQgHAwIGFQgCCQoLBBYC
AwECHgECF4AACgkQOX2C4FManJE2QRAApCRb3zbg5cv3gdPC8MV5ad4usbh81Lel
Qg1dUEQikoevjVghTlolrSEusiKOdvDaU2qkIfXrWhVAALa2nsHbNEkKj3kNqJRT
Th0s+WaPn7mPhnANATAD6UhRAF8QFcU1bic8nnAlH8GJyzm/X4t54Z2C/7hazevA
x5lw9oamf4kgXd/vqd9RLtfn/16WxKhK60S/OP0NzmYhsCTVBP+Bgn9i5lvQ4sJV
GOe/0JvglUSg+gDrQ1KpHlHTdWae/AhOCr+MuuQwSMEgwo2ZWmjOs924uKZSnMg8
5OSPrFWhFowZEozYjjfZCKChXJxb3DK5mJ4RbTw840zakL3+4o9FziyALDdDzkTt
7kgC+wYWxrcccNVuw8+QSeo6LfMx6u1nZ/N1QID2PJkZGJuB9oKHyaY1XPfgp5FE
f7P6VmURCNsXArfdRCeGJBOVMXzX6zwRxk7C6pyoGDm2XWWhQ1mXEYRT8kKDuk2C
jMhm8rGslH+M5N6R32LlBpWwmV0tMrcQENg7On1TqmyqhFOoq2HviQSJHdR0KpRc
d1x25WGOvVuiXM1k8XEZ0mEGZaPYIuxdQvBs7c7X4rO57C8rhhA+zTJ+iQczL86N
oIcpfk3mNIvrlGThHiwVPsTcOIM3hO0U3LZk1fiW7ynd0oYRqZrAr232XFlDbpDd
mVQkPoLoHbmJAjMEEAEIAB0WIQT2AUAt5q+Z0B20DdJKG+q3v3KatwUCW5LcXAAK
CRBKG+q3v3Kat5kOD/9UVXV5Ps/spIn+BkpqRHhEMRcvvkyij3Aa/rbCKKijgzsT
KMwY/RU+cPvRQdYNn6ioZ8EzRDovGppH0WJnmqLArPBNHdRRE2Gd22s8279sc9Gp
Dfq2i+dAN5NaOGmckYiw9YDc6E5//gdKnqJ2uCk4dq9sGEWrSrNEVBARtL/78IXq
/BwuzepfXy2QggsKtOTMdFixQZZRoUjMQUZFKT6Pyc7VeU/0SURt/INmeNS6F2XT
iDFD1iPwPgIBoDaMpf2xdnW/E+5RWf0DfGNYp5dNSLAzbxBNBV72fJASZOtog/lA
ceeyRvZDUEYO04VtPibfGp9ndVbA6/8yByu5RdCPFv/iM5fftyk4C0bE8XpqxCr7
eBJUMyqRhO5/EfqAGtyuSTFzJsJ952dlB+zRvajd1avApYW+EwbTSzL+3kVbAKn/
VxB8ygVHMbXp8b3/Mul0T+o8casFk8e+9v5/ybcvB7E5PHX6b8JuHf41EbvrqC1G
XCrnJtCD3njYP/FzUtDDZYo/D/KpChYv/yRLMWQ/ZEu9apCIBMeXShl7FvUlGvkM
AyR+RJVUq9cHoJLmFGxVhQD2AsorJVpBZXWa4mGk6xN4KteTo1nKVWkJQA2MgZhj
ZuraXg1xnUoobGm//ARV8TGXID11SW3yEZ5+fWitxjBah6m2UoVuxQ8wVOIDtrQm
SmVzIFNvcmVuc2VuIDxKZXMuU29yZW5zZW5AcmVkaGF0LmNvbT6JAh8EMAECAAkF
Alq47ykCHSAACgkQOX2C4FManJHQ0xAAlE06ARIw6xgb7lUmEQ/moRw0XZmAqF6Q
1iE0nl06bUFpmj0/Gkw9qnmviePHZIu+6zA5zTd2I55De46nPQhBgvhZs2fyCYRt
vorTHvxAcYbNQgtEqoTMHVVMe0AlbYkVF/woKVhUffZlcqFFF33uucEPRr1hyB8J
iNs+JLmknvOlx3ExgTDeLlT3wVhLpdcyGTv570eJH+kbjib76e0FnDnCLFlPCMMf
HLqu/zuEHYYC9jJQi/Asn0qxKRJtOFAcuZJlZiIuXTMSSzPVAhALm3zt9Q00vghp
dY6LyPpUijZ9y/dzDSfNYfEzPKoXILC2rC9iZuTO9rnzEx3EcKUUk1LOy3qs/y0K
LrhpQocBbRwrwy3B3DQMnAgU858/2tJjw0XUUgqPTD/P3VK3oIYVa3oYADlS8wF7
HWTBKV6jjtWJ5wCD2cQcIH5xT5oXOPLhEwGmy51gin48Jmg6YmZzvrcbY3xQiLdy
H9rMbp4rWKQ0Y+RHB3zKhyDOlesn/jQ317izpCJFcd0qC/9jv2B3m2sLEN8yIcdL
icwTkEiPZvO11BeAV2IIJUoRnRX5/DDRYck9Dmt/v5kh595qlaSg5ex+O8PtSNzp
neKHwKOQrNc0LAk7296IOZJyHooG55gAQH39JnGE/V3bEtkKtPxTs0oXW6d7yoMu
Lc3LiOf/pT20H0plcyBTb3JlbnNlbiA8anNvcmVuc2VuQGZiLmNvbT6JAjgEEwEC
ACIFAlq471ECGwMGCwkIBwMCBhUIAgkKCwQWAgMBAh4BAheAAAoJEDl9guBTGpyR
dw0QALKZDEEXHZhiNxAPO0yYskBunUfvwp/DZqjm5l4Iy91SRzcz55b0R5BVMPgn
VHQaOnI059/pUoC8dW9rI2bjZVtOYDoeNeuBRTpRafrfi7hBP3UN326w06tUeVjp
L+0r1D9EDCcSJjiUssZ/cwccpNcOeqzJsESA8YJguTn64Y0Eas+snXcMTzCoWwOr
iZ2IpgTn8wdJJvGi5PVGYPYsVakifzrF2oMde40iyA3K1JMeVSAM2RQR9BtOwE/n
ggBgOfvw49FfdohQMSDUadWuiUStz1ScnWLczGzasytwwJ4C+vfWNA9VQKLp1EyA
zXoCqZcdQfpD+3Cvj0xsehMA01giRLS8u1kO7pYIdbM9xU9/RdLHxg9f8P8UXbW3
YXJDcRcs5tH3UuqUz68MV3+O8SmuIG8VSZPa1AcI81RQzRCdSn8MCBpwo8hidBEx
PP+JcZjRTE7WxKUOya/lgrqKFRWwfIeFLDd1w8CxTIHQLpaYjEQdV2pvKI0qGn25
acp12FJ9dLeES85X09dA4C6MV4pXTpoaCVhCN41FBbTqBPq7bXpvBjbXsRHctxat
0r6GPuGCd4cQdma8Vkfjzb/g+dxQc8gHWZ25+gtM/NwJHmnxK/J+UBJsCLuoL/W0
DPuwIqeIirlCMt4x+BAOPCl3MWraDc93Tu+hVvinhHFJqBzQiQIzBBABCAAdFiEE
9gFALeavmdAdtA3SShvqt79ymrcFAluS3FwACgkQShvqt79ymreudhAAp3ZhyTqX
0E9cs2D53Kol8MGGaNbwZA57D2upZS/0lwlB/LI6RLwk+8l3puDxtxD31oOOwfcG
AKUX7zWKeN4+nyUb68uvwQACLK/PakBX8McuLFr4qx5oDGeN7bzMHc328kNe3LdR
sgn/V9jpxMl3THfxVSZ/Y/hqAaROOFR8qbMuUQkH8AuPbyUaYldezjIO+vkmrMDl
10IdS3OGB1VduD1tF7zCaQigjII241jg+i4b2yHTmICzefft0y/1Iyg0yR9DwKz6
ex2DMNsoLlq0RQwrIMlbd1jbb6INg9z9J0UpYqbR4Qew7t5jBTFjcj2OWPL2Dnni
l3/CzN7yBk1FqONXQsrBdS/79EplD9e7q0uAcwWbJ3CjuZkNhhuxWcz6vFVGTgTH
zjdFIlXhElAiHUTbHq2MIRyCbRi1cyrmzapOJrNDA6/+aoV6iaZ6kn3NDDnvvTp/
/+o/XxHvJiwSpoc3tMZrbIHR5Y6hihNTlBKzx+la5ZuXf9lvMOHsGrlUYdG+IDVz
tQwWrohZ8mAGBYFrsK0ytIzuBiZeaSFdW1ZWRyCtUtN7ZNIIIpBAIo87DboCNCOu
MFJExKXmCsYSVB7mhZcrx7S9Hpz6fxIigjl76B0f/z+Ot70d0uP+DFNNbvC3R4uE
hDKVrh9gDI3eSRT3y/S+WIDmpd/vqdmAvh+5Ag0ETpKmIQEQAMk0G8FAeLBO9UOG
Ewnn1QM40Jn4hifWKo2VIUuv850L5w/+Le9Wg4xeCQoZS+H7UMoX4YlSIzcGHfBC
jpykxk+QQqvdtVumIbgotYkSC0GO+ufJ69O76eFRaCFNYyDEEXf7SiuaGwvvtaGP
RxFkaVnOHS6UJLEGd8N8tyF+WiXCl3h514VoZDkWxJ/NjTX8xAYIbC3oo5njc6Yl
GH9FpIjWfn6KbrLEIqEaQUkvn6P9JMvWLsFHgBf8LMr4AIN+FTrD3m57Pnmv1E9k
LkmDNBVO6jCpiz3aJ9QjH7lmSK7Borrz0FZZPYx4OwbrT7a+M/Rhc2ZgkpdeyqWB
T56AgYL7u8ghHePFeh8Ak9TzsyeBnaNTyNMAYv18oEA10owkeqvOXRUD136xFtNQ
qOWG31Kmw0SwijOYkmse+VlC+jEraDjoNIwaIkuHA/zpniOU4wF8BM35+rgGlgId
evn1b91bVMq1bTqQ235h5SHTmfdYC7IkHgnJa0U1HJ4QxLZgnKsdt2i05Phd1w2Q
dHE+hV5obVFnMdJZt9lGFTXc5tEonFMPoWL/UKsDntoe6dukHXZlplVvEmRFTOfm
fuXIFGtvaWG5sRcOUcBSc2pT4tKEkF8h1QZkfyK5JAJfqT1QfsR7fM/2os5nshO6
jRe5RaYQ2vg34roGztJlCXlnSqjBABEBAAGJAh8EGAECAAkFAk6SpiECGwwACgkQ
OX2C4FManJHf9g/+MMP1koRZ2iHMQXNR6tSOe+Lz4LFtim820/sBuHenb9TaDYOY
MB8TCauTge3x14z/DcWk9re0b17vo0iUXJCcAH8qM+MZbl8cGtZefHqYqBGDur3R
5jpRvjDOG+QIihlFEqKc7L5k8jHBaFqAOEjusvGgaYw27YTXGoQYJfa4yipVbti5
NYdYLElDUm6aTfcFSMCrKMrDuQfEZ3Wzzm+E3TjSOK/GeT9zfWriJbQO8PhcC0Hr
C7fP2/lRpUNelxyKbPymlcHHA3K7FFd/ofw5xD1hvsqtIZ+1TGgHcgZf4mnRs5Td
kGyY5Q3nR9DFC10WM55a1A3qJN+5+T1trX/fJufABRK3G2vZFxbi7gUoC08Ozrag
X5rmxDfgbFvFTkHCK4FXpGkpNkgkpWh/UPOaJ16UQqP5OWaJGHuwHI9l79b4NTtT
mz/Al6drKIInZXyhxyPSGYEvcxMkEpS7T4gKeDYeSLykQinUbI2zYmHBsOTsgT2V
ZiPZEgX2AE1hEuQElA2Wqbe3h6N5N2rTCed0B9xeJA5+rQFXkLUCr7HXR5CdWE4u
FSTI/GmxVQ0dKiYdrtIXU4owaExyPprChwos4gtEYmCzKzJndax8RwN6tKsYBmvh
8CDH3RdrjVtMftoQLkgmpyeA8D7KaCezmJGNASOVBaxgcdeIJq0gftPrBVk=
=mKkC
-----END PGP PUBLIC KEY BLOCK-----
