pub   rsa4096 2023-10-10 [C]
      F1F0F8C2362BDC879A2964BA3B1BBD6BB613204B
uid                      Lukas Wunner <lukas@wunner.de>
sub   cv25519 2023-10-10 [E]
      D75FBA7A73561CCB8942FACBF139656509D7A9AA
sub   ed25519 2023-10-10 [SA]
      3237E83191553E296BDAC7E18C116B601F9726D8

-----BEGIN PGP PUBLIC KEY BLOCK-----

mQINBGUlWUQBEADD5wWBSPIlb3C0WGrHX4N/nl39MD3wjjXz/1Qj0KMBJYgik6ob
r5QBvAryimhXbkXuBz8c3YgZbv2cEPjSuYkUQIXD+ggGxiSMTxtr33nKQeCwJsNA
HMeAjh/TfoIsaeUtGmCuLJvkq61pIWWjjFwX/eQlYrKzVeRECAlRU3UxBwcajiF5
uXF8RtI0QEZoOhkX8pe1xvU4A8JKHG+aNiH0k03Kn9VmJJpr1pgiQ3gfUM9lhJTC
D0jUDb4fAlQN0pQkeVEFarOTnU4Vl1osW7YkFljWqj/LSmH7vP5LXjBrcGPSqqf+
bc7uqGxLb2vMgaZOHmmBmJ3cj6BCC8QP7EbhSSAeNAt5JOoDRpvqzs8Kio8fBdmu
24ytpdf1SSTNMYyydm0YqSL4rAdCDUvn0X8UXOX9mo8khkrEdGNxIaNg44OFLp/M
AQJU8hSGWQ8NR5yK+2pvcbtJZFlZfhcNLBc3X6ZdcNNBgAye3bWihEG8REAoLV05
WXrV8uhbskPPvQ/Rh+VaDZ4X7xQhpLSzQ+cU+3KKwb0VHGRZBPqO6U58J8zwjw1v
RBmsNPJo7eCMQbV56YXkm/sQuEVqn1Fa8BkrkjnR3Xj90OvItdN6TGEfmm+3gjsB
72TcAivMgkkzBSszBdWeydqT11glMGdZyT56n+Pe27IJmS2ylAul/7JMkwARAQAB
tB5MdWthcyBXdW5uZXIgPGx1a2FzQHd1bm5lci5kZT6JAkwEEwEKADYWIQTx8PjC
Nivch5opZLo7G71rthMgSwUCZSVZRAIbAQQLCQ0KBBUKCQgFFgIDAQACHgECF4AA
CgkQOxu9a7YTIEvTYA/6ArNFQ1QcAcVvRqx826i+IDcy7/NlRDSSIR8ayMPpBv+6
6DxmxP5Ex6YB8BYM6Ql8HSmyIt9sGovZ45b4NZBDXFozytUmqK0dS+fQ6vvRbf7Q
7S/I2Fbu8yRM1PPiioFhHCr1H5nYba4Fb72tQRGiZpime38lfT9uJ9eWXjRadjqY
iqZXX01qNFP0uuHR1bZgtePYyGRlAnNR/JrCYlxLHy43jnqnI9FI6ewXGcIC5yU6
GsrT/evtJZfz2dOxo2WORE4oDs7VwQS1XFiWkM87cxcMxkMt9glTEw2fJ5WE3uDW
kpgnwbNoC69E9s9Mokj61T7n6k+M7lPL4vGFgjh33BoLOg8/Tz2ZjpSGQyCvZBTS
zUL39Ki84NjPSHcqIFEoox5cAK7YOhSWVmZy0OfLyIJTHfVzd6KbI+LUBxPF/qlI
v+9GRJBOU2gJ8UW/slri/VYyZn+EgnQmfiAGTcKiAxZJPRHMFr/0TPmCtPYgCS/9
SlAmsiU9JLttFRAr0jfMeE2nkzdgJq+WpVDD2wvb6Mnx1tPJ+sdY08hBP/wsf6hq
78NOrDAozOixfg8vreVxMFkRFOlGcda1f5J0LzzVW5tlz1B8BjNpmwVdBmdjmS8/
TocBwJhroxmORO6in5hkbf9oEuCUQaVh/k0bNv/4QM0FcD8SUStIItT5iYyPHfGJ
AjMEEAEIAB0WIQTkMDLXkQkwJXVHq/1gaMUWaVM4SgUCZUJ6AwAKCRBgaMUWaVM4
SnJUD/9oeODX1Ka17x+nLzTupM1QGR7cIcttXLWydp5UvicUe2Z5ADcHT1PcjKwA
oCuRrrjDg6757YzQgE5l5J4ebQyEm/M0Q5BabURysciQ+4iFu5DO2BcMJSy4ClyX
1mv3bG6O1CWr2N4kOeHRxkcLVPMc8jaI30jyJ867stuYgjm3WofHY2pnYlVRWG5L
LGOfZi4k96yMt/hO7szMCOXMy2snsE2YizHCL9tkDDXlSVDg5K3fgf7L9uyMSHw6
u3NxfnmVkYWJ12cwtctpvByi3BY9GYK+AsZJ1aKTwpmoCXPm3QCN6HP4EKZfyKES
Fy54UtSkhz9hTMEeLQ5/PkeVDsyZX6TTjMLZkQnaIrXz9RYk4CoPrds3k62UyHJ7
+bS4rXUfqWL3oZgqcxv4wnqnE2aSGT50ln0Sm0bIXiyfkZe5kOAXj2cFWiDHQPR+
bkjZKt4zh5hx4hchPt4n79FgFZyAiwbogJw0xN1TDTwqhM6V4xBSCJpys8WlGB9O
+iGZi9+cvEo6Vvsb11VLBEEmI3MySpZ3RcG0jxp+MwfwkqAh+8xtEH8sUb//wlhd
s5n72IjmlAB3HTGJLvf7cMrl+RyXgYSrUN0jSLOdZoDm275JRDe4SeAKD2JYE1PG
qxEKyJxxtOFEIHvf1R50qTjY0fEwBDbZd1mhsU3Ycz2EM6wIsIkCMwQTAQgAHRYh
BBz3CgkKgpUiktd5Rkyjur94jXDYBQJlQoAFAAoJEEyjur94jXDYh94P/j5PsaoO
BwDRg0CtUr5TKi3XmWRjsECNq1FA4sGKeLPZnKl9EmVwjr2ZndfOs57BO9FExELX
oqrWnB/YhHKwFb4WSne8Qh6pY+BYbJMV515YPtRnCIxFkkl4YGLmJ9xCiEQE77iL
bAEnXZT0QR0dQ4jJiHCu9r1u23df80+zuK5nONq9nH538XBqnPXYODxan/RKp6Gb
2ryvlwQpTL/tmOvxADNUx99/o2a65zWEDDOqP+V8SzJFrFhByBOfLgz2Y4Fcmqnc
geAk/93DFLxUEG7aOIVP+c4p1er7flHEgrz/oTcBrJQje4TU+wvHNEn3GSJA3mGM
8zdXyKmctLrpVanyzThYpPSDJaWZ/qhMOjScXQpZpALRyRuDN82MMQt6kvszbES/
j/EyBZjVrNxBqjfPPpKRbzMwTtpzlpluTdR7LFGWokdsq2bYBDEt2k35h2FtSlxG
8ui2g7hSdAYu5Fse75fnDL2ciqzZqbVu2IzEJYzd5N7j3TM35W5BPYERsp2G/Dsl
ABExNE0cUt8WRlO5fZM/DjbBRE3+BQZR2PBWpdk68rLQaIjWKHwTKObZnO4Dr3kD
HC11FlhhAz5Z2wg2Ni0rnBZhznHs5QKJ2/mT9TjmFEWHZetnPOqL+nHH4NUdXnri
ePFqLY691aF5lcN69aQqr6zWVbeGbD5rmIxsiQIzBBABCAAdFiEE+Ggr4TTGehIz
Ki7QevphvqO4Tf8FAmVCgrYACgkQevphvqO4Tf8fSQ//YCY62T8REj882GSndnNs
mVagxEI5MgapRch2lfE8XiNLQyyGluz7k8TbU7R+JiRnrS4d0qj8QZnmxToX9O5j
3ygNnZZCvEHIf6GVMM1U/luQLxWF1fz1z5wUvOQwNunlyHidF/qgiZyfRCMXMkkE
HICLaWmtJdOKSXdrXXgAIQRzVcK1aM3mpWj3yFZ2RrfNpUlW8LZtJhP0+zQQB5iM
rLyHgUdmJLaRkzELk6cZ/TsBA8fH4br2Kx2zGP/bGelJQBdJCHiW+s4ZULAPZ+Pn
2k8CSDwgoH5FsmNV9FCc2KZQFr6IMX3HnAb3AeLZ28CUmViblNxGLw5pjWXW9vvO
mI+I11PNdMm51wLimPGYEwLugPM0TCiRe7u2gdYlwHGDAoSRpLhM6BIiz43XGZfC
zGV4a6ncRgzyrnTXyZusqhBVP2InsAWMIcj13PWRLlKlxeF75Z9Hv2Vh3z1SyUGT
8bLAqMDXzqG4MGYH+Pyt6+63AW2Uv6exHXCiJ968qTnRNOV4AFKi4ePYgZzKi4A+
/C4q88Xh95seL80UWZrI8vJLW8mW/ykaZUFU2REJoQLfQAARHkR2eWq64iODCH7M
eTjmJlBlX0n+maftybK9JxAs1+Fsw0eaac8sOewyhsAqh32bj4BP/81iP3q9CaJy
7wmrjUKId25vW8a9zASMzVK4OARlJZENEgorBgEEAZdVAQUBAQdArfpTOGqS12uv
Jy31jaYN6FL86qANbe6EIL3OWqBolw0DAQgHiQI2BBgBCgAgFiEE8fD4wjYr3Iea
KWS6Oxu9a7YTIEsFAmUlkQ0CGwwACgkQOxu9a7YTIEtH9g/7BPSJ4+DTyF2/s6rh
al8hDJzfB2vmK3iMc9voAU6AsWVdikWBNUJahNmIjrPEwPzk9/58Mla6XzMDT9BB
9D6UFiKMz6bxIqziwSwEP+ueR5CdTO4kD+fD1qgC4pSEQLqOGcM2iqNYRe2HHToY
Wmym6xANZNf/OPJXt52Xw4JwbPL32mR4wCPWUnFQ7FxGgnooS1epHrQxn4vxxb6p
9vmbzki/N5IHIr7pIVWcBQ/xrAZ2yWkYKRRHpIKFJaobjQo/XAmVvMISWWPR3gr0
0Oa5+tHmI2CiEa3FF62+xv9N+62L0EKfUJEnoVmsjiezy44oDAiCuaJGcAIAuzrJ
71VvdYGJVcW7UTZ1TN5BcPQ+583NcXxqcOGtaki/hVlF9zEiLNNMWHdTI5LK0ysR
ePO+iOohHNZxF3vsoB9SVJJ0UQ1hhLs0VdSOvYHW7F2j4SGZ/DFXol+5WrVIktiZ
rQJSq8cJZ9BGtVO5fZ/cJaHHQSZNAYC6+8eJLFod3/l+RCCaFG5Sf3X1QPw+9/ke
jxphx6QUb+hND2+viV1f8H8z7H/15SSGqIuJ2ab4vRJBiM6f18lOsqRYkuCQfc/C
mam6ROahbaEmes9IqzT8YfA1XwR1nkJCcEiwc+Fsb8DZUy8M8b5C8rZpaCpTAKub
7v/shJLwln2TPNRPoE54VB20/364MwRlJZEpFgkrBgEEAdpHDwEBB0DSVjzkWSVd
hlvAH2Ie+wFMw/R+D6Qo0URqSYsCbGKGGYkCrQQYAQoAIBYhBPHw+MI2K9yHmilk
ujsbvWu2EyBLBQJlJZSnAhsiAIF2IAQZFggAHRYhBDI36DGRVT4pa9rH4YwRa2Af
lybYBQJlJZEpAAoJEIwRa2AflybYyo4A/iGacduZ1otLT4MfflHnzMLr23mYHdwr
AOyphzXp/gjHAQCRAUan4CBJRJIbPJQAJHP2s4gY2QtaBwypqfhRLW2yDAkQOxu9
a7YTIEtNEA/8DX94bT4AV0DfkKZRbtCnytUjVxQh6Zy5C0Mggb339TWnDDsd0FP2
R7Ro3spJx8yiJCeLhFxElRwwertJ1JFnyeyjK9pvQoxI1YnlrcW7BJlvUqCKRGPg
CtDZ6Ium1u45QfqTFhl5WdI6kMp5cptLyjh5A08MDZFtYQezyQuaifLmE1Fo2Jyh
DtPa7OpK6adtHsalH5YQJjxAHOBRw52aHz6sz45toXWSds3h19xfDNtTd27AkMpm
H0RpxRkkte/MgpRW9GCwvaj6rWlCHQ3kfcEdV+YSa4HsKu5GCv/NYUwbdbxrBbhD
3gUtQ2oxT8OxPqAxT8SwPZm2/dLnSsqQ+EeuP5FrzGdiO54Ijh6r2UCJNTEm7vZL
hdZjVzzbo8sgg0pkU05yO4on/hqwf8XsULNAViDtNnLoFflnRnpRelJXex94Wimz
YD5x1Ndp7Hre3OfqIZpyreM+Qbe8SScmsxWGTKGDcHr1Xr5RFMoxQS5YkE8IE9w7
xQ5vvdz4/Xa5+eY6/4am5sflQOAOuD1i3yomHWpFv6YAo/eDtbuxwuES8WY3BOtn
fXCc4cvpmbpStHWiWedQtXDa+nBiRlSHCc/GFUe1AYsiQcclEJNlY1Fq/YF63aoG
qZb7S0235cl5mOXrQP2SJHz0Mz1Iwv7SPidaYI35VtAsT/44LVrl010=
=SvYc
-----END PGP PUBLIC KEY BLOCK-----
