pub   rsa4096 2011-10-04 [SC] [expires: 2025-09-22]
      943467B86733FF03C25D058C4110B337B0195D73
uid                      Linus Walleij (Linaro) <linus.walleij@linaro.org>
sub   rsa4096 2011-10-04 [E] [expires: 2025-09-22]
      F678E5944F3DFDD4C433C9774A023AB369866A79

-----BEGIN PGP PUBLIC KEY BLOCK-----

mQINBE6LXOUBEADNc3y9hP63f3skCGka5bE25Jl3o8AtA1tmFUTEyZ6xQEsLoUmu
aAMN3c9lV0OnpAdC5xWPS0YBr1u5l/gYtgiruEdSyfQ2nIJGvG+mET1u/kpNU5zK
wJIvVZk6b30SP0GkKYiXtBGPBr/w7wOQLHbiMhnN4vngOYsdqmacAj1HYUnW14bF
dldS+niM2AxtQBajqtO/J32zFNVvp6zZTc113kaWH2aGtT+rvnvw61rGirPmld3t
Iq/jklWQJZfqjAcpuBCcNifibvnhqHv9sD5dFnQaviz+BTCyDk5nwdvqaBLAu/oe
qYq7nZ/PU1q+ewX47EYn+sqAxhIBc326Lb+WY/YYxXTCPhTi3j+GQGT3XpCA9vPT
3AFnadlMZWWTkN6DirUlMtaXsLE0b9mRJzDRm0qZSA9uN8+pQi4uIDpyddThEwqq
kBpss3QRbYKLRrZK4ttpWOYE1nWKQKDvnub6s5olajmf8EY7qncGUM2rf2ypi7h9
XxPmIMkDwxn9N9LVCgr75+/m7PNi+vd64ct6Ld0z4wxvti8kVthX8FWWTLWOqkGX
WmgkQK5nkk+Y1mTg8wtRQnF9WWPEiCTqITLKGijqokdc5u5zpgaSigJSqImAHoT9
EYmkOfaG8mp6V5fpU2ys+JjB02ASTbdHxKOvoz2wX52Q6CxDnOQoNrNrQwARAQAB
tDFMaW51cyBXYWxsZWlqIChMaW5hcm8pIDxsaW51cy53YWxsZWlqQGxpbmFyby5v
cmc+iQEcBBABAgAGBQJQPFTLAAoJEFBXWFqHsHzO9JcH+QFEI1iEwGjdL7/jP+Up
tqgFnKcvFJYAgXfo7Uh4RPoMuEpirNR8THereWAfwp0/yNTX4Lp4QjFjJqsaxPpu
/fvKubrD9T22BzAsuQjFKK+0ql6jPL7jLtVBmFPOKguwJKZBNFCO55a+s1mlRDOM
AEZPwqiHLXUd0NceE8laeZokZK1AhqDBDSCGkCpPz9OPR5eUtNGDmK55F2yoAKPV
nKfSf7diqhxcul6ceDzFZo7ywU0j6Aztf5i8y0eFiUjhh9RGnsljCIWputPzxlxI
Cos7Pot8W2XcFs4thw98q1vPrF0nBJndJzaa/JwOqU4eWkIYfXVE6BLUTS9mbBOZ
ajiJARwEEAECAAYFAlQGrrQACgkQpsxoDAqnfrhUNAf/ax7oyxCsflKBmMUYAhws
rKlLWNk6aubkyexMrHSWr+D6GZnlLcF04ZKi1NHho4s8Hrs64CTit3aTbvblTaop
/HTh+by3urRsV2s08utL0y7byANahmx6Wf+UDdv7y5XewIy6/Hv9MvmK0h7vuiVy
ZuSPgUcM10DJ9NybaICDwBv4e2KYSjVt1fwgVyB6y1k6cK96jvs2X4e5cBs6GtWH
rZMVqxHhRRf3m9wUwt2iwHGJMK3q97rSn+VojJmYy8mmXJTTot9We4oGNn3A+m1I
yEyM4iwbTCiP+FM24xNemLXkATEAGiKnAIMemn6/ruNGrqqW/1+z8TqIFLDqnahS
XYkCHAQQAQIABgUCTrGU4QAKCRBgq0f/yQlSJ+KsD/9G011wnExBj8GlcERppvEw
4I4T8aJpnBQuVbhpso5zn/a+cXtdYOq0XDYO41diWkPL1leMqqb/9HDIB1C9ro75
f/rxy/FHTPhy6YGI31BYH02zQKrsjKGvZiNnQsfdi5o3B59pcaYFCLUOl+oONx2d
ke1ZYCc5+krtkdrzircF/WYIGzfkWrTlcJqPaadPrd+7oo349ebUm51xbeObP6kQ
m6No1PdVlvS3CTLnE+iv0O9TTZRPh/viNPzCdhxB5WLLcko6C30UbqMHE+cV2+Nv
b+S9xoBhjCmThqE8Ho7AJhb/bQrQdmrWnikdGfMtinmMxJgW0prm3+omgRvc5NcV
DjbRC4ewcbDkLo4W5HWbPbEu6JBJJmJ8gyFhfPTV/IDeDN3eJfeXwKzSGDtM60zD
u/+a+ivcBCdxjjnKYOoW+Q9UBI44PFrtaCTMxonenuv34o6Rg8ZmnvFiMyEpCHAp
sUjy2i+zwxrXhimgWVqh2JGru+Sj194qFSIl09xC5OmVFzKI9IN6ybx4dtBhEqBE
7oYWocqarF+ODvbOZei9s/CpotyuKewgbh/Sz6WT4W4SN05RPKSNpA9W0OW9sYnW
RIH4dv7kjSMX8nWu3yEuDNofXcWomKv29lZYZyapZY1+XTz4LEyh5TqzWnMXORoR
a5SXyOSByYmJ5N4c2vBKVYkCHAQQAQIABgUCTrGVEgAKCRA5y1RNZSfPYFonD/9e
eofW/U7tBJOYyBMKUcA/0ivBPiQhRk3+ohMec9N4B0iHaVkKn8UXgDixW31jiQPc
LD4VFWKOUyS+8hzCbuV4P6e5WQfrT5S0kGovPFTLcyDrBQDaPFQm85bqskhm6vBB
mbSy1knD9mbUqVZ+nd+LU3Qc1I/DKzV2U3dKAa/nAyTsz7TkdcsOd22Oq6hADVw8
/Oa5LpW8CkEyA2c/u4ik+f4BRwWF1/zrEWjXNvcl5gYY2N/hQedOglIVYMmYIKb2
1+xMmxMQOPk1LnTCIBX4d/AkUAd1Z1CdgbiqwP1O1gPBsHdu4c+Ywz8z2RIITliQ
fQ0TsrgKWpKYSkfacxm9svIQxqe3pLNsS9fgmhhm79AKpkdfJ/IZXvckx0fuJ1bV
lg1vMiKvMiH6LVtjraZr2ovI5TQaOF3FerAyyUrnOLdFu27MXEg2FYzhheyfuEZG
k5vIBzWXCTTTQCm+65W6niP5l+TZVB6tRgDyC5dj83TWXohiau0xE+Ni8w6jyxzj
7S6O7tArnjY13KXPPCem/ps3h+0w5kFRDdGHNnQ5KzKAhCfgygilwKSui7WO75YD
V3hSL6Hs2qxJE9uwxSJ8H+5D0/83xF8NLVaYeQ7puq1SmkfvzgJmsOgU67NdATpF
rM4XOUVUTxL5QtyODC1OgPJcknEWmsaj1D3JCSMtnYkCHAQQAQIABgUCTrPu6wAK
CRCevxLzctn7jC6OD/9I7DbBWC7Q2JcpUMrZ6sI6z6VdV2n9WSIzGBZlFZRIyZY9
RUFnF0N+dz4NxwuqKUxvgdqqF9h+0wY/mc/ndy64xYfRUBGg0jQ4d4dQcY3AMb27
hfDyVL4wGH+vuCH6gR3rpxctFufz60GPaFJTHsa3jU0XlC9E2gvrkPFWKFHfO5k7
+m44XV47fMhH5MPnQZV4xGqItvl5rBaJZOIp0m/Cp8kI3aoKGN1Ed5UQMCGQkC53
tY9BlCUJLRVbhlwNldW1m0pYBzxGbqx+ovX3Oy+7DGIzZKOdTA6HffRNN5LXRDFz
55aPJFYcgCsLMnqKntVVC1qt4aXFMAv8wjPxPhTRjR0PqLLb7eyaOX8cBnL6qHR6
iID5vnldi5/VamlIWgyjC/MxNMkJ1OoK6IeqxW01XjAiZJ9BtiuEKybv+o5pEyxl
8UOQFNhMb2+GNxKLZ33B/FHD+H9OQX1ZQ2MOk75mn9Wyq4kclpeVXSqgvHKjimCY
ne4GpwdyEOji+M+QHqRDIFNVF7fl9NypMbtAUALKv3i3GUQCmREnZTmIfsZgKU0/
0EGsqbNXUuVqBhurZN3YXISHIMwjumIdGHVTXEQjg9uaUa4vA9gkt4PdBiyXgDKl
MDl5dHwj17XoUcMmfA0/UtrEdknyeS77QDZGjSoMUV09UdO1s7tVzH5g8Os6zYkC
HAQQAQIABgUCTtKCWAAKCRCvhiGSQUO2dtoZD/0YjIFipfstit9iHwEh4PNvtXjA
xgYsfMwUm6W8Ovgd/vSHaysUaCQawvGiEyBlRBhzucXVdT4QNTIpjMp/fi5XWrDc
sUbC1PCZXJ7BbvLP6t17QvTLxW1Ux3G/jDONS5peCzaCAotQct/dSHDQfoumXzK1
QBy8kdurD8Sx+Z6SJnpjqEdZm0wrvzK/OvuBZXij33dhoaOVJaKOh+OqRwU7C5t0
4Ewc1KNezJ8x2OSa+sTDfrXTEig8Fe5i0mwxiTsFVXinlC9Jm0DVAX2f9+Ui/yZI
wuTc0LpYMHbDccz33cEwz39Xit0nJ7qppSspgibqkWkmbwRZW37DKax8NZFAIb6C
vw6dyz60abkekqBLqFEtT4ozQLGisAqOENNGDebjlGVOVQH+jaVlIlxp4cfanyVa
Zh9tyriO4eJvpxOVBpWBPhSCetiAmfO05SoSEf/mGKp7/z2zpET2cCQIuN1jrfWq
UQZhq6EV9xpoK5ShNOi+CqwXXhMoQm92l9yOuMvZRVXaqR5IOYH0SsLqdoICEi9I
nS8qJ2EegGt+eQc9MIcu1ctKKfTONC42Cr2Mbnxw0Qhvhy6IwpLmABTjerp3QRFh
AGbxD9Lm3ZOipjKX2jJa7FqnZh0KZRaeRBX/cycNJEzCvNoNFSz/EG2FbDNqAMvk
VbLE8+v89UwaSvLhq4kCHAQQAQIABgUCTt0g9gAKCRDHj7ENC70qSyE4EACRrect
N1k33etOneGN2KkUDBKu9itAXDyqdqV2k6KLa/QiEYAUVENIiaVSlM4KNfNpiPdl
aCXLUOcxYBm6KGbZzk6nZz+LbHU5rRvxU9hefyjr3i4sntWhsRnhH978li0u1JwP
HdjYurclRNwaICaeu+I4MlJ/zLY8xruvlRGPrIYnGksab7lDlsn9fjLCAk5XAeZm
S+iPvxNDrcTxudDUHbCQzfW25Xds3iaQRJlTWi11V7KyufQeUbMTnIzLFJP6ogT8
Q+c305OD+w8OCD+A6RiYw7txQ28P20Z0/ol5T5QQiztULQaBKy/OeCptFeSASx/3
i4IG5KhzWIBC/X2zH3YzOZkwjxhalEpZhPRBAdmIT6tqK4xsvOnoskM6RT96L2zP
D4BZ19acbI8LPdaxfPzVs0YbeYwhAyo6v3lErcUo9RVSVfly923keBqODvpqw3EG
k07qWgJlOHQqyfLI5KIRV5qPUBzrgYtwzJpEDhDi7YddOXC+rezNXz60hjQxvTLi
mEerhEiRw54/W3kjKw2irCfWrdvfnY3o6qpmkE4JgiYXpsop17ErZaOtqTkA7Z+a
0qnAczstno4+y8IW2e/EDtbI1SSnz/BSBcpP9G+3PJtYYOBPswet7Pgqqq0NEwy1
4z1t+443WAohElnWccA0FZg4/UlsnyE3YMCDIYkCHAQQAQIABgUCTzGkcgAKCRCM
Guc83oQcd+xSD/409H/350ViYPileJuuli8JhhxuHrdrT38iDAuKU8HIf8h2mqRI
yqVhXxr6iYk+HhbLO23/HznidSh5AF/91AiZ6azBE+t575NgRij6PaVPgqQ0M2rT
TueFa+Rudn1ODD2oXZ8xHcAmS6dcCey6RfVxI9GpkDkMEqL06KCZyAS4cTaGc29M
k4tlmjYjARysH+sZ4oQ7791+5QRlDT51uQIeWdG/CA+vSo5ZkilnUb0r4dlVsWrr
ctBQlxYrCEPAVu1MAw36povUD6KyoVqbyF29Am3GZDFpYvaUCkKgp/dgq7w3QBg1
mnmNGeoKFus0Zvh6nPSMUJKwocka+ZtpJTzu1BdILm0yUPvml/duFQYz6zhauynz
EOmemh3uQtruIIt2SaP5UOdhPF7KGTVC0J2HqusPJhaDu5fJ4DDb+a4U1U91v7mD
mpQctFy8IGfbJHI1+XYreL3wQPfQ62kXN9s5MoIW7XQQQWlTMFlxC2ZzCkSXSl4n
NSchQCDgXPhnH3mOLJNn0JWCFm1JjAxGSaf+eeasW6Zbg1pzT5YfsEoOT/TKm3Z0
iGS4wtaARsZDXhxHY04DgAHd0UOVbHXJXEu8vrUxi4zFuDJHbgpwu7Zje5vlUjju
CfLHLK4Z8LAu0YPZwEvxs/4T/nBqdgZE4KyH/YJGKQ87JaYkr+pGJwDQxokCHAQQ
AQIABgUCTzR+6AAKCRCtW+CQxq8idQL1D/sH6ag/YSzOciCD+OVKJN0UcOygRPNu
sYQq7+zWtvjWX1+g85fTE4LSgW+utPBlhjo5QyCqdKiBrWlrIt+xuzPm7jA7rYEI
tlCw9jJmO5W2Ayl3ITZNaKpkMcLlcPa7IzFtsQa4xuYRSAET5r0Y/v7nSfmwjq4c
M/x0N+bjDTHEKpJuO5XcIr5+GkCOLL2RbVispaCYGDudoB0dg8A8qfK6jaLcb69R
y4iLW34zKizjDAex4779vGIj0lUBu/Ej/caa3xoKGRzh7eULfj7Z5/KfUYL2++cz
jqcWiXlPignwyj7LMVmS3AyR4ZIi3AfFqZzZ/GJBeG5E2iKRoF7OPRlOheWVMOKV
6eRhemc2ITpLv7xfHlNtnbuDcNKBzyi02ODXtZUOLSIErTLUg5lz/+ory3k7+dqG
o+4fitXZJSLBToBEDT73O7ZjIf104YEwqcg6cuHaNu1c8dooXR/hS6a7VCNZbQNb
4kyFrLJql5QkMNn3JEb/h4+/hqczWrOarkE6rzpBBTUrZ10SuF5Oo2Tj8yPwHpnZ
gCITpLsXegHfoRRaqITLGd9nKQzloUZ2Lh15o+q8Hza91ruSW0G3CPaCcHii5GES
aDHRI0gGdfiDrsjAaY8VWHGwbscefjOSpCEHug8pbx7NGYLw547O/wAmWW9hR+2s
u4eiJx64tWZuFokCHAQQAQIABgUCTzlYFgAKCRBZNxia0/vGZSgoD/wIHDJmNMyE
saxdzNfAohvT0YOu+EiaWuZnycn9TJFA+JoSSMtcE3g3zDv4cgz1nMH0kZ/YoR2d
/NtQeKpdbMYLx3hIpx0hQlyPFshEx1HupVT0MxIehq1inqp8DFKYKJVM0FFatMHO
L3bkJZOZMhRmsXpYtmTdQqxrBxh0wm1EtvwR3xm6ffTQkMsbLQVx2ODaRuYevW1P
5EfHa6Qj70CXRqJ3Kwumfm9y3OJoz2Noq/9937ekz1T2R/jHyw9HiwYQ4UWy4sxc
UMjDgE9blvjErRRgJCgrdyT6c6A4P0DSksQTmSEFG4Aq8undEPzw4qBmp3HQIz+N
sWX+t9w9hMMyT06MlzxJbDpxH+brUsQ9rDrBLFALjgucuBb3MQ253OFZ5rtk/iUZ
tm45uM/PyDw6cC/9D5T0K+ZMAxN9ftNlJ14OMqp/CcKw3gamp7GI5EyErZz8NZeM
1V23udhXgMsGdNcWDybRI0rwMbwXNgyeApjFZwRnV9nWavcBDGzvfe7VjKypqSOE
X80JVBqR2Oth8YLa/dELMAenbC5UWwjOWggZdC9loLbvlzpLZuxDNnoebcgisUmA
OBMrff/ZgTkpGI2LO436pdMCeAwFn872wmJjGBxes1TxvMDLEHdAklxq8EsSwvJL
Ib5MIytc0N7uQQPzHJcygJVKGjuaF98GrokCHAQQAQIABgUCTzzbGgAKCRAj0NC6
0T16Q9yBD/4qQ/bH9GCM8N3czaEQbCptaIIBifWEgBCL6yU7JXSKheQ3NdBDLi7V
qyIx1CbYdOmNdmYIjdAKv97RUaszsMnYK128r9mqfSs9Sc3t/vUT9V2EW3yXqWZZ
eKqn13ZDMRmyWY5ttGwvdbkkVAarRIx2jIySONX6pCqZE0U9E09PYB3WYV0bVxh4
/HMG1u3JkMXiZJLFEYpYqXOYihv41w2hFyP5oGebMv8LgeCmTNzXmjZO1E7B2UVt
2ZwJ8Abx+xfyuB0t5rmXCDwCRUqRkZX5i/uCh86llOO7LNi1kZ0D3/Umj1B5dQB5
a88qyu4Q3iKcjOeITpp2ivBHUJ8x07gWMEHp1SwSialkH9SCcq6VzJNAno1xXHAS
ggGJEIBAEw615/w0eYQCI78zE3Zp+hzgYUXVA3pnwtao7G14VwewsuAJkpt9SZo4
I+NjNAorNZKOeezpsgvKC7jmsHDZg29gQRIa9T5t0IQpEV9/orKNGHwlwpvzA5zf
x1lPrj4HuSuX2+6JSmmZOAInM3EUXm/Xl6kImaRF//Y0b7qU4KCnouurXekAC0l9
TZMrnbSqshygE/m2wBvfIUYF0Vv3dDjh58DFGOq/50/dncPjqGfJIPJEMgkngTdd
GdEKqWa0f3odp/XOgzMhFAQpYIu1dKIUpNmkeIForZnLX6lfaoF3QYkCHAQQAQIA
BgUCTz7kRAAKCRBOJBWpob0vgFsSD/oDLHCTAYkVpFdrz5of1e2jD3c3Jgjk6NVT
yHkkcoro1h+YE0UsKkTG3qpH1mthBQ+czRB2MAB8GEvm6aJXVTiWjUMMYgs8RnGk
OfDgixMYIx7x0e+GdD3cOBemT3MLQF2K7WCc/yH0frF9NwD1UQW/Ir9exLXjf5Vg
skEBdVMSUhIqyr70Dw89+6FQxYACbbGQ7wWL/vaLbUytFnuYr06lVDGOUqu5foWa
Ob/vYAUYmLJ1L2JfXgMJXmvCNx4wobQOQVZ1e98fEdpUWS+OW5sOqHrejr6djQUA
0gxBm43Pj3MODoXw339Cb9bjV0fN8BsshKEYGhynYQf6bJtBthnWrGRf0oZAOuZz
8dRcQTwEYIPhjoc3+v2TGKcAU1kSCd5YGOJdksoL/TtpYYEkQ4hCLyhkfb7+XP1m
2LO8dDTd/yVibb4vWxAGYgki3ua0hsmvWJSQPRUK1r4ui4L0u+xq/MLunC4WF41f
1G9gIb/fCXyPRMGicJZ2r6va7WeR2ivUhuRNO4Xdp3R6qrbTSE5jVEbJ2wDhbuHP
TOV+5uA7Fam4aqR2BcI7ZTKSOF+7rhl/CW03IDAnPaK884dof419Kn+1kfzpj9VD
Tybm2buyzi+rVLQz5cVXCaWt8JUf3z6+ikaNeujncy8YMhlhVg1FWdmKKupl8c3Q
IUvb/qpdOIkCHAQQAQIABgUCT0QTkwAKCRCy6JTJU0SKDGJgD/4mMOC0OIlXh9lH
6NP6UfZvVnEfwFbLCARULKtZ8bikUnnaIud2KQOMyA3kJCNc5377WFRowSWUA31F
IsyRg4bHvawSuQq6dU774fgow5o1PQxTiEsB0t6B27djazDBhLAUgiYzkppKgG73
uxX9n3ir5Ybn4GmMBid3EgyagMnzB8B7W3JL2NhRYW6yHdWMcqvKSQr84IO+1NXW
he6lxacH7aEKuDoFluAr5UkrhF2OFI/yUjwxi9oy4XTIkyz5lWfEwbtYGoKONrbL
hLGYG8BI9LPrS6GQoB5dQnaX63YLQMucdxLCNDn+jI0KMWfWusNsysq3qz6Cy7Ov
Rj5jHvXXrAXqwrMC4pCqgqhtfqUYfhMoZUqbblVosaL1jTLrXd/11fqhuQifDgjK
vAnL4GGfRF0MpORuVPdutvJ0v1eYVK4HS8Q4Jpvo7W6yVQPC/Yxjj2boWf1Au7MN
91krwz53wIRhw2YPBlOlmywjNfsgZdpr5MQgeKeiDOPRWb+wQMEsQuTOO6Gz3iXE
SCvvNIzsnVJY2P1o5DIttsoNwDv+wXKt//O3KpZCuj9/zHF+4qCb5XzaE6Ai5+9M
YoTpMVxvOj6zSnSHDagWKHgrnqys8YL0v74Vrdt9Y+8S2Vh0ADcpPrs0/LqNgoiD
jqgfIpcbLBhEwEPpjnno6bI39IhArYkCHAQQAQIABgUCT1+RigAKCRDrwmzbWlbe
c0PUEADKbPzlq42S4tJ6wn1pHe5JtJVkfuUQpsn3Wdt4qgMIfqUz9qIrUJno1YXj
wqykKDuPiTfz032hcME3V0yTmjvQI15/gQApRYQvcDG7QqTXJE1Kn2IKjHHO4X2V
0QGv4qqTfXkfFVNRXnN1aLtwY4O9RLl2YspsR1sJ1W1OAA2rSntdcp0ED/nQqnMh
mroWcsJE4EXPasdyfCjFNpVu6OMc2sL2/TFhpdJqgyZGiRjbMXs8SFOsT0N4pPvQ
avFNcbaV32KcBHclU7nW1lB46+474NL3eQxo52ZwysbK+es/YoOvsopy2nnAA+sX
r/lBb5Jmjq6KwvfiRAdvVkPglMnA/vO/uTZV3ZueKQXUbG9sDFZrBXoU4vOAyJtr
rbiSMtYa98f8AUXKuYbbVGpBGFB+OO0o5R5fhUZOSyd0XIJ016Wc4Hbh5bCQweiZ
ltfkveouKG7MUtZElOHM0A6Q5qicIt8tZJLlcJiwO+54PBT0roSp9bOcT9B+t99y
NIF3euzF/PwVGBurwzi+bS7uQulNsIHq0jFj/lYnUCy6JuUIe+LnvAdSnz8oFxVi
ZdANxJiuAZPk2FNbwaiDqfyiMzFQKEuTrvzEw3RnuvFd8WFboZsqPagaiZ48T7D4
8TtF+d31TmpvHwPB8IGdv24jPglU3/0nNq5IbsEeBc2dg4PwOokCHAQQAQIABgUC
T/6PqgAKCRBr1rEtAMhe8YkbEACLr3jP3tWmbYPbFX3Nwa5422P7fwxdGvVpAOvo
FbV2G82XDgbczArDfBR1tNIFeNlffxH19/HNmKbnDD9Om3WFeJQgnXxm1UvVF6kG
y2XtYy/RQ0sAa25HljADWjGiph5WMHCrojxhz7RzQyQLUA6Kc7Yr1RTA7skKyRv2
8lDQLJtuLvXDzhnbxIXZRmLCz4T3+W44nvNUza+1fnxyMoPSzs4pKQKVl/2qxTOA
w7kEXBzYzIzy/XewKlXeOqy47hR9SkJy4uJH8sucVdXrZl/A6QZs+gMdlwe8fT9p
yApz73DfkrZVb7lSVv+tmhygp/B88RRmnBKaRU9+C+DntHSqif4AlycmFH4jMCWg
99lmFefm3VgUAZotKIKS8cTBZTZ5t0y6R6GoJu3GGsfAxTFNyOqeHjmapUtZMlzd
qB+GVcxHMPLa1uDYbqe36UmtaxPjU6vhwObOK99IVA56AzV4SLykbR387kNsZDe1
XEhmvMsvwXNKyzKviFtpEtVFLyps3MkcflFJ3zDl3DZANGAkA8zlWVxsCr2Z7o0K
Cp9Lsx5CzE/iyscZkt0CWGPX7iLT7KbYfLWeAqywOpo7qCY1ayvE7bF+8jJea0am
u5wfxd9PRa/Ina2wbQCaFt2toLb5gpdIG6vxfFQFU46OfMMNLpsrkMUs0tCH8HZ8
oz3mZokCHAQQAQIABgUCUEEkBwAKCRB8FAcPJSODRwnNEAC5tZ9dCpOmx2/iTF3t
v+Od7fYZ8SZ2cPE0SgaibVpTAlSdwCfqQ1Wb0Lg8atQZFgt3h+aYP6x6DZiOV/76
wx5J+WFjHZ+K5/wwiu0+BXZlibmXRiYC5HEbI37WoKun0FAceSWPPph2w4edZM6I
22qHodigk9Yqb0unN1nfn37PipHwjXmfiPZjyYwHU/OeW66vswVO2wlcH+5sQE4R
Pzm26qV7Yji4BUhMjJLV1wKO6EimtZ/7b282kdCVMr3c89enOOzRZ4bULN0QgfuH
cgr/EjTizQaLw88npgBUaRffA5ks7PeOLOOLgneuAtAbLOMZJUu/2aYWg85FtATk
mv+bJ5HJ/lxr2LTJI9YSbgpw6D+Tnd3pTLHMz9PYPhkBMMG0XknQYstHZq66FWF6
8JbF3be/49ugXvKuoC/pZN+qG8cGkO0+D5hTt5flJ/JMqan2pVtkRy90p1i6KAWv
k3QwtRBy1GixyQVMYcSzMd15qyuXe6/EFMH1frusVGzH8/zNSzOLX/n+7uoY1dwF
agfbcq+4e/KzcU8RokejaevcArN+mCTQqPAO9KpXYn4lC3kRMqsP2yt2YDCBx9QI
uVwJCGiREND3qfACtPAIv6kWhIlgVz6GRiaic8qhADAgvCg0kDeXmLAT1mZ02WqW
SWRBNmYoQZB05hAcuXlA+uIf54kCHAQQAQIABgUCUSebFgAKCRBhQbto6r4ETWiH
D/0dFkh6XCIL7Pdrzk70K2cUyHqoEdfjhzpjfn5S3gX1wkjcLiVLYR+F29rPbZZw
Elmft75u03H3vn6IfkSgfEcXLrHtfvCRyTWWBZxtURynNmaVH/5CTM8YhngkZaIA
Lve3A+eeQkUVA5kbS0bNINysr2EalXqEsDEDzcPbH6Fh/PK31OQt7rkEn5e2Ovar
9g3QmJX7eNV8MX5U1L2X+9thiiOxxZyPCQ5GfJrXIxGmat28i2adZlWSxgYUyfFT
vt+gu9FtGxXbrRR1eJ0/yc2UHVCBeSVKtwlIVjqR9eI0DmM+iAm+K2bI41VRKumT
FgTyx6cksKPUz8h46rSG2Cu7+UPTQ7JySVg0wVDKFl1GHa4kP/XXRKWmYiWSzXbT
ctB/dzSPYhxJZqa/m4GBpsWF/ULJqhNFSoDnADPvcS4PDoAbSXtVU/0owInF+Rle
n/3TFl4bYjXpiR9x+fNDZ8olEdbJqPgoc+AvWJHbxbO5fIQFpY5phCtVTCodBe3A
ajYeX9H9CP47nQOES8iTd/T5EgyCNaZjS4bJYfdTr/vqV5hSlBToCpqCbGftBrF7
mhB2XsM29cy6877okc29pO59/kmtu1/TTuOEIPG+w453viwnxl7s9EdHtixMGFOf
PxOFQrr6vs6ulTQyBV8WJeA2KvgBW20uPojpPSt1TxRHPokCHAQQAQIABgUCUTRM
TgAKCRA4273IYJJpPg52D/48msV0bQaGBX0LAcbSQND/bfqrylU/Ib/2HgN4hU42
CG4XwfPymZf0w2a1/OdD4doHXFZQSduCL9Bw9wpOO4OxfSsDkTnyvGQlJyW5ZhdD
E4oWUvMMtEUjOpxnKgUs1gSqhyFD8jsFOiqJs3AkWSQvBYn3etHVtKqnCcJFDNkC
iGtj/DQbRYxTbQEeeYyaJg5ol8X8WA6UFvRqwPd30nSu3fBwKkDDkhYztqiZJ7Zq
zcr8E28PtGlruxSoA/V8CCMlqqt6paUUeZuxfSV0H03p6P+Iw4JvP767/jMnfp8d
jumWsSxKs0PaYuDQuzF0ddNrSdTgYZKdd1yCyj3moo6PCkS8rcLKUkyXlfGFJ2Lg
Nih5aW3RATmUjdcu5mpWVulJIBPzBKCrZZSyD4o1tiApkbpw7pMcN9DLozGnvjJd
mmAakPOzeTATcCsbb1vRUtOK+NwxKuD777/lrHU/1fYhyIBmp0tsFpJXSJAAH16u
dz77ExIDeN7JZzNiUDkOivyYaiND1KT2qk4Gd5G7YKPK7SUk9IfLGklJ2PqFgVPG
/bpPTQraUpOiGNWpEBkNrJbHm9/evAXGPUKdeE8wxgXly+eWNsbf9PS2DjmQh15+
wsH0k92HmpQVrdwWucJvP4ybU0sdXwcNHh17vS9hjOx/pp1k4vXJqxM4W/bJ7VL2
0IkCHAQQAQIABgUCUTWoJwAKCRBybBznQaeXP9M/EACltFjsMKJHmw+jmq8Uwkpg
uYMQwk9Eoi87+rm9coXl03awrDqBOd9HWSd0h2sly3vna+jTI+AiYHdjZ58fgEz7
KWtO6i22P4yn0S6YqCFWh8Dzypfjp9sSJXt5mRr35si8Yz1/QR1omuy+mkrR9KFd
OFL2d4dgi+5dTZhjZWSmSTK3tlqT8gFcpwh/b2pBaTO4GBoR8ZbqkIAiGxahkBo/
Yo4zjO+eVNCNOZL1+sQWIvK4HFp05KKD9Im5kTScNvZUnfzDZRSnB/vbjQVGO02j
WrSr5Ic/CEkrMuaAh+ghvIeh6CbyQMprFopeqvn+xerZhARC5EkE5FGu/RujZgGu
T8PM8gyhI7Ndo6O3nHjUN2ocubQE9MI6CTyIC2UiOEgHIM6MwYOS3yJlhnlFGwZk
w66726OEbOrJEf/oDc2V/SxLr0ypxRg6wkAKumKX56/zv1KKGtQpPw7WPwQ4prLf
OBDSw8jmrIrEuF1RQQ0a8AXRDRaveQY62WwkKWqW2L+THzHBP9isXFNcEVFMejsU
2ye/U9LDXvQ6u2riS/noafAMsda4Hrhtlg8WIn1O/Ao2BpRo8Rzj5WQGOdk8OT07
RrQTRZu3BJZqe0/FS60/rhtLGMChxv5VmJcGOdga5f6Jh3yYX4Ppsmqa1ptfavjy
o7tfVrgR2PqIxK71o9vdSIkCHAQQAQIABgUCUmqBiwAKCRD5LXPJoxocF7JmD/9t
qZCBcOl+Q8C6R8b65dqO9AAMqFTgfihBXS4kgfuOmKSgThdJptCf1J0cyNP6YTM/
Z2JjACop2mD8pkBcP97/luqExl6tAOPW7G6jzmrLGw5+QSz1mb4QNjDOKenwRiCO
xvvVrwc2OG3TjD7+BMvi+73aRDWwMFPQc1zmVjCTWFqoN+8/IdlcnG5mRwwZvkRX
8cTHrHcbkootesVOl9mZMphDCtjc+ptCZcAi7EGnSoAc9cHxDh9DGtNUo8i9xam4
ufEWjHQm0GB281zWm1taihN1n/OboStBipKASSSHqdnAVU2O2cKn6sfWtU+znddh
RrCJUAOg9Wq8BYgDbcE7oF15Mz1BHDw6a5/2uP5oAEOy/1f/Wf5iWhTKklRa7euU
AAumj0kb+QCfIvLQXWoVVFFig5dkpniDs0gLTqJxfrn8W4s08yF7U0u/x+kUW+dz
v3LSb80LjK9MVWX2DINsbZMDWTZdT0Aqq4B5jand68erCaJ8DLAL4dCQbht4g/C3
ch8JRG5QPi1G5sUg75/aJhCQB/nGcO47H9QV0hLvSsly+bWKXYXHWT1McbolTMOJ
KAjVlZ5Nh4NajuzD/molZIvPUM6Ve3ZkKA+tzmtw4aTfMT3NSM6Cvp2kvtJCOAQl
djobjPbiVl1XVj45raQKUGZ384oGOz4qfBcpTxMhxYkCHAQQAQIABgUCUm02wAAK
CRBUhTSZxPQWiI4JD/4u378ylw98tI0jWD34M2zBSKZnSOKZue6B4TDRvGmkdRjz
h7H4xU3GzIZ3ebgO2tEZOJGqPtCJO07+pCVeWC2Rs/Cu31gzh2Pzpy+ZLVIBUlRi
sVq3yTsSW9CrtX4WvIzCcNKeRRz7cQ33Hl4SPGQQT4Vt321WG3Dz+F8o4I/sPZnZ
FCH2WbKOeBrDRVYj4RKEThY7pq7lx3/iALDub1wxkeDWYB8VOrhz4ARLID61XQ4D
flpzqhm+LqBjsXn2kjLcgiq2jnxy21Yc8kTpBX7TuexjSefS2O9l9ejI8CupudbL
NwGvL6ZoRnxytt8QM2Oez/tVqb03c0682L0cCXvKY+RKmJ8R02lIoQwDQByNXBWI
vC+ozYPE08+rWVanZYjZSnW1EMVwPISGd8UO47ipWC8XWCtdLaKJXOhcl5AGb3K+
C2ruA/fYqOpjqth2A1HFNNvh8TstSG9nbUuopjIk+OyLrnf6kBM4HykLPcGEsThU
pL4y8AKffSvp7vmn5S21Wz0BnExIxAotm+Kf+g6IJ0eEmkbwyDvpnkeQOsb70R3X
X4h1KyS2uSNJcb/GPjCslrGN91Ti61+YyDctE6Yo/U+hrLFQVtIVvnb3Ugm1EcLh
PqIkK2Z0E/74EgFctY+7sN3Ue5Kn1LkLffuGbf9Jku2xkk8E/iHi/RNSmEh5V4kC
HAQQAQIABgUCUnEoiwAKCRB80eYZL/n0NTAkEACvZssNlEm8Q7o9GZzI+KZcrFsD
/fX+1+sm2IP+hJbjfni1UErwO+3WWnp5DCvcmfDsTK7mV1f9v5J26R4+fb7Vn2Id
xfKhoIjXeQvEN0M/U0WDqXWzrKW6t8jQsn59tTqTURCspragxNN5DT3kLg3EOh7f
Fd18en3gaHq/Lh1lmWGfpHzlYi2SahitBfya0tUd5wzjbBOMr23ZZD1tq79Kdoix
Fq3ORuY4MIs4JRJ1xJbpRO6luH1BA8XmCy73OKTn5ujTuyUgO5zs7BlRo7adHo/8
xEcsZiTz46bchG3VZxJ2k9TP2NqWy6kWGrsEnIodlqYtw5xutasX+HkXyqGy+KWP
iH8X70pzVEBJqTzlEAcTlHnj+YSsqMhahNxlzHLGjG6ArlEvAXDM7Xmzk4LY7e0c
sXC4tQKJFqm8llVpRbcNokq0IQmD55/X16XepLmOncDZLkJpdLNNVM9/CVdVObTu
s+fOuijMGfdfWC/4s0JsJgvAWBBROF+OL/uSPl8weclt+wpgRZH7+Dfv0F0vweo6
exQc9FQLWDHCdtHzcxhLMUL+2/FhWTQJA1zmKf86uvO/cU+kb7rDMeaLB8uFuK7m
en7TR4g0fbcl/zpOWwUqW9ZkLjNbhiYfgOjXS56M2oxzahQMCo2tGGJanNWvRwEB
k9V2khBsVJS/Zl0HHYkCHAQQAQIABgUCUoYylgAKCRAyL+GgtfdUYXFSEACT9iND
XUXs52XLoZQ9qeu0wDYkNDo0Jo/xtG6qDJebGen+mdrFMsldhbPAn+Ji5Iha8q6c
VB7c7abLOuGlJokfGsr8qWTvUuzzz4oh6baCoIzSEUCZFLJ7BFbWlXVZPpk5uTEP
l6Y4KO93UNz82ndq3d1mcohU3iEiJqIYQe5lY9EXBFfH1Bafl4+dnLLyUxUlFMOh
NoiSFwqyAhaWHbwiLxMSLI9Ku1ECyU1zQoQt7EkqBL8hT42nEZaKSViGb+TvepO/
FpU8A9FhU5guorOP8cKPhHHLgKoxkv0zdk7RJqgt5oa9ZQ9eCN9XCaDOa7hBPnUq
7RMmpzL9ABUVlFDku02a5GyD5hJ89KXz/WQIhA7VJfvllwFYkFBKkuRo6RU9cPCS
1cbIHoW+OLkqEZl8diDL2+zERrT7/E/VDUDxoO6VcOcio8XhiWR+o137xfy8DQa2
ivL5O8/81zCSzd/cVK6kdPebG/Q3y3QQ/fLcF2iPtEEh0xG1qItcL2vnmNsadd4W
NlfFihaq8kOtgcUj8Hk3ui4NKcHV37+Oz50Qq9M1Uo2nuA+oEul6xfQ7WV9Kod73
nDjecy3qc7/8jKdmWqgoCUXMxzfpAHm426vHngl62F79FuqkyfnXpJthkwv3OZy5
nXTYcRE0J4MAhX8Z5Mn2TIDK2OH440w5HiayF4kCHAQQAQIABgUCUt6F7QAKCRD+
JoQlc1iMKQvbEACjglJs8ZuJ+BBt665LIvC2nL1hIyxSTO7u+iMvcjHZXTiC1pTm
/kdQ1GnZqSBZCh1Cdr7UX4a5kbpreQvPpJGFxY8+IAOKemf4/CmoyPSSVq1/LXVW
Ns4gHR3hXEtValg0E50xzryYaDg3djok2r8oOrIqgeDQDoU6yDu3ENB/iAbsXjH1
rXYpzKhbw6j2HrR/CVN1R5vcOWwEV/RM0fOaH1bCC1TbcNDQz4liRfJGlgySpQOx
BNYREawkq8wPszEAjBQRupEtums+Yv8huHrtNcncZZwv/Y2oxnMAE4u4S5S15JfR
OfofifNQKU9nq4GoMKLOfdx9lKqNDgP7PmhlgbPlJjr6OMvsr+S6x25MwNN/8bnG
mU+4lQXX18vvSsRIKpNbeumEEUecIDyTkQnGjl7d8hFN+eUTxT8UPikreFKR69yh
IvPHDvKAHNjN2gfQm8Gf7uA86eb+hPwXaU5eBvFqoQWzqmNsspA5Bvf6t2hyD2AP
mI923PDa2bjk5vDxjfoQ+Gei7bUCeBTuOouZmKxBHMlCMaNa/I5MKtCElCPEi233
CfnzFv9wcJTgdGvaBC5l3msu0grWUn2CTqRY0cBSedqiMDpon9Xb1TJaopQkA6C/
U18aTIzLG+86hmykxGqEf9PJ1KWIm8HstrN8ujg8BxZhs32nocXle51xMIkCHAQQ
AQIABgUCUxaX4QAKCRBRr4ovh/x3YaAkD/9x499vQ+cyIzxi22scrcER6WdM5YNr
oR1FYpifCtdJJT4hNUr8+8RoHoTKjlWiOX+YcShWrOqjZEsR+NdblESRU511rr/+
7V2syBgplp4FLhZ/DA+bspskXsT+QEbODmaz3nWZIb0c6YYDuZtKV3BLLGP6/Xq0
M0WbDaBO6bfo4rJc1IJe1KTwG235MpAqWSChD0J81bRD69nEstQFEUYMTltsYrBy
gtV84VFskydNmg4kbt4y730kkYmPb6TYf/7AXAb8KbmX+XdtttknabIfkVtnaXAD
ebOU/e8rxX16Kh3Rg/sQvT34Ac+bw/Re1G/OLU/tJTO4d2fBAovCzwJYuAZrR8Q1
qDplqrS/KkqeVk6MG8+XXBDNt/RPzF4PJun6hXQMdzCtDKhCfFnV4qqaWfwlZcsA
021G0ZQI/HwRF6nZjUBX+reSWsxTY9Go9tRORKLRaoSofNHBp8/dFY53PMiQRFhd
dLwXo1b/Vd9WbPCXjP3CTAzwURcLXe9u1rkBsyzbp1lPt7f8HWRlRfeO4v/LJXzD
4DJw6vvNqCEc5WfC2q7BQ0l8ntCMJF3ZgrFx3wWiBoU0IVTibq0/PYTgUPUDVvR1
xf/Zo7+smAKDtl+vSKf544K8qwqg5L3bDB1wnN8yCoRQg7IOVqRodsq36y1/hlfY
eZziPI5c2lRelokCHAQQAQIABgUCUxbN/AAKCRDfe5hl8UliSJ8qD/9x48bhQ9NM
+XcauL4EvhHliRes0M+dsWsDV4kOSLifGvzObXZK5ilgKM06liMFVIecF6mfuQ/T
j9cnLrqRmkWNB28nBWXQ8UR1VKuHDYoeyuBePTKkalv5KlwkX3nLyIYgmG5Y0EQ7
CAUl8tnRtoWR+gq4Zxs4n2zIiC98gXf7it66Uvp7h1sVUPBNKphjJQm8IG6Xm6Y8
4D1LhfZVudKay7NBBTnUX4USqGNBqfIvyPhXwnvsE/Ya3lxzTomS6c3ISHRxAJQv
bFzS4dKZAD4b8L/85FIAYMq29O4xpck8bpHsgf5mq5+GSXYyFrq52H7wnADqd/A9
yzOmnBdDNhLATAWO5lFBK5Mc3lOh+WC5XE3dtPsNj6a2KCkTfzF8PMydDItcNJCJ
16f6juNlewIT92ZX0w3zKdPsEAxTPXPwXxMhS4qUXb+Bmv0rDepFsV0KxL7sdGVE
gPIq5AtyetdydQJdTRck9S5aDeCdsJOYysXKSBQ1F1zjFp+vGpAIQVyLBwdEn4Pu
iA9Uply0pxxmlbG9TTLcOEn6Rf/haTMh3poqYpO+3OdmJBrCxwbvpMrUArJilM9P
MuLwGkP+XRa1QDvzW7MuvFmjVBVHLKlQwaIpVh3G00c959jl8adOyesN1I8+AD7Z
uZze3R97HT98jKRY7LwponmHleR2mQcLsYkCHAQQAQIABgUCUxg3HQAKCRC1212P
3Por9qMKD/9luG1IL8NAB1V2vFLrgkOKYwcH8gEgOe1K7Izyw0S4A7DMVj8qV5Ta
lbL3bhgnP6bge3weWuYx5ty6rua2phY45g8KJm9G2qF4YuUwZJBcX2R3nPyOvvsY
FPqe16hFtk2F4+yVWy+Uyy97Z/wImHZvbROfAS40kuTv6GN10Dno3zR2YBOSKf1d
jhwMVvA54ohjHQISc8ZFUKUmkyhmmAfye3JIy8D80420QNViDUjzIFFlvho1Y+Cg
/4JhZHI4/+R6jwFTIK7oQ9m9yYj+lLiC2fqyNJCgyAo4CXiRxHYTbVXvbZAXtTwZ
AmLBfUeT7ooDnjvdJ0MwS1HBzYsFl0V/iDZZPj7tDrlh/HQLpHMYkFxbH4//IH7d
oKm7fwPRZKEKhQ1eLTVq8vqIDZ0SDQDxijVAjGZRh5MxF1sUzXaEqtAXku5oS/I6
qLt+l3LX7icsags0NvWnqnZLPPS7Eqb/XevH4F5VImU5g8SP/Ola39XH6eFhdzCY
A3IAhELmJfwaRj4t1lPYl0Hx9bHDJFHhc1/F6f3rZ2b/t2fWXq1Tvj2urv5drezV
rWJHrgBTDSXUHyMUyf9oFaADn7NGpARMk3weMa92ZT2qqIzVetEZOibj7oUVgqKO
gUo687PE+lCM4y8+52ZsYf2qKKrXKKXtuuMcg3BKn2DHhXNv5E1P2YkCHAQQAQIA
BgUCU2dhsgAKCRBIBLS8P1Xu++5CD/9OohyUoVDinD9UIV861E7ZOwFzfGKSsxKh
90sQSooQE0bnUV3l9nL8xRgENSX7pRjXg83xJ1dSUBmMS03L2wx9P92SCzyk5DZk
EA8eplNvXoXrhsJaJL7e/DgM0D1zdBRMGrW92XoeKqSTPlSuvH7r5MOrRh0dtZRN
wdEiFEFIvYUeZQfd3QFMhTcAl0St6FtI9ybLqLzHZcb2hJbk8fX/aVT6fn89hMQ2
mSxaPKQi7WvYo1mjDJrvl0IUZOI5kaj8ThhJ+vl2D9Tqu8sPju0qlJ+5la/QRumU
i8RU+fX5JfqUFfwwnIm/A0XR7jS55NIzvrQ3hsNQunijfgUATKxYY0VDLkmdT3RX
RahLTYOTsOKIp1L5F0uLdPsk05smllNpwO2qirvGsEPJd3ou19UJg2R6FaV0RFSm
w/YYjT6bYs5Gc6k1JQFpFyfX0cFBkU++x+VJDW3pCyEAKSVO8kWwmF3GDShAcYrK
Px3Ji4+fSryMHrapKpzERhZOo3ls4DS5zyRu9a/zCRYM7CFPmDYo68p4mAVK+3Fc
FkchGB9aZMJ4zD5ZhzGtZ0Y4BPn81sxpQkERIHL90zZSq0wYw8Eyy+291YyUsg/0
35zo3IO8UOJKvHYbGWN/vnSY5lMEkWgZg2wJuSNdH8zJeZ16Tiq8QFKK2Dypcsux
MqFMkPueQIkCHAQQAQIABgUCU32KjAAKCRBBDeRP3uG0lexaD/4hvKiTzn8VxDOW
3WYPL6CoJcJFNqnUzEEsyftdKcf0D3WiM4Ra+Z2BvC85tLpnVDHtuqbj6K2D8GIZ
EqYTRwnRXmDnsYWHn0k3VsIPMSDUXEHjTF5hkyMMclt52K6ETNxGihQEUG72YVfx
9NQok8cWIFcoWLwQ/+BWA3vwhSDc3ffvCx56n/huy0/s4tiGR3T/4fiz+CZfNkmR
tEM9998jPcjphIqdoDdQIms2D4ywGPVpNIb4C6Z+0qrRrXjR9tDglhctW9SFXxfS
oFYC0Q54qIP7xS0yc5iu5YBjy7qf9ZCvRVM09r54wTOE71pctU0ecqIIFSol4Qzi
2R47VjGAC+a2H5XnaXuQGZQgYgbele71gewZkQYajm04klPChTvqQxXhd35vhXD0
NrFeOEYguKHis9kfE9q5xKUx/HHE4q33gu6Z7eaq7Eiezt4945EvHRsHaUTQMqWh
RZXoGN7wm34UuT2DqnAKPKP+mGOp0e7GlIW3mN9Vo9DTuyTED7DYKRnuQT/TLtxX
MPBOnBX8w04mPGG9F09OSnyxhlc4q0hEpZqzQVj+IhT7p7+xdmcXtMZ38i7pd5aj
4mKp6atCWWWFiRwU9EXUZ9ArgOXyjlAebfwA2e/CyLhif/x9gAjGMmVBAC2+Ujo8
Blxu6GyA9ncbn0LRXsybMbytzDhgn4kCHAQQAQIABgUCVgWJcQAKCRBSogWx8dkV
1SOVD/90oBmijd2fxUwCe9Uib8kZLN9Di2pGCy8EiGl49Dx+irZiUZpvd6A0GDcm
oErtVzqeLQxo+m3c/2bIFoVTD7VrCVrrrkT9uThyTwKYy9hJevreOF0eF4swaYY6
Vdr8YMF+5uMXJQMyOg5Ej1OHdaalBFDGbQGkauPV7cPTri07kgiLCxlhugh4Qk4l
alSujGXq1cTIN/UoyKzNXmR5udJrm2+IwWOegC9UQSv1BGaO0hilzWHqHc2FHZvP
zhN9yOvIuEgeMPfWEjuUDOGnhPulSwzwBS6ev08Q0wfO0UjJgUFxU6G8VcrWAjKc
B/KOGSIjMY84WLgvpkyWHzHa3gsszaN/rde7x7YqEm/fXnK+IFpId/HftbYFWPr1
O8dA9PPmbcUHYAAZukAsFZ27rHH5vQUEb9Cr5WamKz2DSJkSI2IFs+FueEOOGBYA
G1reXJzgc9XnuU7htbY83g1uj464TZ+N8cccSUkywk321P8ChjOYgJ6vABRTZjXp
9BoxH2bRH2D9b1T16obu1k1AJLwmTqKhLcgXchdEGsmzKHC/yMsTb13klGAN2n+f
WagY6I1jgLhDYfN5PlBt802yQ5RX9lmkH7NzrthuTx1vQvHQPIMqq6BAzfBgmgXC
oC5Ga8aQByC7//hpIK6JH743v0m3i9OuWZfqb/RDbaMAASl3u4kCHAQQAQIABgUC
VuE8HAAKCRALHzk/DZmtxYWpD/wLyo0F4mRWCaE5udwgpJlsSO4LmsbeLiim2t73
K134DHv0IYzbCfVHb+FRgJKccZLZcDfQ93EiA5u3zTMRklrG77C/LL7slxLFs5rE
o8VzuY66s/aodGBDoSKGPCLq8iDjO59qIienWJY6EOMaI4RVvCjGwq2h05OWPZvM
99mAfJCQZSwWLkW5mfTkmXJsZZwpZDdfCwyHib8zOW3VuB60jNV0feaOKqm60yYF
p8v1qn1b25zQ+Zbro80YTpgYyyMob5KgQUrZrDr0wgmhrmdR2pePwegAZwgP5LiC
oO11dqNnA49CfQA4IsRLt7qiqJHUMoA3DkQXEY7YFdbtBXREv2d/rurcGLXzT5jj
EMjgNCFHxz3F5WKQeh5RKK1/PEBvvzfGCT7Qu2j47KK7I5VzNUA7kOUwxd9sx0cr
jLtqfGl767Og59mIVWGXsCAtkQQCHSLFzrl2xHouskJ8j0cMZhH7OCn4iNVSjy4T
uDXROzrpCeeNSqRCVemwn9rns4AbMWxF2IXxXzJNYGdNPiHddtwBLDgmrGxDH0hK
inyM2m0jS8xvAq/uV0RoKQHVG7Te3Gy8heNbSGmt7K8JA+PUIPaZbyNUwRE2rP71
cpTtEausRa5pAGDcaMTBFIjC4/JKlv8gMyvVBcapgw8VlmNgrHf/QYBT+fXiDarr
vICT1YkCHAQQAQIABgUCV0bvBwAKCRB/mslq8h5whfqUEACZ6mBZPsVuL8OT6tyk
Mp+1OC04SyxWiP2oO+ES1odO304h/sqqrpXEUNsmg2R2TS3rVXkUOCencj7nx4ai
klI5oYg/z+sgXPNnQz3cv8CxSp+tLqWYcGh7wlsG+YUsD3U4Y2kwhJBHTW+Soi7Z
Ej3ddRxIe2SGzL2K11CaHSG5OOe0obuAzZmGUs0E+aYKLoYh8I/PfqdNziQIeufs
6wC7dR1mmU6/eLF586xSsYxELXN4+DgQqFh7UiFFVpW7cIgf1yZY5p2St/8NX7ar
X2QD5zUBa7uMFpQnAkvGuf3O2tBBvUkHBuY/rbVm82etJeA/dO9PHN3Ffbbvr9no
5AmSukGgZ1x+tw+5fyFW0bmBFP/YBL2QY1adl6pB+qLfVcLjMUAl5eyGhVFXrgKi
8xZ4z2b+piibkZT5QfITHWaQA+ZDLMZdj6HeR5GUv5XcM4m74uztNaznfCTdy6LH
Bbj/OFYUBvLAHQua3/QryS+RxwSXMcw1COV+s9kqYdmGCFThdbcHCFCVIOsS4Fqk
OGglRKs5nbW3iny147ehg7E0OXvvEG1309ty+j3GfzTBDh2j2v2V6AN+XCOEg7Nn
jVpdiuNgY3ZK4Xgy7tmpLyPgoxtWpXcFYXl541NulMBbkv6/pdP89zlRdPekMeYE
KkOWu1Z/r3hZAWVVI5m4d8bh1IkCHAQQAQIABgUCV0bvDAAKCRDKx3gvezP/phw6
D/0ZZLnA1RIDsBmoeeAHPpeN1jJpZi7McbZgH+/NxtJJl+S0don6uLevFuYTFfcq
D9DqjvpbngJdcWX+ZaMm/NLHfhcAu4ZdsrQck6mkmMtjbFSnB9sMWWwanSiAKgTN
OZDp5cg/15kVuW6gODbKExFOsCWIOJazY+/bIpNWB1c2kENl6KKvhk3aGtIMDldM
wS833YYvKIQIeC+sVSWjyJJ9egB/KFmkooyf+AxjCbYf/vJ06EzF6S5vI5tZvrga
1Neijv9P0zTyhLj/5CWxQp0Ri3VBkWNmFUv0lRfu9hv3IO9SuIXyNMDwY3A1Z0rG
Cmhr3jnZLfNoybOlbSymfRc1bW/3PMOp0MIqatxCLHIgcPiPeIi/BI8Imkiee60+
O+8+hsJvZOlju1SGGw8qQOjy9lAtJlJHdBDqBNAA3HVXfEMxmMXhIscIRxG5fZv8
f1fIKE15eQOVmtbSL8WtKbIdYjjdUhP7XewmzD47Eg8sgxDEqS2MABAf9J+L0T8K
4fHuK0Fg7Tx/firHnVRU5OCUdJPrRtIstyoSQqxgoyDGZ9IlW1dX1o4gYXw0e1BE
eRSdKv1lRtw7fc+NlmVHoLcnVGyjOmO8fLjYtZXL6rOR7+usXArpVRcT+s0EmrGR
egQe+ukrK3aVczd94a7BMxJ9XNsdkJruZ+yawAQCDj9zjYkCHAQQAQoABgUCTzf6
zQAKCRAt+/RSPlQv2YmVD/9gjpQHpHqugJT8K2TNIIbdwwLhfEnPSbu2vTETbYdx
xdVkxA0J1u0FXiZdGvOTavnyu/9sQStMB5Yau53FtiOtajxh8hH5WtFUWW6HwYto
8LpNaKNads7xyU3fBQ0tpP4YBhqRVz2sehL6be0s8OHd3o78DnUBUvA6aafYZAqv
eKbTpQZe8W32GejySI5u1KIu4FY1ONC0AeJWZrmEQ0dLcI2WLgUcKGu3xmH/2Bjs
qv126GEtcPTXTTHZyZnOprsE8+SilnwLsIHVB+mIqm4ngB6rterxKz72JnuZayBv
ax48yFlttSx70zI5EABi04D85Nbdsg0HODwz6Fypf0uSOB9lZbmousqaIS/Xb6uH
KlBzik9LADQW4h9s8dp7s2546iCmywBwh53OuO7Cx6mxX0UdqShs4bjKAJ3QMpTC
t5LP+alLyUI8+96DUvIXc+1BACJIkqd0tmgTuiIvM75TsmCf99MoJsmJCPt4vqVw
5hh5bAbSTdrWPwNUdtbDsgDA8xHEQmByCZGcGFzwmc675816Jlq3uFQt2yI5o63M
3ekBo7xwv7DDx9M7dHZ7O5s4+NYIjzVbXTsHsZvuHqhujW41/uWgAtwhPCyQQOL1
ml2Gi9GoRQ4lb5kVgIgUGtQrNlss/k9XGkyk2vgP8oMxjEHP90p2g4C3CrQhG0fm
VokCHAQQAQoABgUCUSl94AAKCRDYnYETJXjnPdSOD/46OFjxATiObf9tNXdQOMe0
8ZruBB1fmP8ycDFQw7fluhdEXzq6DyhDmiLxV3pOQbzmxbkgHRo0f5lGkJywjWpL
FHsX4yAjjONQbCMkuusJUVdEHiu6GnTemT0+K+e/j6ww6GszlaIdAmESxmF/Bydz
GFZSyneoCYquAbjIXUksKCsxBXI68WCJi/LudyMUu1yefUXnd+qOlZ4nQvAqbj9F
UwHuV8LEhXOgibNlLnku9Ow1GT83SXjyPtq560VvVl4xquatPoKL4/6pVq7Ly+bh
wLk/dsF34iqJjvRBFBhBn5DiKxYVJ/r3HOckzbsuMRJWjSEDNy4k+BKu9uQLUJrm
hrW3EEt8i9/7cz8MyIZ9s8VxXhIQIiaw3NdoYQLpkDeU3omjZ97LFWGVTAMQLR0d
kWW8cbtUYLsVUb2RFCfE0BEKfpu3R7sGJq/92KY8Q/X2N5Sp7Ogi1ll0MbYORieN
khMD5haj/xomUk/r5Khf9akUVdCU7KOd5n8h1qbRUyYXW1S7/RGraSxk2uWSaEsX
HHaEgxBd15eC5U0p6XzNzFkZxuziVTnFB2IyJkM+7Likn34sh9Ct9oP+Ufe5o0e0
aLSgTeBVVBnMA5aVGF0BaDxedpqamyq5jR8nrYAJsz5rE6e82WhSym8QwC1p7zP+
LdhznY5NWLuzwbHH66JhcIkCPgQTAQIAKAIbAwYLCQgHAwIGFQgCCQoLBBYCAwEC
HgECF4AFAlYFk/sFCRpGOgoACgkQQRCzN7AZXXOU5hAAohhYNTpm/eRkkV2pfMGE
QuZ2MVg8JCAqBauE6y+o1KXTLe8mazDmsGmdVZu4qSldbWOH5fTRyW0+IaIUVGJV
2fxMQMbfsjfxCg6o1+hA63hVBV+/HxJaRA05ua8RSs7Us7mupZMKL1wjQmcDj9fK
tZoRFevA9FRSnICE4UQpwVOn1Jm8Bh3XtpnL6XHzBKTDqFPEEYe4WswqWGkI0bTo
VAKl7scZpDRW/CN+rnVeU/wJFC0rc6rV23rJxmem84iRWTWWmJudm6UNsHvtSIlQ
SbH3bMtCmWvPIQGHHhA00uRHHEnkRBMZbhXVaYIhxhsuU5cRBlRiMeESvVYYVUV3
dJDzArRznp06k4nYS0GjFMSU1pAV/o5qPWrEt2rILgeOIdTlkX9s6/J20RqLhv2L
IV392Mi7h6MJwgPkErWVQBi/fGGXbw8v8OeNlLTo5llG27eBBIFOK4nyiJGkbK6V
QltjI45WEEohRa9+Ms+cfd8OOYYV6eG1awvjA1DDv2lAllwMqhq+HlWwsQ6bVL9a
ax5PRnyVzz9/wEnhwTz4BYmRWH3BkqYbM2ePljTEzOOHgi6fQJCEfB9s9BPOxbB0
WC7eN+gOW9VHs+JjAcpDORWP4pCjyuj0ND087P+Sl/122M/i+TmPni9SQ08zORG6
ZQ1B1JWfe5w9hYRokYDXz3SJAhwEEAECAAYFAlqweHAACgkQCxNBGdlHl/WGKA/9
HkglXfdXhEfRSp6hp9vN6Dq4h8+yRaVnlrh9AdNKZ3PfxgA79XRAD3QEWepl8H+X
c4jhFxtHN8bGGlWGQ0xabZeGC0JcM0pZU67tUizpdQNXaw4wPeK+MYE/KlBMZcwN
uU4r94vvzFLLtw0TQxPqfyXIhCMltUkrPhwOEVPfhgaxCKjumdWoFQ+1GoicQNB/
oisNvSla6LC0PTdvcNYdfm/jvtdBtwSN2H8eRwpvJQqktli6hDYCb72wooTLdm+s
SRQNhnL/ttf6KH/dWJrgADxZRMQLL1ZzPuX+n/DaYZSFq08YctX61qxSKEpas1cc
9XiOl9qkzHxYFMhV/pP5+QsZ7WN7uuMvGBm4BSks/w8NBHxuZLSB+ZQXrY5/7/9j
GvOTdlviahd1VM2rKQmrP1Oienx+BTI1xieou7P/OIOg+toRgiuVXKATk+iKootd
M4+/IzFbgu5hOfYhTVmySCZjaXz1x+fnrC2sUZj1abRy+dslvfQFQ8oWNTcxCZ9X
wx22OK77T3k8t2qfqMBAusQoYKfEdFPUowQhyrtitC68qf+TcPrSXN8NTMq2hkes
sobDXbojJ3mStfnhRbRil50N7Rd3klJ4S1hq+9BaptmRt2CslKuEKWWhY3FLtxF3
J3IUG29mpgLlYTb0PqJtOgPmQv0kALjBON/Gqs1LGUW5Ag0ETotc5QEQALzmQdHJ
tCjZ3nD2Kh2CbalJNytDPtpg5UwIkWD8yOF8Vc37tCSljgu+1C4RgtrgSo/13ViT
WHDHJkKotycMrnJVXhyK7IrOhTyhKwKb4MJ+4zihRzSkLXWPHvpVtPMUnVB4VdNF
vOJ+KAQvNRXyKf90UgY9wkkdBJSDJMoA+8HnH4Y7ypADQzFoYl14qD3bkF2dcCe+
LoN1k9/ck+pCsYb/HjwAcybQM8DXnMdF3gnyZ6tbA1POYjQ7vqLAOigLxFnZsYD/
eQ/ro4KlwkMmU3WWztD3lYmWeT+FvSNs3I5WAl8IH8loBoqpNDgrHe3eVZrO2eKY
5czcBxCwSm1o/eOhJTOjBlKHk7M7YTSXko4j3QysZ6GlLQ+wOrx02ASHEyvJ/SIv
tLvR7FV+6V+1xhXzZQGJcAvjQXAHKUnGL1ennlo9UoD72mFpjoTRPkBoex65tGEg
EhEtXNayrpaaEHsGFR/KqSm1d4CxwupYuBoSn/LFA2UZivC5/f9eiDARvMdFVdaF
CYHrAIl4vyDHccWhmj+zBCgpOSN6Q2XOgUlxDzkgP21U61k2ZmUJSMANAJU8RLYZ
iG+NOBvIEJmTkNCbkYteBgPqADEdJAA6YQAElBLBEROxGiQNvczIWDVXKGkaWM63
Vph3Z5r1ZJMkd2C4eLduAnucUDgWcYiflH4lABEBAAGJAiUEGAECAA8CGwwFAlYF
lJcFCRpGOq0ACgkQQRCzN7AZXXP4mA//S7Bt6fZzXHJW7wdfLhsLxUVDZkOXOPVl
VMpONT+YXl7D8D64Yb6Ey05lrq+U1o6iZGbWiAy1RXxnhBO4m9oXfGOLFBh7TB0a
dAf/HEF91KI5QzV/gbOZgh696++mlexJf1knG3DUbdsefmboJLCJTBm5BLEZJrCs
ukFOIAJSq6B25GBD3670ZsqvB4Jre9x7T+8bZvsnixi+ZGiuYqCAkw7XURTo33LT
GPAEl/WJs9qEbbl+y1MyDjMuvFFM9m2+dOP7CO8DPRitsW9W01HL9W4mHKoZRcfS
4i1VM9S6XcpO+BMBp3QpHDBe/N9lNE0iKIkuqDCwpkPCHbYdZW+iKTmxJCRHBcjF
4F0vjoEyEFTlCUoNWdLu4hR754kURhrRgfwD0Qu8JA5y6hAen5PtI61Li8mmlyK9
vPN9niTVYA/6OGPUudjttnCLWLoWed1WWDvaZ/wfcbKMho3JgJ98aGmmh4M4fKuL
vWJD2fvSLg9Y5+1tZWUidnG4Krp1a1SuWuW/fNDKrzvKs61FyTZvZaKfFAkIUpYa
OghYKJrDcRmZyDa9VRQSH7bBDlA1dcHoO+ddgSlA3L7J6Scxgj7JoeXx9yIywKTp
BzvKit6cFgKlLfP1h6E5av12Dg3PZQJAzKbBINRb22UPvLutEdA96d28LdvhRSXa
/4Kse/oFatw=
=Btt2
-----END PGP PUBLIC KEY BLOCK-----
