pub   rsa2048 2019-06-14 [SC]
      B02C567B9A68B2C833B1276F453BADF7DBF9B87F
uid                      Song Liu <liu.song.a23@gmail.com>
sub   rsa2048 2019-06-14 [E]
      0C8AA2404F03D1595B6BF90DAAABD2BADFC961CA

-----BEGIN PGP PUBLIC KEY BLOCK-----

mQENBF0C/wsBCADSraRLVHo+cMIs2fEhLO5EL8RJjOaVdr34sEeQeLAqjN1XofNT
CEGoaYt3R4x8xpmmWScyzzq6LuguGEvmvBtcU267UhB5iL8DtcEu5kHkRJ6OAg9l
ioSY6H2icg9WEnpOif2Uz5Sm8S/mnhWOLOGFzEa+h9IPwV2FdQ+Df2ccaMx2UxNT
kwdtmFdQf6nbgsso6T2qBQkHLeWRqKZD6iaAN7LxGPLxY4t5jQb4AIr7mtKOSDML
eckBr5i7LZSjwYFrWX2SV3kFmm6ZXOYi4Js8SIssmgF6NAGSZDeYQsAwwy3McylD
9KZK5MHSymxUZYbTbxYbH2/I4BKZuBGN+5iDABEBAAG0IVNvbmcgTGl1IDxsaXUu
c29uZy5hMjNAZ21haWwuY29tPokBOQQTAQIAIwUCXQL/CwIbAwcLCQgHAwIBBhUI
AgkKCwQWAgMBAh4BAheAAAoJEEU7rffb+bh/sFcH/0ehvt30bhFJDpSQjJAGzy7f
goFcXeeSeQXb1dXiPDSrQ/S9Qur+7Zi9TEj24xBFuOgpm3pRpmkLbR4dnFe8H6HI
p/OGZI7Fpp1Xc49rQfTyKqTn7cbio5htusxxb0pz+0I9iEpgvivZKSHvyZ86T5qI
JzVapbAfM2BPH4YpAvp8plMSgwpOcHGCCvqo6kHaCT2gmpN4d3ApwCLYL7RuDHXf
XHglFXzuL+uY8kfDrCZNTmiUwbPPPZf1CbJMmREaM5hzxeuERkA1+5OAgxd3YBeE
KpnpgGoS+yausOtArI16xbVCMzN8Bd+0yNWBmskAofr/fvD7bsN/qpmY3n4wUxeJ
AjMEEAEIAB0WIQT0AqSc7juAxOTmw39GDvmTkjGbxgUCXQlBiAAKCRBGDvmTkjGb
xlyWD/sF2R4ghbApXOFu2hkfmYbrtHPESNXTJiSgYfctxKDpv7CP5WruIFa1Trp7
evKV54x08E867Sm6SVomvt00KboG66VpMZitLi8QjJloK6Y23KE06Mtu+sizVHj6
ZkRago95HCIrDGzDdU+D++kSL5aBk6394COL+eI/dqRRL+eYwMGNvrjbc0YNfajV
B8IWH27SwY9lXt4FNK7lkp804iFqpBGUACO2Bp8lZ9iZblEOKf29HGqPbebMhJYw
4niawi0q+4pK5M5dp1ZavPAhp9nSY4iE+cExx1cMt1IvKWWydP68RQMPEUQfobc7
S+Osv2ZUCHc4JxKCr4CjTRwSdOuj44TMET0Vf9/k/GcBPYt5umlBr5kne0pdFT7y
xrRMXLCVbrOI9xPr7O2LMyXqFLykhqPIYlA0VkQBtpKJ9W6EQZbPCgzq5m3DqFpO
I1xxqrLTxtafdmUje3hRuevYuyYi+R15BPbhcQkQERZtgcbE+rRl2vJ/CHi0v794
hdR2gBCNkrd8xq/4PLUi/HYpB92RdPlfxwgdVoQ7hMG1CgBs2Lb0ijnfwIXc08UL
o1PMeubEWAqEh8xb/xg8ORRQmbJz1CyJOSBubqd2IlKEJQ747s+lmEurs9Qqe047
gASZOuXilaCOsc6a+MJ2wftp0czu3Sa9lx0tVLQ8PCaGxhZ+s4kCMwQQAQgAHRYh
BJX/h3r2eEAgCZjEPowa5zzehBx3BQJdCmTKAAoJEIwa5zzehBx3joMP/3dKpOqN
b2e4u0TomWOeV+ul1/rHAfS6YTooErJ3ldIOy6bEKPu3Y7sm0ScX/SxSYWdy3ocy
R6t0HfH6iCCuLWw6iUrHVoxsA/+GiBsXRetbRkZjsUPPWzvA94ChKqhwS3d/DEmZ
QM/KqBoualEYKE5l9neezjnZwoTAZF3irM47blfCgZ9shQJezkIUMCvNEs1MjWMN
obNBTWmImxtFfF3Gh9FQHEfn+lIZBLHDtnMHa1H/eQZz8PYBpPGEtxhkCHKq4R+V
FaWR1mOZ4kv6OrQ7CTC9n8PtwrGPDGlLvHPG2uMC8hdNwJ/cu957+FwTJ5FiN8ld
kevk4za7nNTkcktOvQus/qpLOgR3JMQHpvmjHQ67wcW7uweFue/VJGCDqFFjLVR+
g0k7IuK4+LdZv7cFdXy8Cw6cMFoG4E7O4wi+/U/s1HEPJllJKxGRXNSmy2NLpigq
nrL/teO/6VjcW0kptiR7Cs7zuGsUaxFx1jrCxQkaWZa3IkpE6YrnKEuRiXVoZbbP
vRwcT9N37P3+wKRXCgjE9+JWx0zXTcCzU1X3dmDK4GUoRt3DLDGOagYNrxIAo7w/
pPoFaOBWgKfndlOAANXhyuZCuKWOVLmVMka6W3QF2jUtKsHdTLuhdWT3pu9tbyON
XQln77T0hINuo9JF0DS8MbYSx3U7LVJNJ0ukuQENBF0C/wsBCAC/ZBeBOCENo7rX
qC8X0f6K03nGM57cTnr2aTrh6Ulu2xKiKRc7eszAtcpM4AQukxkfn6Ro5kdhwcrU
pevWhiqpFVCU1TVba20WjEK92V3W4u2dPqQtSyFtSpDpeVGIFrB/Ic647snltwRW
OhlZdl4hIz/nKpjxFWfShpxZf13g6BqUVunt4vQyl98v/Nw/z5nj0Y0Ijen3LNcL
IkG0aHLykqe27JcbdSiRPveHgvW4FilyT/5dD4u4GqXAvcDjfWdrB1feR0mcon5I
qnPuhteHk1qwukuN7jrAweqE3izPg3Iikifq8LIszZa1Bj70SHs0EtsKqT9vlSYj
yrKnt3plABEBAAGJAR8EGAECAAkFAl0C/wsCGwwACgkQRTut99v5uH+JTQf/Ws6P
o9ozC+LM3bMsh9S8ySXv3yf04Dk1dP6IICNGnxGg8/XFCh1uDtNJjWQ8r1vAs5QA
FlrOeOU9ItVdknQau0ac5UtUIvmU+A2w7M5L6LwMtBDDYZL3GpIzRFrdxLppynWK
5zC0DtcXT/frMsWJh3vEA6vhEKhV5pe3ep15Iwur0aY+U7g0n3ZCkNDsIqM4VkDb
RqoMgb+IcgVa/OWOxDfF6MDDgaVISyVCjdgUi0SX2/xWD9gLWtStp27vmwcV4Pjd
fM7PMutMIOimPtmskkZ1Kztdi7x0gaPcJ6pDN/DMFfFFepCV+lT/9ipSWQ66t+E6
x8/dw4nqoh+x8B99sw==
=LK8a
-----END PGP PUBLIC KEY BLOCK-----
