pub   rsa4096 2017-08-31 [SC]
      1C8A5E9709B4365433F8557B4D7670687820B094
uid                      Martyn Welch (Private) <martyn@welchs.me.uk>
uid                      Martyn Welch (Work) <martyn.welch@collabora.com>
uid                      Martyn Welch (Private) <martyn@warpedlogic.co.uk>
uid                      Martyn Welch (Work) <martyn.welch@collabora.co.uk>
sub   rsa4096 2017-08-31 [E]
      2A87F8AEC32D8C54CE4762A62BE2AB7F21450DC1

-----BEGIN PGP PUBLIC KEY BLOCK-----

mQINBFmoL5UBEADAISPpmSO/sv8t973LsfjoohHa7T5oGF4Yj54pLOocnEJlRQ+a
65Kjz0VLGTBljtmP/g4CU0Q4biOJPZUcCOToLOe8HCF18353xD+nMsBdMr1Y/Wio
bDiDtXIJ8SoSIAr94wHPAsh9O9Yks3J+ZVPxdgDz6sMbDPbNBGqfAEbqubPMq8Ez
Y/GIOuDKCHu7pbgJ5/guZNS1sXVjskEQ2M01LFv+2aF8oM+PPQMfDaagB/kWuZJ0
Xqot2nTggfCLEGLKh1ZrVocyQsb1JRLt/8oRqmmQ3z+A+T9YOY2frV9feGN9R8v/
037OH9h5GXKf6yP+rIzTCvIR8ff2xJp2gEJ/j+LteabO8vktk3gzgbp1pyMYOYjR
yB9t2oRFMwCJuL5gIDuE5qs/9Agv5QvK3IHsOSZHM7Qd20av+nU4sQngJHrJgirz
7ArNs7agjBcvd+lX5cKka5ZHfA3nWog35o0NTMNIIaFcs2QAj+BEEmPFRZTmRLXJ
my03tkDnH4yHGf2FKOCvEByDcL4iFdiIwQbNXrLGreg15JgjVoMtOrc5ozZF7lsa
eAl8QAs2u5hqVTd3XyHYOOrNXYdygaiGq8QNiPlSEopumNoh7JgXaSzjXUSShNIf
LDNWkX3CBJ1wVMTDmpJBE5FivOdIx5WbG4bOewh6MiOAnehuXnDjEVryqwARAQAB
tCxNYXJ0eW4gV2VsY2ggKFByaXZhdGUpIDxtYXJ0eW5Ad2VsY2hzLm1lLnVrPokB
HAQQAQIABgUCWfIgRwAKCRBrv58ZhztRje5iB/90jDqmH9e0MQ5vfjgRjxT0sKLU
9cFEXh/hhJmacnSWN9hIJgCXv2Yj8oHnRi4pfG/3Wn0k0v0tnCa7q3IgpyQYHwvP
wsU8arQo5zjN1f6nMGaPI5uGq4NqUMQU2sgNnZZvh7IDpqmGanTateE6RBEHT+LL
hIhbpHj7x8XW43fO2Qim+d0OVhQ2KRA9zV1yDI/au2o3wHUkmL8MSoLjTnG15LLs
S3/d6jXX2y0Oclos4A7dLd2UedQfTOTgnrlBpufbsxiPTHj4gv8PiQm0FCnnCC/y
0LCP4ghklFg7wX5YvTlSKu5wkGeYGV5PauEFLacNRGNWkywtCi/x2BuBsZOfiQIc
BBABAgAGBQJZqKalAAoJEPs3PUX4s20osI8P/jNp8OG34VA9UPK1FB+sMGPK5Uib
zqAr4xE3wukXymp0T/CPzGscx+ZHHx+ZPFFKYRRkhTKTAOzvBipxMTBQ4uz/6mMg
FMlA6WZExYZnS+KCwiuC3mflNnUVOmuASU6A+Uckkzp3BS3aMFwTswaKmuiJOjge
EUeCL1Sh4SYXuINNB+c0FJ4E/3EpcLcnZ4+ZvAJpwg5liYtHyT6kDaxA+UpG/uvf
TO0Zavwg4hRgyWefnMtlXE96CrC80xBWzWaG1aDAfRAnQ5ADe4H2Bl3bqNNXnOjn
lxNq59F9YvjqTK8AzLgPAJasV4DiYYKO1xUhk0MfEcPo2moTP/dc3ldVJ61GByTs
57UW2rKFGiAYO4VKj7IbiM77y81ucPgq0p2gvqGILuMslUw7K+bbI48lxn+PO9Rh
yvPAchHFUsPShaebSSslYJzwH1ubijDmjx7L6TiSuAE84Zxb+m9bhPfWt49h3uyv
IAg3F4uwFq9h3QRKGzPhlaI2B3NiTuai87iq2lERgbG2Z4esxrx2YFkdU3PusksP
V0PxV6P/3ZqSiG/vIOKNmgycTgi24t5OLLc8gbw5xdaJU0d2IZm8oyAcHKZgHgqU
EOyKP/Psl1YHFclF2ZXI5h4V9wFhxzTXK2TXEd/X6aLwzCrShXeyJUoC9vFWzv+o
BaLmoEVZp73WknDfiQIzBBABCAAdFiEEHszNKQClByu0A+9RQQ3kT97htJUFAloF
0m0ACgkQQQ3kT97htJXlaw//dHSajTfA/EFNM83T5vzDoKK4pMR9qlrIDDsb5seX
kzZ6IzKzTfXH6HZ4CvNmAegN+E88QRBKfnzCqWuWMeeLmLMEFNqNfRlgxGDJPBen
S5K5NLtT5rrHXv7k/QVG4hay5gd+tqu+oSVlWoz0znDpP6J+Dejf2WVqfg+eFQ4X
4tpX9i36KChWxxD8zUL721b72XaX3pyoHPzyMiWELwTlUVCabNmLGC6dOEsv0tND
r2nUHx8mRp+Y6FrCgC9p+MjBmyQc9tR8/YWrChdGDTiGKG9bm8CovBdkTAhewwvm
RRr7n0XonM9U1Gj/kYNicM5mdHifaULWBtXKvhqG8IJEhJfkByNKvo+bngt1LG2V
nWGayUDoMIoxDoJ95EgCGiYYUOz6mMBjWK05xio69BB4xGymnow+ilYEXdnt7Gp4
vCBRS/37+HTBKr+n01p5ffR4xXxHfyzsE0q7bhiklinP0WCtLiW82B4otcPV2LiZ
nloO6L6ZuNTDQQm9706jPTrCW0kB8gWn26x78NbLfAbB+kkEVaQcrb8RefxM+3UL
nJXgr/NMPNDKxOxcEgCb+tEKLJrPfbej8RkJbcyW5T7tbKrAJl1mgvqc6A68FPmI
mC9wGWnBurqNEdzaUmM9hgk4cW04Rg4/7G+59ZZu+SMVeZ8NwGXMLyA9E2K52LOt
1euJAjMEEAEKAB0WIQTvZg0HRj+Lcmp5VBPY7tfzyDv6mgUCWag63AAKCRDY7tfz
yDv6mg/ND/9albtaMEgIAYPOC3kRcZdX+iv5++c64VVRRkSoPKWY/IjnRBgPmHIw
lMFjTrzJmrv83E5F8vEL/fPvL4vWN8eqk7idl2iCRxm42KG6WNepQSaBPZ+0roYZ
LoaABAL0hldAuKyk+0JPACHcmCNMLiEN9lGa2Zr8cFYvQHdJVMkDTlDUOS6VEC0c
ojYFYLGOK/ymzMP4VLiC5x3KLXF+o/NKQCCJKxGI1JQNvAfYuk9yMcPcka751m2E
lTnzCT5iIA6lyQnBfNgxeYoJwIAlBc83gq+5p1xhBqt+o4ZGZSWJzXc6hzORsQTy
eHx3pO5HR3E7RoOBh42j6XdAoTGF37QCcAiSHz/Os1KuenZ837CGH66ZxvIwVNU1
tFC+TpCVeQv7ifjqvFlmn4xeQUqKJNi1JFKWz7kJj1HDwWDU307js3c2dIgXU1MQ
fj5t5rAezUEys5FQmLEOoryhnkfg7/STM0Np1HMjYvWmNC/N42oouAkz4wm/QHaM
LfJoQZNWf5hJNVaUQiyawhDptpFHS6QEBJZSZCg7Mq/TdoPu6WqeVc4cpd7rj5ii
dotr6hAHiOgld1u8CmhdG/a/YrcrzRYNqydX95nKO/SsUZ2ZeuoLgqYLNnLigT6V
ePeMhPV+A8WmkA4HyxrZZkdVi5OeCeiMLx2pYf9BRUieEHsMm7wDFYkCPAQTAQgA
JgIbAwcLCQgHAwIBBhUIAgkKCwQWAgMBAh4BAheABQJZqQBJAhkBAAoJEE12cGh4
ILCUAtEQAJJXLXAlwcFjkeZFc65CNDPtnNEbR4hMGW4Ezzd+dtc6Je0KKAYQGgLA
PJf8YyOogmv+fL/R8HZA/FoBKLVmoMTaV2g98JGOnSxPmfU12+emLPP4RDrMe65C
FhJgL3MJeLw94tPY0HXZJ52DkSTGc4urA4gankV/qMZvhXT+zaWDpTeu8RoyrULe
1IwZIbeebUuIcd9vb1EXMxuiv50IiNiK6bQaL6AddMemCyFW4MJZAVKrIOJpKreq
AaR+lUTUKZBJm4WRdvCU6pZ3xV1BLD7vznUWsjiT3VQEeSa4QLzQFxh5SQWtfV7w
GJhqLqYnJvFiHF9Xp0c9Jr0XJw+h2HxsLLFG4DuydhXPRwXvzCnK6xMi9I5Ku4gs
FopvqEHJmirRzOsWv9SZsk97p/Ot/NsiCVl8tZsT7ZqdZbi4dLOPnSPdFR9885K+
GBs2frZz7mP/aXS+MM97UsRpYQ5vN9XyQruV0/B3TVie0NrgwPEJvYceGdG4H6pU
hHl11x6LiU26Gg1cSMCP0RqELvkrqKLDolFdI4xw97vZ9jhDUCLkEQmVSsJ8Q9Ca
cXKxR2mercF7Rw9FmDSp1IRrNds8Xs0rqHRMDd8Q7ZfdGIW6D0ta+4tGRySEZyhU
qGwYnMtq21FL6Uf2lzq5goCxZD4aE84SOJ2y6/Cr7PF8GjIAnEMLtDBNYXJ0eW4g
V2VsY2ggKFdvcmspIDxtYXJ0eW4ud2VsY2hAY29sbGFib3JhLmNvbT6JARwEEAEC
AAYFAlnyIEcACgkQa7+fGYc7UY0jcQf/YSypdTUttinhhg8MhC+oJupTJIUjBOHv
WfuWW7rLlOpmcRsfOYwc9unYhaauJtbhVcWKoalQvuXqlQfMSKQIxXZY6BogAi5s
8Qlku0jXdLp7LhY15936er0tRDGZJTQgd/LoJhPFErPZuklZAsdVinH2QLZbcZCP
Rp3w3zVHJRANUb5ip31QTC8xpU06WYs0xffbP1dZVejJmAbV8ooUMWxfixSetR2C
4JuQpSrlWYC5DKI1Z3p5DiIgEkSXufF4eI3K0V1eIDW7cSJN0hxpBkT5BL6Ww6S1
/eQ0pVQ4Z+V1RA/hNVxTQVvYcoz/cdKl0+tPEASp8tpI1ixabl0E94kCHAQQAQIA
BgUCWaimpQAKCRD7Nz1F+LNtKEDmEACucI++7o9NgtHBQmirFXb6sZrxvDOwF5Ff
b9SwUbGGfO2j/AmrG9MjaJkhUMwjKsIIRtbPoge/5Wd1K6qBRdqfu78RcrsZ3PA8
Yy8wIO90dR0J62YQkFLHItuA+DMJLdsOqFgqB7F72XbIq++VJ3ZFfttpQfgpCon5
7bNQ9Yq6kKbKMoFggaDy79TNtzyqKlnMYDLU9yFkyA8MbMIw7fdH60aNHWy6yqtj
tlI/c2oHF5RZKY7nV6ge3rM1n+GXv81TNCYRvCQRbsRMV2ijhv0VlyDv4VPD0IV3
xBcec243xTyS3ATnXNfQjEsM7GPzmpoAoZNqQa1mDl8dxlaqyECbP09nrgUyIusr
5mhSaQCXbrxA5USVafqXTkjLmxo1OYKa6Fb6MIw1bUZW5mt4sAKNiNJM9IH+HHwn
2bRzwoCQieEgXMoXOC6g5HoCnbSwIH6DL1pOTj5ExokMHQS7DJNY1R9RaLBjblGD
VW14Ut7xQtxrl+YBD8RACA6lm7G0eNx2Zdx/BQ7whZu3x9OuDKiEiwz59EeSyD9P
p4ip8Vgfn9BNxFJlKLkpxho+bipZXvWzs7Mmz0PyQW3Qo/2W5HRkpEJrB/X+23dt
s+lhqu/lpLsIAt8SMrXAELBeLd+gymB/iWyjhOsAl4GaQJ3YMGtiTZnvfEEY0Jiq
sH1RpeaXL4kCMwQQAQgAHRYhBB7MzSkApQcrtAPvUUEN5E/e4bSVBQJaBdJ3AAoJ
EEEN5E/e4bSVbvkP/jogEhwxJ3FErdDYvk56xURBzDwOFdm8g+3g6zCgDr2gJ0iV
VULDyZv34DFhzo0fyDZufD9MVtz0lu0jr0yqcC7ShjKhx4vSizNlzOXB5gXg86hG
VTsHVb63U2GGhftHVDFX47+qW1TV+iklH2LlDS0WJyvhk3aPRm52j2zWMy355Maw
UJUJIdNK1kvL+4fdPAI1fp9o+D/N/wERM/rXzwJ/fBbCGXm17gLUv19dfTcsOCJp
5PlHbYJN8eWAuM3PDwicgzYedDsq91ZTK9VgQD71vkDb7D0Bz9Fp/JaKNSaJO8H5
MZsFs9BznbnaAJmbRNc+qseoMah1n9CtnFdZWZcV6okHFkurAD+MGGQPEhy8QWZ2
JESi0PjRsJ38Bzq142QOJMRtYjL1q/1kaB6zHyYQYaGfJTz8l4bX8p6JuaTaj/It
dHrciqc3ygTsAIrYaN9X5TmEiALd12ZMcyR7NVM3aM6YoUIvr7f9DYaWrjBqZ2lX
XHiIgStJ/51mC4HULH1I4RzOCs5jBluBO4M0JwLX+0kAzGRLhe/3pVq9nxgJfnju
Tv4Jha7lU1465HCylOUzgnYTmmITDni2DxrZQPpAJAJv3HR2ebBC6jZoPmNBj9rx
EcrSJIPJUxLItrgA5zaM/YnJSKE2YIWTuMjIgyGwZeDoUGZfaAlDnYeY1+v6iQIz
BBABCgAdFiEE72YNB0Y/i3JqeVQT2O7X88g7+poFAlmoOtgACgkQ2O7X88g7+pro
mQ//b5fVDpUHtMdGLrnXt7ZJdq8u4g5DWO0de+t4YNl4qStP1V2OSrwDRtqs1qi4
d3YrpNitp2XREVC2LzmHiZctvTC7/fn96B5m05i1k3tv4E+3roLQhmLTimZ3SD5T
nVkVe7kwRhndGzTTMbkUHen72BoNGgTLeAc6VMgwGPBf5Vgf6WYjCbef5PsvelKd
ARbcpW8b6XfTLuZe/RjVi7HD0r0IqW6EOsOe+oM8fpctnu4J1w+2gUiSRfTlZqju
UUNG6CQeMTYz1PJD/YBEloY2CzmrwUMVqAk37AJvJVSVN1DuGz+s3YMcmcLQfCVA
1uNNfB5qvlkrWMNzIttOVbfjhTYpMga528n9RwjkJ76ZvimKidnH7mrE5i0Qm4Ac
1tSIJUAkGhRbmHul+LjLj5IM5qsZpxxz0DTQ+XFJnu4YUqaKUdMlZ51iZuclOCS9
5W1UtUfKvSz57KKwcJwtEyfEqAMUHAgWdsZ392aoNARY9DuGoI0z9reosgKObDrF
3KbfrD5JZqn/HPbaMC+6CRuQY9GlmDK2nN7n2RH8bQ7rlMlSMQgmLQRDs6RwI6UT
640PJI8GnZTW1qDtHMoubqLquLECJ3NNT7jFecs0OiUDoN2Z7aJJwF69D6dvbLUz
wkLWKfsHXwfl7yk9y/+WoD4/EvQEYd3WUqBLEXe4OpJ55UmJAjkEEwEIACMFAlmo
MoYCGwMHCwkIBwMCAQYVCAIJCgsEFgIDAQIeAQIXgAAKCRBNdnBoeCCwlNwbD/kB
n4l0XAj2KzUZW58Wjrm/YB1IGXOb7KWD9nle6K2ZhVV5otbNce2IApoUGi65tMdG
Zi/9DvnjBXLLS1XkeV0xYNET9V/2SRvXFxiIsFGnBFUUVXd/XiLW+CtNIoUHA7iU
bfDSguEojigs/Xhs6/XSO6Hd297tMmSWZ1hd4dqGOoXqM1nCQ3oPDdMMTIM5Z4Xv
A/JjF0LDXuLCtNo5fyrVWWn5/wtKw7gVn1XWdPjrG1QYgYPjeXSg9QcHnhkMKymM
mPvzhxe3eheBC3gZsM5TdQ5h+NZ6aTRxQ8dVHU7XvmBtIjpJkZwJgyCBSa7UTQyE
7LjhVXr9YGpVvtRNntqjIWXLtWbDGeKtoTEsuQLWMeusR4VTDVXK1m8GYlgL1okg
dD+wJSk5nWTJBRaWwqBj01gib/OWD+UOF79w8sDnzB8GbEv4cw5ZnXyM/kYvy5qy
F8prEtZji4DJBxpdJjdo3xQIdIeIsOPfqdjhkcvs/IvN8wv2lyZo4FOSu+ddM7Bw
HwxglP00iIJ5U/noxopznaIUkui9FBNXNIWVmVWTbm9yEo1Sb7qaGKyIbyJrdHjQ
j+zpuXE9MJoZvEheRKnqYqyPUbOEUYXp/LjBBr83RINQ572Kz3VM0kJ5pnlGo5Qn
VUlPaRjBJidczN+zim4H8fVHfTMo0DjJnwDztppIrrQxTWFydHluIFdlbGNoIChQ
cml2YXRlKSA8bWFydHluQHdhcnBlZGxvZ2ljLmNvLnVrPokBHAQQAQIABgUCWfIg
RwAKCRBrv58ZhztRjT0ZCACUSFMFG8V9htcS5SbSgD85wA1H2stSPquyxp7Mu3/U
HOA03wZJwbtovV+EvuVOQysZb4PwvA6Af5NXY+fOqSHxH4msDhFlvI3ZtGRh1Z14
c4x/HyyORuCMzCUUBtcrz3cQWFA4O1feXEbqEmVNvTMa60Kb5Op9rGT2STTj2HIz
gYh0WzL1KQYgiHau/AU6UhcyulWZWYH3HfnlXPp7iMjjxPpNj3+5b+5haP8vmLSw
MXtwYhC3cHIQpnj+oyCy3ZLFxxrPuXkYzpNJtD0JzAZwTs21nh3zCjugM0Xgx8is
+EfN4xYHuA1xzyfyLBLOSkyKMPXyCSdh3sCm3n1rYvy+iQIcBBABAgAGBQJZqKal
AAoJEPs3PUX4s20otyAP/0hnutr+Q8GJWUnFvwpHourcerMfxMJHun0WO2EJ5uxy
YQRJAeGreT+P7G6IZoPugqdHWK+PA0ulV00ocMTu0xIguhuG5w2fvCfIVvfpD8CX
mx+bW2/DXOz5JGMyckMuOfGyoPoYxqjMTnzc05/FNhLCOxHNX7WRrQxJYWQT6Dfj
0JajSF8rMkGTneXKCm1yh6pxwwo4gp5i8b/eG9n1E6dWcKHV+G6kj+hlcSQ2EAbx
MSZcZsgGamwlNQ7vN+BEUCDJxHYHSsctSiXXHSLshYGVW4e0EJGWXMH/hGmvGRLh
tqzwqEXdfLqUFQzFDGuZU8relNd5sPz7E989F3SLENED5VF0FH7BMmpvpnWlSDi9
ANQvhZCeM64XfRdPH1M6Rv/KmBjz8hEJl6SRE37ySTO0Z1+zQKlhwVW3WeQjMxlJ
4X5XUWpPHsEnOZRtEs/V3UqPK4G4Rck47FvWGJOGlE13JgU454PBa5/IJLVqh7Bl
VOF1txrdmD43VFu7/9jamzFIwELod9+Iuc4gmjKtQ1i0MfR1lRw6sAK0RE5Psyxz
5XCm1xlaoLsRpuxVpUCJ5Wr5U9AqlcH3C78v+cwNBjGuGa+dTfnkE2fa/buOQF1y
KPoCpI8Nul8qyvQqL+Ebx/ji28VpjaFvq3UFn5npwftu21yTJJXa2UBWI6aQepBv
iQIzBBABCAAdFiEEHszNKQClByu0A+9RQQ3kT97htJUFAloF0ncACgkQQQ3kT97h
tJUHoRAAh+AKkDkOifMN1a5Fu/SpPL/YrpAjGw1D3y8Hhi0IArs3SBoM+6z5UeXC
5eglY07xweIZtN45dCocpNtLL2eHV+Hvno5aQjMWuA7EZvm3U96bHhyoSbnAUGIk
E4ksZhsJqj2yLIydkiHq3fpHcLCpn326vtKr4JhOx019k2pAApSzxxHf6OU3Qe51
avxm651rT6zwPVRN8FFynRpSqj+9ZvnDePIrMPkdJI2h8cK58nP+8e8b1wTBm8VU
HzelK5QcFA6arZnrzb+JAnWo1YLL0v89Mlk68MHZ6KwY8dCa+SHYwwubvNT/bj8c
tBxCnc06rAHW6B1Ni+NN8SDJ+HPfAW9j20QYbj/e73gU2a5pHGNfdb2AJrqMj0kM
lft+rqYUP2XDLctpWdwyM8LOgUUTI/x5VA0VHPzBC4rlfFyx0b373xJC0rBnDb0L
J+QrTh4j0d6R8XIzVr1ganuxRzE8rjCu//Ld18o7J4ue1kF8JwJ4DXX88sTw65gr
N3YSKR8+kYW5SoTCgVHaWEX2UyvOboZw6jSdi9OsunwmvNOxCeZCBJRcWPTNbycO
746CW5uTRx2uPJGanRM9djsFnJQ5v2FN9Z9PP1vcZJ3VMq7TDwRIMEIuIgJdVcH8
IHFMha1W42+coSMTTPXmyqEiig7VkLF/XRaRq+E9v9lvPNnnoQuJAjMEEAEKAB0W
IQTvZg0HRj+Lcmp5VBPY7tfzyDv6mgUCWag63AAKCRDY7tfzyDv6mmHQD/9F/yTr
bw2Eij2SUzBiyoR25AYK7iR3eweOdo0tNERCXcGsw1C6GUC69ucBRqAOLQhpQvmx
1vgnATJnMmIzCZ2bVhrHngSVXGY/21DEuvDaFkQDykwxYIwlVkGImo+mWjdfXJs8
tTFKFhb/o1LILH7uq4TaDqF/fvvotFQ0z0bDXHwqEBp2UM6IOAwvVsTR98CBsqlS
KWVsOa3jUa8HZJR3BIVH5wG71BQlS8B8hpGBwV8jt3xhv1P044a36/lTj9pz1wyU
r30uLLWYijrVfI3/en1UgfNYLrgYtyH9RgT0Kf3WFPjAqpoj70h8k6L372vVL7XQ
3V+Kt5BgI6tzHnmfHYhh5lX1RXFonhPBt0LBDCByP/K90KoHjQgm1IaeVeKN+SmM
5aoJZr7+hL6msyMSFJK69p3yESeCBWy4jH7+YmTOuk3w9rwCiMOfPcZg9kOl00mn
vUU+UOvypwbSM78hDWQ3kRQQae/1GlBhYfy8O13t+Ovqvvz4YoXdceNhwW3h40yM
CzaTCaoMTHYxdgs5LIKDp+XRXmHa5F8I4lCsaOMJrDlkzwkCrmdCTynJAOqAZdsv
szFzNG9NeKPKQVWlyj4mTovSUM9suqqPGebUbBjIwTcIj2D0qXNq/IzRlmfoiRUr
Nk+wXoNf5HopPZZsJxe7Ow7Zkw4yEymke8UcJYkCOQQTAQgAIwUCWagw+QIbAwcL
CQgHAwIBBhUIAgkKCwQWAgMBAh4BAheAAAoJEE12cGh4ILCUVbMP/jt2omKfZIAy
FNlHhlz/p4yn6p5WerOyIcXO40k23X23bvyOjpWRs3eTnHEKCS4BfWb3+cwKO1xq
APyuEi7mcFRhF/dkzP08BruUn9KzB22aPIQR9ktKhmgqkArlsA3WwtfoMu3Ur9sx
3xPJ3UdAQH2pk+K2lQmD/iYR99N5aS4hHAcMEoefoN15HFZSiaJQV4JTVv8uctll
PMxdby0CFy/uzujelcFvG/U1nxlXd+isk54BikmI50PzU2+vtxyPgOoo1QIWT7uS
yLpzWoeZAittF02G7emnCvlbrXbefCIc9DDgWFVO4diWdlZY9xzWiWuYeg/5n2B0
gZ9poAFnn49kZMYDINDz1ztLRifyoH+1hVBg+3ATWSGjQbDqt+f7c1wOr6ljPPM2
Xp2yzKS2ltc0hHw5pNx5Ean3wRwiR9+zs6k49hWE/XOX9JAcjVR2udzSKfSt/2xH
O3v2Bc6ET+uc0NeQhqL6D9LmOwSn5Gs0X2mMoWZVsE3lHD3RDWNhH0ogGaSAbe8r
sDDfPE4jN+31IhYV9xbX1ds+EPXSjwyn9L8/CEeDNVBRLURtt0CnKAf8nGfTmN53
Zbqhs5w0U359UI8JcAIY/CjU/iw/aO6RD75mv5+zmL+5TB/pArQ6RbZN8/wJvucA
uFDoyDF/Zvacas67Tp32kogcAiRt4LKCtDJNYXJ0eW4gV2VsY2ggKFdvcmspIDxt
YXJ0eW4ud2VsY2hAY29sbGFib3JhLmNvLnVrPokBHAQQAQIABgUCWfIgRwAKCRBr
v58ZhztRjTXvB/9nPVr4tgpE4mUzlaBRLGyVcm1Q8ZgnBErjz0uLJi5eFeritS5N
rFFgtXz8hqAFD7PyENBiQB1+ndNAINkiEw9j9FmJ37L+okRC+1JBdxOx+8L5jUrE
EtmcLOaznsRdVN8Mqs9cwGER9jNGFiPGGtSraYjvxeZJelVinr2pJyq71tHJWgmj
6okyeUk0js5nB6K9yb0H/PM0oRX1RQaRkQFXdjowIg7Rifaf8hvW4GiLsTb4wmZ9
P4c8ZDdU0q/kDzkezmN6qj4kARD5A+C3lHaLMcisBi8Lf/1nKhJY/B081G80OkaC
HjEiBTMoG/SFHGX/H5X6ryiTN1ljPMCJOfMYiQIcBBABAgAGBQJZqKalAAoJEPs3
PUX4s20ofpsP/ArUmkkmz0xZXPzw34camNnXfNQ/Uwsau9xtp/q8QPhtwmEUGc1F
gZeBxmymeSwfOwylt6p6+VakftGkDCgDKGI6MZxBczZlUbdxVJs3aYGequOZA3y+
r7yAVpn5KURQXKAdBy82Y0BJc4JiIXq3EmSYdXkSxHDm+ejCtynZIwbPxmz8VCx9
zNwEB7nrT4NfSIJuekjM7+ZDKW0yVQC8QXLgewts5gZ9fXQ6wo7Jyw65j40N8eZK
sivTGBIhZgAfDy/5W/l2cxbkKyQ+nPIvpmVWTMa7TqZg6JA/uNdFxW6i+84pgfun
UaKx2CaaQDQHBZsmby+riXIQQVqJEvD2XwZkeCZly+we5bdzaB7RRVKWHuZGNDpx
Y/OwlZT7ViD4n64sf+BFOKI3g2a5mnh+KJVvSweOim0tw/vVDmGd5zTZQHGLcKw/
mMrOqf3ZOjamX2MyylQhMuS0la915XjhIVyfhz+xHHjAx3Fqfh9kvyVRRayp3+XM
nMAeCdO/7jP1vihD+GcTbFq6GWZtnukLeSap5Ksk7nx266SGidXPMApQEC5oSUqD
x/DwiMxLRWPfDSN4jyfp/rE7a2EOBhhH5KT/M7JSXvtdDZrqyHoMMozbWcHvdjes
5hy3PpbOfXN8cZ1ViHhUXUk57eXYqV18FMbU/6VNhM01I1wRdeeDR0mgiQIzBBAB
CAAdFiEEHszNKQClByu0A+9RQQ3kT97htJUFAloF0ncACgkQQQ3kT97htJUyvQ//
RPGJ137XBxziOKD5D7tCN4BQORL452rMs7cVwJXWuzJavzWG+S+XkAthMM3vC3M+
w15I5eYIBbKdevhnKXNstObGgokZZ2icgI+LwPMY0nGXWYtQUASrnR0nE09hLQ/8
2H7mtlmB+bhVQpW67hDCQYba/0Ak+6uw1sraTdfBTuiiiM14k0sF69o9qhiyVVlq
uXWztFHGUIf+TUghJ5wPyvGUz9iuwgzYoBCliB/8JhWCnpgy+Xz+fNHqXBOrhlG/
zWoZexCf9JGoPOF3sXIhiZNeQJBoUSYEXBt9UzTFLtLpHTR6w4P90nS1jIQnQV/4
4teh3I4CullgogmY65kqPwGkPjY7NPdSqwkcweMDElF6lunZbP9HY6p0nYtduCW1
sL44WZz4kg/iVxu04/MNkv3J8mJTkEC/X7kTtAJJRyuj7TeF1xqCrBT9ufSOUsiy
2rG6PmMlUR4w7TkTJ45Ew0ad+IBsVMTS03DZPZY0RL8Vexv4AZahKSOVDUgUbs/A
OtoeFa0zpV3FEIsPkXIdbYAnQK3jpTz1yjrZl0DbVm2kAt1GT8JUnReTk2lmnCvq
gV1ScleNVvGhskvqTkIG5vL866cTusFYayXzBH+3S9EJLaWRLXmiMV/KT5NBVTCU
FuVieEcOuifrYlhTmBE0/8pYBJnq+BiecN8CLk0y5l6JAjMEEAEKAB0WIQTvZg0H
Rj+Lcmp5VBPY7tfzyDv6mgUCWag63QAKCRDY7tfzyDv6mn96EACPthzcGPZV3ZoQ
hkAfWLAtSH8XwFg0qnouR0sPalCPZBYFJuOL3bKNUNYiGk4PBc5sVGLNFY1+iTIU
D829RYHftlUa887X057wj7i5eAua0wbW1QC8tFGme+CAG6lO9h31pe4lv+yXfNe3
Ngk5SFSGmCjODcyNelnwLPN3b4hNDWL/VuiRhNvBwe8JnDDjHK9vi1D3QMxYtUeM
yuRqecAj2sBr3a720g1cMwg11LytS6lpCtOXNZEAmmH2qzDmy69xQt2yoEufFQgc
SWQAoHVkiEt8Hk0bssEHqaHHX7u2DNMiCiMV9LWxZqH9MHLrrZhUXtbhtmCK6W1m
oQ6vufFLmLV9SC2gd3R+704hhcfIrta0stPXUh10MzB7ziNslt01m6SHCFu0OOSO
QEC8g+ecLUTVnA5t/n3mXtmYMTNOwi+YWeLH9Qlt4B/+F2lGxYHgnjrCN0RdDk5o
+JfEd+tfhGvsaU49yE9eS/Pbiy7XHZ20/ws7OACmgjUK2vgG+jy3cTAI1swd+yHj
3PlfwOwvx68rLJi9RWdwEwk017ShD0aLRl5iMYRyFd7BeqTv0jdWhRxS3Iu88xNy
bOX873uiA0fvvBuMJy463QGANaHW1defrJDpo/Mpmeq3pEknhUyxAb8KbQAMbMDj
CQ9WKBW7bzDASOmIzzlyj6ofoUCbz4kCOQQTAQgAIwUCWagyXgIbAwcLCQgHAwIB
BhUIAgkKCwQWAgMBAh4BAheAAAoJEE12cGh4ILCUxvYQAINM8pUaLz4tWA91qqUX
KHRWXZosZW9XKrSdz85uUKgduHh044ZIxace5p7A+9KQoKMcd6Zt9t8u/XvR6meo
OVG2GAXNVzaCAnVd8hmBNi3tizdG6XxdJspjBOVCAaF5YdmKCK9EOgHtTM94EmVh
wmF35GwUZzWYVNTUdKWDkoJPmgI3up3AHqZTcK72qEAK7jVnHBszfhDy64PRKLfX
D3UnsDRISEulA5PIcRTtleCZkZaHgbCpkxUPWHTXI5c9FWNZozjN5PIPZx7nMVFL
D8jHsD7dgQw3eXHOxCKFEGgrflqOprZrcWplHVVHgaU3thdohsQZAz6jtQet3z5K
YlPzGwUXNu4pnskTJP1qcyRxO9wJi+ubbgL782X4ncqtvt0e1xTWWMTYJnTu5sDJ
aRrEdWRz/by7KAspQWwO9YQepK2msJ6NwwzZvRr2P3Zpz8/Nw1+J2zKLfHLEI09j
bifnwBcfxpCB/B/117u++ctN3W/xG1cGP8dfGHf4DpZJ2cMJhG6Le/CsFjp18SYt
hQtYSBMPGPSV4OF8Uh73NZEz+pXxnDghgxMoZYNXJecTuFOHmpOM/m3p6tT3dLQM
niAPor0CaKcY/2/juf60eOhHZb6a5tbpyS7r0NS37LDoRhjZ3fOycX5xCw+VjBXo
ZkHQ84sYTANN1fVvA/NW4e3CuQINBFmoL5UBEACyXhlOWodk0MJM8Pbl2HgINzdP
fWmxP4s/Auby6gcYtOZJgcWUPxE1SdGwahQR0zSnBmjfOQMZEH6xjK6Gi9qcTnI3
LuTxpY+Vf56H8E91eAJzeFhLmI1bG6Cg8osZ06IsAduRVxA9HVIEK9slK96U+Caz
oGqkyKZ2Mcrv2k2Dc0CbB+82jZPL4dXh0KV9qL0NRfxMPMxAD6Y70Fv6F3SL/8Jj
Iit9rUA2FT0zFA8kfC9qNuXwIt8BpcTkgcTVwZEGzvuIeb1Qn/isXQ63kf97kKWE
T/DvSL9YlhcVpTSxdoh3adUt/4Fu80eGMQRRMhPbY08surQb1RLA2f2oIT9AduBg
kUvtiRqDLRirdYAaQ4wnpyakLQRSpcaf1jc03j1Px4fbd908cSh3DxZV4TVeq2HM
JFzpYwibIXabrzFaLUrTYT4lLM6F/bWahTTJvSMPGJNBsJyo+mQ2ANIEdXSep1dA
fAk8VTNrn6SLhkYoE1sbCfplU6oE8Di78FeNb79A471Ywh74cAhvhrMVnasj1jer
2ozyA/A5QmKOIKgyQ5s3D6Cifuu2oDzEoRLdcKjAGNuAB64A407tnYITMvZXkfxg
RmQtP+y7x7hTPjWIqY7sTfbur8BLDGEhQQ8CGyskZkejUwC1dmLWO8yX6wt7FZ/a
aKCtZ1bzpIc8NkmqOwARAQABiQIfBBgBCAAJBQJZqC+VAhsMAAoJEE12cGh4ILCU
fCcQAJzBY5c1My+6LdK1uKeo+5CPRdEoq9pO6NY/Fd+33Dv2uCtQoUOi8RxVvQzM
F3zBbftBMZEUJ31dDO52SqvEoKgTVPYgivPg7FeNLGprxG/pulfyOZjIoLPOi8bF
2g+/UymrLBctz3z7lufzjUrU+ftYPGmL6K0HWxNdbDXg32WzghfZUKVgqAvYBWjY
TkWUXsh4Nc5UWhdmbbrjivDCvWqB+uTtMC5y9o+1s/Ivz2dw5wVX91DTYfk/cv0n
pg9yWpVAQ9/9vUwbCI4LVGxY/YX5H1AsTAmV1G9VUQDgaJ/cJtDagcgluWDx1Y/T
1Hjv3RX+42Ja+ZlbzeRmh+/i+vBXKLs008xz+yr1aAISA3hRlb42q7XQ8vYd5NMP
gmhMpnzmPG+eUsJmiMepvDsKOjs7TRmGygc/EOg5U9aK4dKKMDTpEIEofDeI53r5
8Ac1twF0jrLofanIVnZKQHo6m35lPiu63lMmL6S6NVnuIExqyKbQpfIh7T5aJR2l
RctQT9FWr4GPKKuP6TCgc+ryd04ACRvmvRS0DrJ7dvh0sQM4lN1jdNA5WG6D2pcv
SDg92BLvo+Dw0N01dZ8Uqh033VBxqGZklmEsOzapnRjF0fThnTaR6p+hGFdcn95M
PRbRV2a6wnCURW17VsDUFznCiIqmkUh07zTp/TsDZY31ICto
=QZn6
-----END PGP PUBLIC KEY BLOCK-----