pub   rsa4096 2015-08-12 [SC] [expires: 2035-12-31]
      1BD9CAAD735C4C3A460DFCCA4DDE10F700FF835A
uid                      David Hildenbrand (Current) <david@kernel.org>
uid                      David Hildenbrand <hildenbr@in.tum.de>
uid                      David Hildenbrand <davidhildenbrand@gmail.com>
uid                      David Hildenbrand <david.hildenbrand@arm.com>
sub   rsa4096 2015-08-12 [E] [expires: 2035-12-31]
      791180FAA0430C1DBB7FEC80C1A1C7B5AE222620
sub   ed25519 2026-08-21 [S] [expires: 2035-12-31]
      5253DF30E9E9AE7D7B460E03C7E9CB184555BB79
sub   ed25519 2026-08-21 [S] [expires: 2035-12-31]
      D6AE6C6553AC8541765A3146C024FDC9BD6ECDCB
sub   ed25519 2026-08-21 [A] [expires: 2035-12-31]
      A9ED99CCAE6FBBEC86EDF1AE6D8A365F9C0B3E34
sub   ed25519 2026-08-21 [A] [expires: 2035-12-31]
      CC43E2EC554C59F11BBF1F60F3749732B80350BA

-----BEGIN PGP PUBLIC KEY BLOCK-----

mQINBFXLn5EBEAC+zYvAFJxCBY9Tr1xZgcESmxVNI/0ffzE/ZQOiHJl6mGkmA1R7
/uUpiCjJdBrn+lhhOYjjNefFQou6478faXE6o2AhmebqT4KiQoUQFV4R7y1KMEKo
Syy8hQaK1umALTdLQZLQMzNE74ap+GDK0wnacPQFpcG1AE9RMq3aeErY5tujekBS
32jfC/7AnH7I0v1v1TbbK3GpXNeiN4QroO+5qaSr0ID2sz5jtBLRb15RMre27E1I
mpaIv2Jw8NJgW0k/D1RyKCwaTsgRdwuKKx/Y91XuSBdz0uOyU/S8kM1+ag0wvsGl
pBVxRR/xw/E8M7TEwuCZQArqqTCmkG6HGcXFT0V9PXFNNgV5jXMQRwU0O/ztJIQq
sE5LsUomE//bLwzj9IVsaQpKDqW6TAPjcdBDPLHvriq7kGjtWhVhdl0qEYB8lkBE
U7V2Yb+SYhmhpDrti9Fq1EsmhiHSkxJcGREoMK/63r9WLZYI3+4W2rAcUucZa4OT
27U5ZISjNg3Ev0rxU5UH2/pT4wJCfxwocmqaRr6UYmrtZmND89X0KigoFD/XSeVv
jwBRNjPAubK9/k5NoRrYqztM9W6sJqrH8+UWZ1Idd/DdmogJh0gNC0+N42Za9yBR
URfIdKSbB3JfpUqcWwE7vUaYrHG1nw54pLUoPG6sAA7Mehl3nd4pZUALHwARAQAB
tCREYXZpZCBIaWxkZW5icmFuZCA8ZGF2aWRAcmVkaGF0LmNvbT6JAjYEMAEIACAW
IQQb2cqtc1xMOkYN/MpN3hD3AP+DWgUCaYJsSAIdIAAKCRBN3hD3AP+DWqxyD/9s
zrDyh6Jalg/2ev+HA6X+o9F9AMw82TQ40x8Tn1GR4KUisx0BBNYk8O8KBE9/0T7t
qMouDnqdBuG+u7092lWrXiBOECi/GbzMloKDQ3G46BXkdvcFuoeFbO0psZqMjs8x
hNhxRHlXAPRSqogMvPgnvCgodzD1uoTUWdXoCUS+TmY0aKMB7ViRAMYbXkXa73W5
daeC256Ej1n1ULP+Xr83YIviLRpCtaPyoHRE7urWcOPqcCpAq62UusDi/jP0fibr
J7a0jQmFLXtCJOT63ogHWgIsFCZ6Gh56OPlv27pmFPlXYdMVmbmhbMtNYq0GnG3m
wmz7ZE8BLgNmIW6Kmve36uLspiUZqgZzJ39Kt39lVyqyLWPB3ke1OCMAImXO+XMD
+O8PNcRYbhHGOhEhq8w+EDRy6uq78UYKhTT9O+HzFp0XUR29oUtucL0kN4bhoKC6
oi5qY4LXyaSMB9uBykpSUEkUi8VuFXooIzRVgBXk77ca/cJ4MiVj+xch/emwcoAQ
Jd2DeSWs+8J1k9lmq5YJNQTU41ixPLQ0q+IpXSKoFwVQ+saOYxPsvZSlAGDa4ym7
30Ff/YmvxUIZLFn4wSQlgdjxsD03bL76NT6kVZaZD3Y2jk+rySjPCxaUYeOfpqhf
72MXanlLxm95uqpcyN9GteXyVXxqLLik0XJoPbemm7QmRGF2aWQgSGlsZGVuYnJh
bmQgPGhpbGRlbmJyQGluLnR1bS5kZT6JAlcEEwEIAEECGwMCF4AFCwkIBwICIgIG
FQoJCAsCBBYCAwECHgcWIQQb2cqtc1xMOkYN/MpN3hD3AP+DWgUCaJzangUJJlgI
pAAKCRBN3hD3AP+DWmEzEACPQ5Eytbb0RUti6ofPZYPvFmjJLoUOj4YAJ8FDqohu
nuL4Eh455KD/sUZupVVxujnWv+tr6cfCuMaNf+xrSKGQ/TztIC15rIO9VogCXaCq
z1xlY50i2r47JarXmfWisaECdOl25+pmVPKRNwUi5JAsmZA44tcsCR1vEuVzlDfg
+fuOccTtjwvo1CDgFBhwZJcNvTPTx6JULw0NqlxlZcT4U6uGSl2mjBKDDGBytRY5
dc1VTSbNZkVW1s7bk/JcJi6OHSZvxJlgv9QnAuWSLTd+Tsd+po33F91Y6t7xe898
jjpRM2Yd8XpMk70MX481yTSS3yyShDgaQg2txXp7XuTMIrdlfAKyLmzhHR9ybrrn
BQg4/LKoCFWIsn66mBUaMtvSZqLJigHdd4nkt3j84Uqkc5XjJeQnTKl+iIkmb6Sh
mZHV1G9WBivwDFrRfMD6jI15z+Bkd9iaH8KtIPQP1gRVrwLDI0yhhAKTIPKDBE5D
5eIQvVmaSg+VmiUuiDX62LNSts2Y3qLr1ROjt1U/z6dUoXqAFEQZmipSlLziKRmU
N9e4uSabb67kGXbFFSfFVV6fOj/Y66RgSE0E/NgWpTrX6ewznTH5jbKWckxFjDjF
Smp98mqsp0zYciU8OEu9ASBsfR+CPQIzlQepQ4uzG+R15+EWwSj7R31iV4BoquD6
iYkCMwQQAQgAHRYhBMD8OS3K3ibZdfpeSvfTWPspceCmBQJonHnWAAoJEPfTWPsp
ceCmZ0oQAKJTox8wHQVIHjOa30rAkBzSj8Yrh9pNtVDVbHmwAmsgstN4sNyu/3sY
0ZHfhIImVdpZa9wylN0xuQPsrJKUaXb/GQiKga+CMrUYo3UQpExJj4iwYy2MFe6J
TaTMGAkB9/K/djrXMUbAqgy69Oq8uijpi3b8dsG8hN2qDv7+VwXZuZFOiU36r264
GWyfB87lvjybB2C7HmiG7hFdxzs6zj8pxojnyoxo72qIfU82w+6ib4CYqF+sbU/E
o7H5PBEshom6tfcRT3pa07oa/9aGBzgALVnBoyquYsS1wmH06+17UzbDvDyJgEqQ
pTrP5pKCIvh6H3aHj1K3nLRUC15FYnMnmrDeV7cY9nyezjJUe/j+UyWnIPTdadnU
cOknV49EpWtLQbjZ9PjzjfqdgNcwwIZj1Si/a6e24KW8lxNVcUVca8fgy1x61Knx
s72MkurJi2wb/JF/kNOSkHDodFQVfiJni7EpHqjSq0T+39/XQiAu+e3PZfdCYGJV
XBuYRgYJ7MMo/LDw5UuzvtAEqLibJID+qtXp784Ljyk0hPbZeZK4vDe5siSiZb5Q
0XU5Rh6aMPVNWnDnsaZOboZPJ/C0XmsD0tv9qpJQSwk45dQBrj7UBOjJavftvX7i
9TRU/NLljtMMbd2hXq50YzrSvONYLyO9D+jiL+saaT8sk4H0lmM3tC5EYXZpZCBI
aWxkZW5icmFuZCA8ZGF2aWRoaWxkZW5icmFuZEBnbWFpbC5jb20+iQIzBBABCAAd
FiEEw9DWbcNiT/aowBjO3s9rk8bwL68FAlzeuOYACgkQ3s9rk8bwL6+ZyA//QAtm
/q16joLIcwYYWfAg9VKQL2h9GL9/pHZWnxi2F2TSt16/9WNQOTxRkeY8YZ6v3pvP
p/LCHdI7DmlAPuVrC+zZey3dMt56kyin5FAFwYfbN0yJBHRpu8xpEhAP2m4Dn3h3
qvKYj2hln0UiZ2Y4KbVzJopwAZxjgeqsK68HSxsz7chkdtdo/lH3cZtxAlnqOPNV
RIl6Zftn8GknMx+KeIDH6X8W6UtmgvQ6MmBYzIBeE1kiqZ2Nxhs/mxgjIo2CtGFe
eMcwz1tbqnuVcvd8+Aoms96ADj5qfFEJs/o7kho7QlwbiIu20z8dt+cY1B0NNsvq
dW+dONfygN7beSwrFjB9Qj2maImJb9DRdZWKzAL+p9b32QkbQpurFRHCd31rELl/
KA1Az3jbK51ip8Tn7Wy/ynLZRr8x8QuoyBfVXpP5cyaqvZsrwJgwD/YSpYc0u0w9
3R2xyUOmOhi/DSg1i1iLXyF6b2YTBEP5XY0N1hsmhwv+ZHs5D/c16RvPfClvw0xm
2v7fIWuH7RzWZC6apT2l4MEXBSzdni+PnXsb2zaobO8lADPQGnPuudAClKRLB+F0
rHiHLueeFNhv+JwTQ7CX2XI7hOR4LyUzztrTi36mbcZhov924Je138jxyM3Jv36b
E3ymj00x9Kl3dus+RR4KDaeX0BT106FHjbPcq3CJAlcEEwEIAEECGwMCF4AFCwkI
BwICIgIGFQoJCAsCBBYCAwECHgcWIQQb2cqtc1xMOkYN/MpN3hD3AP+DWgUCaJza
ngUJJlgIpAAKCRBN3hD3AP+DWr3YD/0X18wh/r30i9FZn96uXNF4R4JSYWDuQ0tY
iAy2U4mQOPLOftou+stLWEvtMojzUmufrrQ6uD844tki56crRWe9QX0UExPiUFzH
mwAEwbozKuk48zDGIO1JTdDNO7/34xAqyeKpnaB/BUDmDnu61GRsy3caKrmEYEAZ
hK/fUuVMsb3Rotz864yzgRwMxzH8sp70vES6aORSHk5I8Pr0v+vIQs2U33RZRT9k
zthDnB9pHRXd/HkiJLf/oPpKRdHQSitxXW476TZk8+ypSPvM0zkt8dtt39e9kfHe
602lSKLYZKTAEoMAu5hSY5t5z5JUfx0GEpy9TRjlW09BVzSuITLdOoX/zd762bQT
e9N2Urot82OZPckO+xWy4K7BpH7Fu8Ilp1rGAkAGmzr0ugrm6UtKmRYBBhPjUUU/
j7Jbw/lwY+EOJIlp477P0hvE4Ai8F5cYTJFgMd88PNj5UvF+scZazbbDM23/Hkkr
TBU6kswOLuSsBTfeI8BcHZjC+xDbygY7bO6VK2sV7GbxQ/m9tKWCjK8cRqAq2u1O
FQHGbcA2DEb0neqX/vfxNfryEelwLVmJx1L8hmvokJQRArtfrWH8wfjnkFf1C5et
kkTLN9x2p9Vk4IIIhkFQJrR5E158n20T9Ayra4yexzKSNHKKO9YizwqYfM7qdz8d
YkuAcgzRcYkCMwQQAQgAHRYhBMD8OS3K3ibZdfpeSvfTWPspceCmBQJonHnWAAoJ
EPfTWPspceCmQhcQANmFiwCA4yi/y0TyIRHuen5WHDzJcfTR+jhdR5SOO6GSDhlu
WE84WhSHHdXadDo0WrtvgmBuEgblPUZH5s5xhqeE+KQhPTAesYpDBRMlpZBTjlrL
0XVSIFjdki7d+HvMBmxCHZvsji/6gvykaVN1adk9VOmv9Pu+noNiDmzYDQqjlnov
pKD07oBmX4gB54FBU5/29xNlvQy7VpVYgIGArdWD3S9d4n3senSSVqoC28Q7ODHo
Kwaw770MATQhO8fyJ4zeeJIONReXXpRW2/GtM1Xg+fLl31fyPT7La21gyBlHLu+B
K1PL/Nr/1gzmBmHJ92iRTjwbtVk79Vag1mv0n7C9fYV0tQUnowIvL1Df7GZOb9Vo
j/lv6SmfVllFWu+YUq04/UXvIX8HoINvZTja3M36ipeeWxmpl4DvfHBW4HjeGuBl
pMRPhkv/fDE2ARd+KLfj3GzEs+TSvuWZF+l3XzekfnrKSyf2SiVFJlgpVx39bBsC
LhQn7hR/hRkBXEcl2ff09Q1Q8HHkyOx4sNLBlgCzHu+mIwxuZM/f4+ek96L3qhUE
BvvBe/qyEYpZsV67Bvkengn+UcjI+8WGMz/eS90rmvVj5Ctbq7gCn61zmfyglqOz
Er83MS2T7u9pvHHGGy04MoPX8ZwsTuj/pZDDli5ZWT2jKaIsRl32HKr9VScctCtE
YXZpZCBIaWxkZW5icmFuZCA8ZGFoaUBsaW51eC52bmV0LmlibS5jb20+iQIfBDAB
AgAJBQJY4/ZAAh0gAAoJEE3eEPcA/4NaXUEQAIEvsPPHWbysnKZ3tYzHwWCxvo4E
+zGIMCJy6Elp3H0HappTGnap3DM9TBJz/5xZPARAfJRU1PeSjtNqZNf6iFckt1r9
nkOuny1J4c4IlukbaFl9N02lXF2xVtpx37jv8UPhjk7zsj45ZIIQIF6LCKEps5Hq
Okr5z92JQXt9pJ3lQxKjIWgKF6LbuFTeheDRklOpFjMMoD9AjwQz8Uea24SDRBTN
tkTKAHy/5H8SUpTENgCqiPL+giN+Sf2MAJVxKdBeuAc2325KB/HAGfjrsiVaTbUx
qZNOEn/soAYnxbuCbhDuxN+c8YO3fSZ23UZsvt05vokC7B8vt495SabEJ8y9bSyP
CvMgf3zHaLPGHZV/JU7XieLa3KgvgPHcnOpbSwSy09m5aBy1AXJvajUVZcPfoNMM
TSVckoYNXoTyBr90Rb6EiqDLmzDFuxAR1GsEZIcOEurnRL+WaQLs2nHzByRIYNP+
BKPODpiQFu+NSPRIq7dfIbI1nVHmWdY3tpXGVGayPf+g6JDdaTJwpyjbQw3Z3b1I
/Rci2sxjbJU+z3xXH+WiWy/lhS0yYZ5I7dUGUEVt2jghflpIDM05cZSEr2c+su65
qM8f0hf8e1ZgaH2aaRaJVnPSL5322KBzMnRus1likUegA316VVgtEroVkemuWXws
K9Uce5hQueiC//L8tCREYXZpZCBIaWxkZW5icmFuZCA8ZGF2aWRAa2VybmVsLm9y
Zz6JAjYEMAEIACAWIQQb2cqtc1xMOkYN/MpN3hD3AP+DWgUCaYJqAAIdIAAKCRBN
3hD3AP+DWjUxD/9TfzuG/epNscnzUhXqQqHGorBIreUKRpOQCsB403FqrZpGafXC
5SV1wi0x8hc5B/J0PpSOoP7jIeQ0vNEy4q6NM/mohyZ8Ho4pjFye+J8ffxuQF79Y
pIFOv39sqnrpAs8Gv5NCdaCo1zaV7kGuGp8jgskgqdJ2Oa8rb+1V5R0AxtaK53UE
2dkrE1Colw7Sundu4J7WmhqejpPTKzPlmPfRFenyC+qhFLBWYKJE4SFp42Vh057e
huSNUkKCUhklWxyuRYzsfHTWFf4OLH5dwFt32tXVeyowLmEKkJoncEAYlcYTRkVN
BewhpOTKAXr3IHJLf7HKDpHsOSUknMdDkGOph6/EJ0SPrZ+gkSsGezJc5RqBp8HX
YYQwDx//kqIlkaIM27FZ3KeYIpXG30AsD9DBsfUEMggK45PkrOmBoaiAzYWVnNCA
KrJ1PIRG8qg+I3S/mdGjZ/TGM6KFrBk6dahaUT0BALNYGAKvVPL6EgtRMzHJCv/y
O25wClE8c5MRSfTUMFAU/eeAv5X2vMrMStkaUDwDvBaVzWaUPBlj5kfufVTqAerl
uAVXRiJybrA0A3SD0hljzLWNJS0xbsD2w7jlAG3kQlH6djEk70W9+U04/acQp9S4
OfFflCfVa/eHo0a5misSfrODBdFt3ocswhbfmbVj+nGGEwq9vsnrLUK4brQuRGF2
aWQgSGlsZGVuYnJhbmQgKEN1cnJlbnQpIDxkYXZpZEBrZXJuZWwub3JnPokCUAQT
AQgAOgIbAwUJJlgIpAILCQQVCgkIAhYCAh4FAheAFiEEG9nKrXNcTDpGDfzKTd4Q
9wD/g1oFAmmCbfwCGQEACgkQTd4Q9wD/g1q4og//QSxhChvjfC9gF4YpCYOmJl6J
vcrUcD6g4KR6VYNsXYaKaFnTEV48zqyCg4OC0pxWip3kA9IWYaAKxHmphubcqN9s
aEbD8JG6SMy9DikmfBuplWxRqY5sgy0AgMbXlwi182SNFW7LiSnpWJynF1jiJ3Tq
zUbxOXqDn07dl3wZwGqcTGGNiLFfqmlF5TutxoHyDoPEQWo+8dzcZCN61dEh4SOB
lPSuowrxoIcXktUF+i/1yPZnwGGiMBsuQevJBduqYgFWL/0GQxFSKaN7e/340qcS
k/KZSR+q4YUdHqcvHVkR5N6k+bZNj/ObcGrHZaFrZDGexbAiUSlrHJtQS6bA5+hE
OI3jBxAomPZBiiovHUKb9xUcqNkAKWePTTQ28HEdGZ3StFxaNeYh+9PB+UI2v/E7
lwsJz1gHCQ0KDSAxcmsXtukcd2cFJEQC2t4j3FYxNP/060OCpxX/pTAUq0t98Qww
X3r1vfg5OiCEpgx9URxato6ZDfhV/zxPHlYVevAdg7AD2ea1MMgilFz0yf4q6wgp
gAG+Sab9dUu4VEqarTP+qFREgt8/+ws61bUTg8y7TYFeK+RCPsAL/9z4CS5TMICT
PdBW9wgdiIG8YY75gdVjXb1wAlcnceeVeyzzyqHUkxdva5Z0AH/Ry4AqYbrkq6z5
+VUA2mGZeDf+83NsHFi0LURhdmlkIEhpbGRlbmJyYW5kIDxkYXZpZC5oaWxkZW5i
cmFuZEBhcm0uY29tPokCTQQTAQgANxYhBBvZyq1zXEw6Rg38yk3eEPcA/4NaBQJp
gmmDAhsDBQkmWAikAgsJBBUKCQgCFgICHgUCF4AACgkQTd4Q9wD/g1oYyw/+IsV4
hJwyhcFMM2UTKt9BDzdxM9qFMYXgf5Fcr8R1M57NeAJTMAMgDJBi45Vm70BtEEbD
gX+Yt4J9sVSF0xCdnte0c2YodPd45/KUWLOeTNQcC8WzgJpGm1dUvZ4SfWXoOZXt
J3Q3jIrLgEmgnTVqsk4AYosxNJc+33hIijWvvRsO6KIMcwBw5D/imRr0PVfrD1qm
1Niw5Ya7QArZ6d+b8pikEQmV6m8qSDhSx15GUPBFRfEWZrwZ3g+GhMPzBxeR5oyT
dC6mSDuB7yhpTSC9o6TxbFj6wgMZd/bG9WpmTySXNfy4bJ1bQY7HDeHRMjPXYYKC
Le5do3hjcLYJAmUz5OGoGuEkY0Qo+yZ7ZHOSely4qwkCPkMHJnJPQVl2ssXc2yuD
AQzvYD+AgpIOTOFb045+DuaciEXnct+spV39FhRhWrinaYaRxIaj9qiWK2YvF+Vt
dw83KlP5LrqLj6yDITFSy/5BE1pxe25px0/JA2TemcyfftkA10AM/0otW18gG8jq
JjJMf4HYLxT0lyswaBqqQE404TPTeZ9sGcEIsDygFmq50Es4XexqZwgTl1UGPc4/
yja+5TwUqCI//pxZI1Rj/4yD3lcsZQCXzFM36fiyiGQ+sbNH7W3yhUuxpvRj5puy
5vlPhQiXT3CTb0KUExjPza7IPPAMCrF/he7ORJS5Ag0EVcufkQEQAOfX3n0g0fZz
Bgm/S2zF/kxQKCEKP8ID+Vz8sy2GpDvveBq4H2Y34XWsT1zLJdvqPI4af4ZSMxue
rWjXbVWbT6d4odQIG0fKx4F8NccDqbgHeZRNajXeeJ3R7gAzvWvQNLz4piHrO/B4
tf8svmRBL0ZB5P5A2uhdwLU3NZuK22zpNn4is87BPWF8HhY0L5fafgDMOqnf4guJ
VJPYNPhUFzXUbPqOKOkL8ojkCXxkOFHAbjstSK5Ca3fKquY3rdX3DNo+EL7FvAiw
1mUtS+5GeYE+RMnDCsVFm/C7kY8c2d0GNWkB9pJM5+mnIoFNxy7YBcldYATVeOHo
Y4LyaUWNnAvFYWp08dHWfZo9WCiJMuTfgtH9tc757QanMVdPt6fDK8UUXIBLQ2TW
r/sQKE9xtFuEmoQGlE1l6bGaDnnMLcYu+Asp3kDT0w4zYGsx5r6XQVRH4+5N6eHZ
iaeYtFOujp5n+pjBaQK7wUUjDilPQ5QMzIuCL4YjVoylWiBNknvQWBXSlQCWmavO
T9sttGQXdPCC5ynI+1ymZC1ORZKANLnRAb0NH/UCzcsstw2TAkFnMEbo9Zu9w7Kv
AxBQXWeXhJI9XQssfrf4Gusdqx8nPEpfOqCtbbwJMATbHyqLt7/oz/5deGuwxgb6
5pWIzufaN7eop7uh+6bezi+rugUI+w6DABEBAAGJAjwEGAEIACYCGwwWIQQb2cqt
c1xMOkYN/MpN3hD3AP+DWgUCaJzaqwUJJlgIoQAKCRBN3hD3AP+DWirTEACwCfD8
6awRF213BF8AykLvj/77bCH1G9VDTHzFe+gYnBmuTQmZyTUAEgz//mxYOjt4MeTW
4Rxz3mls/1cZTpmB6JB6HTr7S9FggvAOTxD/LTpOtNvWfifsVHDKyQpTVRac1bzq
W9ZQm4Y8AFeOuR8vjVEm21IkcXczULS7YGczlWcO48VArOFFGS0EwrgaRYG9eWwc
WGfwS/TG88T8b31ECD2580DHKraVLNtQjCtj3XwoeXOIErA3Iug+f2SAcPeFEFph
qTPztYpRl3Xtmc8xmJeuIJZnHA/HvOzpxICpx9xW5yZ0+IiXIbUr8ciTYtfrdPqg
7YuJvPPv/SLj6gim+krZfrNnZy7STa41wRibbEBv7EaarCc+cdf9pzyUkTLMfeWH
6m3ayUjhVw82fP6/Nh4EBLVL5UlzWlwmveXs9FJDhu/mw5tm97NF2oQUHi1Qh9Js
N0QEIK+8QwGCiKwMHxx5jE5wUAzycFasSY1Ta+8gYnOMn81VhghjROA5zltL3CHq
Mocvb5yGt8Nbmd4smNjbHeycXyrtT0YQhsF80cOU5XxLKESO1fQPIrFAqKhNg84d
xb2B1Xl+FLPm0S/6Kmq3iQiBaoGDMrx4+0NOpEypmrjnuDX9JdKhJCLiM36Cyd6q
+VMl3NoS7Vsk/SK/pWJV/Xn6oe5jmKiMLPx9rbgzBGqIgcgWCSsGAQQB2kcPAQEH
QEn+jxKXMVObbKEivW81+qGOaHSllg4FIhXcQVHZ3edFiQKzBBgBCAAmAhsCFiEE
G9nKrXNcTDpGDfzKTd4Q9wD/g1oFAmqIgjkFCRGbJmkAgQkQTd4Q9wD/g1p2IAQZ
FggAHRYhBFJT3zDp6a59e0YOA8fpyxhFVbt5BQJqiIHIAAoJEMfpyxhFVbt5NFUA
/R7V/VfvBdhLlSzJjNyo6jIXPVXPXNBbpUZ3j0qmcRcZAP43Bv36wfgOQO+MjvfJ
M6sVVFKl+n4gJqfsdD4JhdGjAahmD/42YTDSOmkt/I0VmD83MyJfb6Qsw8Pc1373
DKkT5Ktzlnot9HNCZ8ciqr4umrZcn9YU2Ti7CjqcIs+H+7IcPAg0SOpQGvHMZjyV
OpjQFmCDUvzRl8HNQ91ZQRRxVkOXWoB8GTLSCab9douo32rWgG/j58ZXa69Z8pCy
4lbigw7oIhIurb0chnmaH7+zXrRdGiwGWzsCgRzsGBlrBZMokxCvqndS2+0edDIp
JPO6Up8U9a29d8+KWigB03gNwjxV8NNgTfpJ5nrC9+susLtThoqC3jrcWOjjysNc
oEThSomrOa2MMEVbhn/NOLj2DMRNgCf+piNMRLlMXjsXSlIP8DscaxQgjoFQ/s4M
w2op3H2pWpg8D0fcs+39ZO3Pr8n81V2GYoh0my3U6sa4iv/pKheDAxYxFVLLq0wf
1knq0IYv9UQlL8mHBAtLV+8mz+QeJJTrntj1pXRpelVZL65MN5X1x2zeuBrNBaaL
dLmO7NEtvgdNjpaB+4HN6mmVjvQovpeix6yrLxHJ4/TMgVYLXJalYThG93hmb2We
Cs7te77yarIhUPm382WQ4zmECuIiEO33Po26znkZSU4K+XhdzSC/C2autLq6oyWP
jsvxuEKAeEfeWmWJyjl6+GCQQAayDjV235THwWo36j6zG/Ll+VyobljuRatEj8Un
/wHpPct7UbgzBGqId0cWCSsGAQQB2kcPAQEHQIK241zMHOXYg7t9DpJfP0JtC49N
0P2fnihz30PJI+DeiQKzBBgBCAAmAhsCFiEEG9nKrXNcTDpGDfzKTd4Q9wD/g1oF
AmqId8YFCRGbMO0AgQkQTd4Q9wD/g1p2IAQZFggAHRYhBNaubGVTrIVBdloxRsAk
/cm9bs3LBQJqiHdHAAoJEMAk/cm9bs3LmY0A/2LU5Tf3q20ScXS6U82f9GlXFZuS
Tyufu00IQfRWF8InAP9HXmc9KJbAIjZoC+Es4Ta6BcxqB74by2uHH3xqr1A0BiI/
D/414wumaZkmExwXytw2dUBI+X6jqrJWyy0KmToYU3guWanAvVlB5sJuxNbPkCda
Wa77zEQioBWGB1PNkW+akhH3hDnJ2ClaLUhCJRNR9srZ7Dn+3j52pldWHxv2R9FY
rS9mgYp8neUJUl4Z63jTkkW6ZQFF1nu+nUBxuChGbDvIzXKQ1WVMNmUF9djbEeUG
rfpeylZ3W3E119ZwK8z7IxbZcaXnqDtvq5XitxUBnEd34eN44a9I8BRI0rlUDlDh
TQ2ZSqqUFj7rej1wosV9AVg2nVtfbMO6Irgb7QC4kVw9BFgp9LdgKj/uk8n8Eu1Q
ZpRki6lV4S5M4hc+komz+DT9Y2RGzJwMiBc17ZZEZHX/yW8jtopS9x238YQ8Eo4n
ZgIeqtiq3SyLcwtp1VJMijyVzCdpjcorCeSLwzL/WebYHOLk8IslMFaxWr/CdYBU
FIyDB8MWzZlJ6DaI679Y0Lv+LSb501sbcKQs7zxv6m4nNfIid1SEoofSG/9OU0Nr
Uqv2wc7fd4Vig+588j2Kd551ABogee8bnOU1WYGfps+BMg9zRmjzenbrwSLBQ4BW
JkW23RQOPa/l95dU5D9HbvC+we37My9iNh/WSdQtg6W36dyvEgZYJYTQ8GK2Z0uV
Ai5TsqNBYhI61R8tubZmLJeaYZzF0KPOS7uh7rt/bJM74bgzBGqIqsgWCSsGAQQB
2kcPAQEHQLtUD2VXkMDaZDyiDnqAA/LCpDFLLeAsYEAgMSCQmNBZiQI8BBgBCAAm
FiEEG9nKrXNcTDpGDfzKTd4Q9wD/g1oFAmqIqsgCGyAFCRGa/WgACgkQTd4Q9wD/
g1rV1Q//Z2Z+bBkT3vgM8D4X07nCovBD/uBrFfk4/z725fKZnKrOzzzrl3YUJ4bl
7FYbYHUYiBzBMD7FN61Wx8ti1fDaoaOdQ1xo/rZxM0EfjkiZaEghfzHZ5o79GIK/
I1wR86sddBuY3JXBMis53IQedZACxc6CYgSncYLKJPM1/OpHdR9+IT6ZMDCpqPpZ
Qn56cDasYJZyByIs6fnmem0/yK/4fCun/lyUh72MUkCk4nMRpTjHFKZzSAwaTXLl
2s6M9nFiyZJNvFWL/cP3dtFXgXji5OqPUqXLaKTE5V4bfDeJa6fVoLQeoWRd09JU
beKWUbL7KsDWYi76mpJYPwGHwxO8KI4JQI70dj9U4d8WoxnOfW8ue04YYdDEcYow
cj6w7TcyyN0zWu/eKi3+wRdOT0qk4yirLnTHM4XKWzblJbJIdBVC1y9mjSFvS6j2
iH+LYk2MKp2pVn/btIIqU9f0346hvspvWbDxC1YXa2BNLEJEtbXee1ZZm3vk31wF
lWnX3K3kkdGgPgus0VPzagl6tQrVqkbe62aDO8WpmM/o2ONkOiWCvFHRUIkBODfG
el0B8hcFwFe8UbSYB+Uz6T4hNEpHvOcwQrJegUtmO8dk4yPqglctLNu/pvXkZKYo
DSuTnZsRCdmHnWousFbLiTyOht9bKiFLIodn5ec43ini04CepgW4MwRqiKvaFgkr
BgEEAdpHDwEBB0DscdIrs0S4h8Sq0c3WEgXwfIeXSmpQwk/4Aqh43IKybokCPAQY
AQgAJhYhBBvZyq1zXEw6Rg38yk3eEPcA/4NaBQJqiKvaAhsgBQkRmvxWAAoJEE3e
EPcA/4Nak/0P/17dVYL+KZ6+ium9JGT/Yk3o9Kf1UviU0fPBK3/Au3BCvudteyjs
+zvM4sF1FcOa4Ojkrot0zAYJ77SOpJ7DH9R0+eqg8z9oB0MO+sHlqNLie2CKtOTw
CSGfMeZWRub/D3XoILv1s4j7r6qhPyB92hrnHMWOaawrFNl/dRAN/e1bggX9h0hW
YrTRK7fHvFo5uEVyjuBvrs+hzIE6NUmtQXZL7oMs2AiJZCR1MyF5faMTNR6klXb1
nQlh5KyyWS9c6qiClatmX6AtoDhLV+XxwHvaqU6X9nmxuYzUmEJUqMEIM6yrbau0
aKIrYPgHAZPSqLkwcFp9HKA3ECZshxtqzFWPJLeATBIz1PqlZgo9Saw8mHU85w3s
zEuW3LQaraKIo+i83k0z7pLqnOk2EVFlimxJ7yfFIszKc/InkhQYEa1CnypC3gRy
Z/JL21grc559ENEtGcdrmOS19LzraF1IuA2ejZ78ch8WLiWT8QJUu3M5a03t0kuE
d5yT6/I9OgN0nKmCOcal5/FVz5oIspkkiooadby8EvHYtMwQDDy7h7i1SIGnWjD+
M4a8yepIURP1mt9nhXkiniIaGFFzbepX++5Tvx84im2+RrmioBMGGnPiUfZY0YeE
kuR7+4bJ/rDvLVBmimlNbDkxt2PW0KuTWSGsGWGqu6YIMTl1/VkA218z
=6yVJ
-----END PGP PUBLIC KEY BLOCK-----
