pub   rsa4096 2012-10-08 [SC] [expires: 2022-04-05]
      35128EA05ECD85D3C6A6C727573834890C4312B8
uid                      Inki Dae (office) <inki.dae@samsung.com>
uid                      Inki Dae (Personal) <daeinki@gmail.com>
uid                      Inki Dae (Personal) <daeinki@kernel.org>
sub   rsa4096 2012-10-08 [E] [expires: 2022-04-05]
      340143FC7A8217D3B18758729085E3844001E544

-----BEGIN PGP PUBLIC KEY BLOCK-----

mQINBFByVSABEAC3YtraHYqLMBl7qG48vfX9K69OTp7aPpoThy1kzkYc89r+dFHY
oJF/hJqzyVGeKgxaIlkpV2NTPeXvITZwDePfNlt4rrTgUtil22dFa6R6rX8UmUXp
2gYBKuOND/FZFMsggsX34MGnbEvy+msQecgcdFWi+cEwdF5WYnun6i0kpIimcJnI
3Kpwkp0iDxdYXmAMccsOxF4OBfuusP6tONraEHQ+RtIB6NoyLJe4NjwPcylukYwp
D2Wnbm2/4A+21n/agJF2GvjkcQZ9Sv2S6dApL8SWmvveA7hB5LPz7N51R5WcQVpv
Swi01HptnSk35+cvkjHnRbmpZofQ5L4jxpMInEASFbNhQ68E1S2RkTcFcvXvyf/m
VBQbBipMc/yVqpgQH2GfS/W5Nr0e6uaH5hNHscUHLiMFActP6CymedMU6il/Zv1o
1T4FIuMLMIT8ceM1FMGOMv+k2+2UCELhwMZXcww4VzglrfqLzzB3+sDMl0P9elb0
YcIkw8JcpsfBDXVkejXtClT4Euqbx0AW7Uqi890NtBLDzrvYly56RI8YOP+IYpFe
kkeiG/Xxiumu55BaY95BJ+EsPyHN0fcrfjO5f+p+aPz+KNJXyUY1JqMoB1Xg/swH
PIqNBTa/WOeAXQ3NhseReBpvTAJSj2qW7v8Ff/kyW2wS7RqFnEjk1HJJkwARAQAB
tCdJbmtpIERhZSAoUGVyc29uYWwpIDxkYWVpbmtpQGdtYWlsLmNvbT6JAhwEEAEC
AAYFAlVLZtUACgkQG5NDfTtBYputBQ/9GqDRht05Sv4XL2N4/sYr3l9ZTmEsNVy4
RGGYblYJ1XDEuSwhLaCmY7Zl0VV+NQtUAINmSYGp9CUBRckYBqkpRfadyqzRKaRP
OgavARetO8VzrRe7kRZ+9ld0kPhgI10GJZZ/iyLirLAJIxPnWQXE2KgpIPBg+7sx
3zURM4Tqzuq5H+teZh8jDOWfJUD+v+CkP/y8Dd1ZX6ywUpg6Ci6hY9pvvpzmZY/S
WqN6zXfKJDkt+0Y10r7CRwCSpDLyietPeNEvi4/qpaW9m8fj+TqSpqxUpeM/fkDM
cv12lEBbRSyKQuPcdcVhF7rd9s4YRmVJztW68RcgP3uHqNwe7huSqTm24fJGWD49
WijHQtM4toMl9BhzzE6vpGQdu/cGrtuGPh5dw8ExKU+ZQ/HgN6EnLZGio1bSX9L+
sR0oaWOJbDVYkeydzLh6U2cVX2ODNNrcR27YK2SFVrOejFf1lYKpU1neGsEjYekY
eQN85i1PPnWiIyRaqG3jDsFTg0QNHhv3rq+wR8gu9k1ot2TMvm2iHqe32zXDI8Vg
+9fkFcfbSuJ4csi0PqeYHU2GFNUc/2TMRSEH8fhbqDZBF0RlVIm/cxh9MtP4sUQ0
AOGUj9MXcnYzr7/7R/WrzUUEMA8tZsi0ZfIMFRrCYcOuNh9uCIXLLV9EI3DWUA+/
1oVbjPLwyKaJAj4EEwECACgCGwMGCwkIBwMCBhUIAgkKCwQWAgMBAh4BAheABQJY
5c4QBQkR2XprAAoJEFc4NIkMQxK4UCsP/iQJmgGxEIO8A3YwAL7sfv5D5zgYmhFJ
Il2zhyI4A5fpAnyUyB7YQwc6Sx5J03IQx4yLxUyqNzaTYDQmkingSHcKWV9Q3TkG
Bp6XAx/yPlKNaMSNDsIRNjlXq+sbQCa/2RRriHEaRsVnxQT69ZyecwCfr8xlEWla
iOI80xxOniqHy1rW3duRjBGTNeLj44SpVxABAvL1jKOWZEMyBCUssqqgUl4z0QfL
Q7ovDg2VQSzb9zePt4Y75WP84LhX9T92CqEsOmNYveQWnRVHxyffDa2Thn8EVe40
8J7MfeeqypPahPE1ztCSb++9Fpy+nwkexN5A6FDbOFvJA7mMtuNiqOHUdtmXQnYU
Q5rzFFVf9Fwyh1sznkHitODsbxVGdgLXUbk9P8fj6ccM4/WboPBAAM2NnnT4odrM
QVzZ8cwJV7CONFfpu2yrvYT/tBwBlEXyjF1PsjEKVV/1bL3/WYVfX7koYyTwVYNa
nAQeTKUjl/iZpqoprOGdCoBO841SIclfH9MLgnA52x6BIWEGa+sArg5zqch+IkrO
7BY8w7sTnOUfIr3xSxUWwj93rviG0FZId70HHLudL2nSUWySaIamFgEzideoHj2W
0JF4xeiKUMzgs/tTqjbOnb0fbUrqiYfN/i00P0RZOBvGAff2w6QUevBlwStc31NX
k5PYillY7PrEtChJbmtpIERhZSAoUGVyc29uYWwpIDxkYWVpbmtpQGtlcm5lbC5v
cmc+iQI+BBMBAgAoAhsDBgsJCAcDAgYVCAIJCgsEFgIDAQIeAQIXgAUCWOXOEAUJ
Edl6awAKCRBXODSJDEMSuNCyD/9rh4ESEOVKUwz0XKRrVE4aV/r0B7LzgZVCcyDO
PzVJnmrK8Y2xUZbaciEM+r5cwKwA3Mh8WXf47AF4GS5tKu35Q7Rxw2iuhnHpwexe
2lHLeR756lBdnA+3zYnpNZ1KrXFuF+I6n/Ywuc7hV0SxLJp4bkxdcSiDN3mNPWms
YSjqm8tG1s0rb7UUT/ea8b89SJ+/QvbpilXh5DaHaTw2xbDxXixqwDPlDAN0VrcY
TXK5ucjYi317k+rI3SEM3Vg8CcRTNYK6cqYQ7VpLd0YABDFw5H/KgacVHj4WNehT
80smXRRz020W2f7+tdS3EOGzm8Zf3KhdKOJ3veaFlT9LEURNf1p8oSQXVdcnr64/
6aCWPz5dcXYMVRQFCVHaaOSt+NT7ijn+TLflypPqET9SHb2iKVRkRgFQ65Js8k4m
XsIwBkm8phFvgayACp4azNIBpS1CiHKTBcGa6F94CkQDuYUs8y08XtqEdsfo1Vbd
8YCkHjefWZGXo4fVefHqByvosjZRtJJzl3OuWG08QBpEr8QXgjOl/NLA6bP62Hox
LyLLxfEhQ98ynvozLUtV0+FZIeuZfJJdTZNKMMTIStLRS+pHEEhrI8BW/xgVMl2q
+F2AxuBVOPV1GqkhZEY6T9XcMlfxlu3sf05V155DbAMxua7iK2ZDRiLUY1JxCeu9
P2gbsbQoSW5raSBEYWUgKG9mZmljZSkgPGlua2kuZGFlQHNhbXN1bmcuY29tPokC
HAQQAQIABgUCUHUDIQAKCRATobq71gaAinJrD/9B6nYtw6aBju7IXMqxP8SkcoJq
TQlEQ17ZFBZBDRB11CI9MY3dJXxn+KwricfGvCAMYH4SlPoT6vd3BiNUPKmfIINE
Xbm7nNoGAmi+3esMeo+DU7FyfCFwCx8iX58ToSKG1WL8MY/uuMsVsR6KCE1UByAs
wj5gZzC29P77v3+jCUXXZdGUD5mIfcXi+u7/7PzgfsUH8ZjbmRDf7wLNn1E6S9cQ
XQPCsrkLNTu5CXt/Ba+ZSsb9x9UDfC+2xF0XTPWOg5HkHc3S+NSnBss2EYl1Qkgx
e3fl1rPTsRqp8DE16Um7VzC+acLMW8TJhyX2r+9lq0rHuLok+/H8uZXOiuR/5Ypz
iQCwqePACwzuj9QJlJk0DL51MsfYKlWBmfMESC+AcpEbgOtUxcnh7I/12ShX+oLI
58Lf9IyaoLYgR6xNxrUwXUM+lUQCmvcQOalH/n7Bf9M2JXOfnI1ZiYrhlOCjls34
Std2FxvxsFKpOUYl0ytWjzaboWhiMaTO4jw6ARvr5erS/I82o1Rs+Lz1YR5CvI7Y
U9yWkjYiF+82hldY9QakmCMdfc94E1NwJ5GFKHqiNHZDI5ScSeQqj8lDinBcRf+X
s4FPWvTvsYcNsH/pDebwfKGEKEteZBglqdoGR7Et7nBL+9KUfcctAmj4qryMuS5T
hnOJwmK5ZbMaoN199okCHAQQAQIABgUCVUtm1QAKCRAbk0N9O0Fim+T5EACIwZUm
CF+aCGMTy2X1nyXynebC/IxGe/y5aeG7/eYwOjVBfjcO6EoXFL64ZSp4tIaFpYPo
4IlMkdouZ1D1F7DC4HrQIQdaZRKG/bnV7UKX2h6ntfXK+ZGDbvVrGa46XTCH6mah
71seWD52lH/pEv5djbHsO1+vYhQK5D0kNDW+JiTm6MpEVhlWYMMzfaQmL5dcvMcT
wundynVHzmDXHbWscM9zLhGFTLlVkFKqpt4P2T+CUXeTuMOrbv7cl+hJeWFthP61
CMppQbHTUBNA9/oszDM6hV0JlXyJ4zCp6BgF0iHNh7toyfw3ujlkA/gys4wb+rvP
jfqqzR8PKciVCNdNGdqG0T6sxEVOFMalT9DE7H9ny0uuDFDCNtInap63D+PllYYS
xsX0jmUBGYWmVouLvAZiZQC8WWzfdXJulbHL06s3D0pNq35f763I3HEbIa1bXrd0
/YWxpXamVRIJjQJZvP5xMzXHdPzvvepnzZE+obalOLQcE7tNGPMoEFxVMfdGLHLU
s+9ydUbb7Zbl2lGxnWbSGeb68pyCVmbRxKqC5mhVtQ+cHrW2oR0pic1oY3v1xXPb
fu2aWQpsuISSLqp5O4OmV+w/zVGK2zy2XO2vEVknxf1PXT0F5vVXZXEOyhc34iVy
+qF9jOMzAisWBCC2adH9aqTFTJEZC4h23CGgnIkCPgQTAQIAKAIbAwYLCQgHAwIG
FQgCCQoLBBYCAwECHgECF4AFAljlzhAFCRHZemsACgkQVzg0iQxDErjxog/+Oisa
Kn2wVKVJpUg7jdD/QoqmbrNqMRBc/o4P7UJhahLX4WkLgmgUu7p26s3R2T40OC4k
0+elJcsHRQ0L9wWEMEe3KsNxk+7lixe/eOlkSQ9vK0aLoAcYSbi7d7gZN1Pxedw6
Ftdz7ciqEGvvw+Xt2tamsEyQCF26tr7fr0CFchGAxHOWPX9Uh39+puvkCFG0tdDP
HF//8pJtUHCaDVceictj04OrV2VIfUrdK4FcutbuoKCfc9UHx7YRRQ2MoB04OCJ3
cKftzXtjHZsfMj4iMvn5D2ae1JrIDv18rTUAKnDRXBwXb6iRCy2KEZBXiiAPjIoj
jlY2lcbreFHs2DqAnbJ7SqOExsZgif3dmadm+8V4JlMADjETVqRr/pTSgVoLH8MR
zpHmmg8JTsbxg3emMk3TOlqha+KBMxYjgcIpakuqKQcBu1OHzZi+CxenXO66Y1Oc
Z5wrVvlhHHcA30+0WuMZ5YczWaBfAfx8GiDKy/7GnfibXJzKPJN3bs5S1/O66YOT
f478y/74U1S26ZraXmuaQU3RHnuDu7VT5FTwPKkNq5eHR5VGPfY7z4re4diDjYGf
QFwdJIl0ADgTywzNpiTOFlgIAEDzCK3A/7XMsxzIv0SI1gz5ons7SBkhv253I9AX
IOTF35c7AnodzFyOtMAUHcI5QTUU8BNr2tu/05+5Ag0EUHJVIAEQAOSdSH8WDbUg
798WqAGlQO3nmbn3Dl1XWMQWDcWbMoztMS7byLeFBPV5NuLbHKrecnz1Ywm//ohy
RVvKWkpOJJixJPHW7yvetju99HebzodF1H+8J1X7ZmsllE7MgjhgpSK3+vf6nMju
iT7THx8yMXQO5UiDBQVbjXdvxkTc65lcv3zaEn600sB6Hlveyl6/IRQBZ7h4ho44
xfPF9MpqhNsYXzGQKf/hTOzRPzGdYyKjbBumsFLWEec+JJiqNbZfK7B2NSe/qyQK
DaOyETqYw021NZPDvLyFyCNqQS1ThvcOSlLX3H/bs5xoYuV4r7Xp4yTxjJOuQHi8
frxCXRLWyKoteRMFCKM5NQeFVOct5vFoToXgvQ4fxUiEHBdC3nL5t7uowBthy4Ab
2hu4OxMSTsvPEEq2nBrLr+Bfba6yzLgKWgekZMmno4PRuPg2y91CdSfDjEBdlljz
yLlsECqqcHEme1iTzVSIWPPAynOqkfNGQpY9y2ReaU2IyVr2TAsrktgPoqVT8+rb
q8AsbTfAN36skwVxZfo/9K8CYEaoQsv8QHBlpZ6lnRjgaJB8d38poX+5WHGhTtV1
2LnTuox+U1qO8mBXpzihrR19NVjWk0AkHjOJLkq2eDJVZc6OS0TmMFeTi5/K9HLq
Nv9ZTX2vlmvCtV9LnOjX1Jv+RS+nO6J1ABEBAAGJAiUEGAECAA8CGwwFAljlziIF
CRHZen4ACgkQVzg0iQxDErg+ixAAp98bFqH5FayXmBGTU3zQr/AIkdAkrvy50H6u
kXg1VQHHW6ArO4wwpjCM3ySQt3cuieToD7EdKtgpFvAJClJodPw4bFtf8T0WZiKp
nVZdJkFV8ZsnxkbwSXZfTUsv8Z3lIhB/7eQmUaVJON1QYgh10pLKyMSfrvzOeipX
vXb1ScNUJi+mOtx47GTg9/7Lr1IUCbxdpr7Wq2fTJ1lI1sAj1w6O/r5zpiAtCeNa
/E5es3zNKi5LHt+akxPc6QpDnlKyX/UKhmIML7DbzokBPFMT8TnmMyQ7iI8j8c33
MhGaD7fMVEK03Lz9ldJKknCL1/OSjxfsClSoGOV0Hq5Se/n31u1RH2/iekyfKXg2
I+eCL6NpQXjzu+JDxLgDbTSpPeKhGGP/Rbskg3NFN25UQHPJNIihcaxzIScWvLfy
p79esbEAGWp+XZzkTmv4dkkQgM02g9MDj64RlafSNCVrmqOM2Ityr7jJUyRNSQ/7
IXgL60m9MApka8PgWbNIQbuDrUDaYX3g2cgXrdhdsaY+wLuJF5ABivSs3rKD9juz
hTVD6OXNmJRnpa8OBQSy/rWqQFWj6cXSggYKCzaZ+Ksb+S7qbnPG6UC+Fvkpbv83
leFPrJlPDnbMgy4GyzCBL5i1ycndpg9h9eBvgPFqOyeWAfmpafzy1BCyaPoxlglY
CATc7iQ=
=7WoP
-----END PGP PUBLIC KEY BLOCK-----
