pub   rsa4096 2020-10-29 [SC]
      F1F8E46D30F0F6C4A45FF4465895FAAC338C6E77
uid                      Joel Granados <j.granados@samsung.com>
uid                      Joel Granados (Master Key) <joel.granados@joelgranados.com>
uid                      Joel Granados (Samsung Key) <j.granados@samsung.com>
sub   rsa4096 2020-10-29 [E]
      2217444BBBE2A032B7A89547F453AD8E69022B00
sub   rsa3072 2020-10-29 [SEA] [expires: 2027-03-22]
      AE47095725E63125CECB2790BA97CD52B796414F
sub   rsa4096 2020-11-06 [A] [expires: 2027-03-22]
      0E81B177263D4031E4744DA662B669D05E153901
sub   rsa4096 2020-11-06 [S] [expires: 2024-11-05]
      5738F39D590536BFC54CD0F8CF756396B98DDF71

-----BEGIN PGP PUBLIC KEY BLOCK-----

mQINBF+bPvwBEADIetsHFdFFAccoZ9AsOG4UBq1fwOW7/PFZBZTEn3V3cwjNV/A2
63qyzCznw4d0Vovp6WEqpYYptH6TFI7HkOxA2odmht1K/6SbQq9m8hc1DBh8Vd9e
TQQwSdQDqgW3VBUMla31aVJiJH41K+RcKzuahK+GikU0bQuaElkWLKKBBtxIyzzC
gdELm4WhP7njYYhSLpux3VyCMxoS9Xg6lo72ymmmZ8XixqCzGgDf+iyBtzhSS2mV
PTDKYVe3bq/GA2llGUONy1Hk5SOQk2UoJSKK9yl2Kt/53zC1bWeKhnq0HklgVQll
/K8iZQh5lOb4M556QgWZBGdByucxR9emmlsYbSU4ODDIt1XYXoAVGSMduPn8Ct5M
q1qkymfvZ3sKhU9fwbpm6GrXXuUloick+BhpR2GcSrH3cQ4Lh4JzfVg7sB92lasI
2BIqjxpWGW1bvArboU1rnWFLiMW6cVRWxxOFji5F6eAhPbEein+XY1vduKuRFjIP
JKzT7lPD8JaLdRDh3lqkeXyDn5eeXCVYHWJMXb9eP8XP0azNBAcjbzkQDCR8jpjM
dDEAQaITBY0bSt14pn79g8gCl4RngZ/tSY3vhYpWH/QV8TdWYPLO+Zjn6AkskYx3
j173ul6nXygl/vu2YD+6vuoxyRcdDCW+rnVR/bFriK2MpkdF3N0Mr9M4fQARAQAB
tDtKb2VsIEdyYW5hZG9zIChNYXN0ZXIgS2V5KSA8am9lbC5ncmFuYWRvc0Bqb2Vs
Z3JhbmFkb3MuY29tPokCTgQTAQoAOBYhBPH45G0w8PbEpF/0RliV+qwzjG53BQJf
mz78AhsDBQsJCAcCBhUKCQgLAgQWAgMBAh4BAheAAAoJEFiV+qwzjG53K9kP/jfv
apt7Goy2xyb7UEdN/QB1Mw1+bv4HEoD5cCN5aqkn3F9wVhDbhLOtEe48Y7nC4Vg6
6galixa8oy3/n2Drs38cRLr7tKykf9AfE/2JRmn+dV01gkDlZx/uPUQfJltWjd4i
eblCZ0Nf89wHq7VcThYnYgvAkrcVC8Mg7CQnwmjdqnRTZwF/rCQMrohMpuolJLKL
JBReKFAbga+fWYJRP/WKmpFqsigMHwOqYx3mfKpG5R522GyJ1N/UV9Wg83TnUWw2
ip8uNL/7HVN45e2b9SHYhYuwCv4WkW4avJbVrRP9qUV7fsA/CuWOBp09cn/hLfSo
XGNPMeZHGDxW+hs4oTtT8RK4mztsTVYqcwIvnR/dvIMi42jm6/MzybNrJESNyT2W
Dd9mk13H2K/z3aJja36bmfNOTr5eg+gz/8C2kK7hD2ZxXKfEcrgFY9hDg4oWYbBv
a0OBKYa2d2VrNmLltAby8pqYhHax6rUzpmdbWs367OSvTWXgLdAwEJppgYuRdVhD
2t9tEkqv8DSP95zqD1TjhtWnX6akF4sDJZ6SXPM8DKAEA7Kb/NoWqhJgC5PPvd0H
VPxH8Dy/NivY+kTznDLJoFM75RYkCiPNrMqt5azSY9YVnNzrJ7aTdwVzUl94+JRe
L/ffk9GocYIXDXmZJ/PlcFyRczR7yO6I25ltItKPiQIzBBABCgAdFiEE5AU/jQ58
S5oKIKsn3FUyUPj+dAcFAmVyZkMACgkQ3FUyUPj+dAeotw/+LvZSYcYRx3PwZBaW
MfzdlbBg/LkL1IvFWmeeThCYjo5r4ZUvfLXQmI0SDgXiQnamUEa+rzmV0KV8qUy4
mCgHSwi21MEyrcAw4YhUF0KSl1Gkm9aQH3osfjWEnsU4Q9a65TxuXJbXIOjFr84G
nDMMUHFe4dJEFITmh9S9GCGQD5wUVAvnjGRf9SY3tNuKyGsn5Bbsk7dYube2au7Y
uMKvftMSIUYSHTjiX7iN3vYdoD4yjDLVwoWmRmnpu4xlcR1JSp/WSbefAC1ym3Ue
Iz1SBUjMxGaMGpcsY6L6+yZzCnMlHedUplP5+D3Gzcv0uF2SuGS6BHzaiq6pLQlh
sT/vJfGDid6LCxe5nT+jEwUAB6YYbvD9aNxRg27o4jsYklAShAMcG2Gy2f5viDBO
wTH+s2dTfdbbeEGh0NR+wU0D9dpL1RNtGT6JLIzeHMHOk/FRJzUhXLWxCZuL15Mo
eeX9+pvubi3pHVHa2s/gCkZ1uMSJ8KvK8CfWtQJwO0IQVt4oCqEaLj97gjaC2JnL
4ALMVrCqa3QcU+lVUFRklpzeFwAhpSl3/06NZS4Eydy4dVsRKt8egJBVMF+RJoX5
xJgi5TstSLoYX88n6WQffQvu/jJTRgXKxyUhIBPxi7LhjT6dHeoM9s0oRnt5kEem
LlUsqDHhMjtTBuf8d87pcmLScIqJAjMEEAEIAB0WIQR18WbEg9K/Rs2i4HxdPGzH
asr6AgUCZZNyEQAKCRBdPGzHasr6AgN2EACDuBHcZr7/Fh5WQJE4eP3gIf61sSSv
POnWYayoFgiPoaCgI3WSo6IiK5o2IdVw8SH7JC62HMWzjm5EmqRFt6zbQxuhuWgJ
fwkRKYZPHJTjlb4yjDvBvk1hjqNaq5H+gOuKTtli/0QltkuJYayog+GeMyXubrON
ER8cTsya5Yc6xOKT3h6/YiJ9GHFxZA2xlPsY3DuT2BaZGs5FTXSwEqiI/0Z9uM1x
718XUXzyAZqcSwnYKgkLR/TXDp0BOxftfMnrFSJPHOKu+JM9dxMxrFjEXjmF+GC0
Dx2oujkg3RvlS6GqTZeEIsRAQRIB1bXlRXb2NhL9xIDlzVPdx9bffLm7dEpD+w9Z
eVu8cjQDeQvFo7LAl8XY3dwGxlMysV7AWoH68w3RkdHa21WGrB+wCrxAGDcBqz5c
BNPl/CjDkUqn2gV8ffenEv5gLB9Bay9HjtxRgQEbV99HxC64wrc2DlF+OCwilO1y
RUJIsB5McVfYlf2iZe58Xby8uDbzuvFb7/rPWdLcqdlr/uNRiifes5pE99XUceer
NoUU5wgeHUlGd28jJG2AG9QVHiUtiVtx49nZraBwkSzRmLkhmche5MC8e8JO8zTH
RbRoZ6Ap8Z/ZNhHN3nGA3UWBtqQ1Y68v6ckq2Qa88NgR405hmn/6cskvCB1kUU/H
u3m1vuSmOlxza7QmSm9lbCBHcmFuYWRvcyA8ai5ncmFuYWRvc0BzYW1zdW5nLmNv
bT6JAk4EEwEKADgWIQTx+ORtMPD2xKRf9EZYlfqsM4xudwUCZMj00AIbAwULCQgH
AgYVCgkICwIEFgIDAQIeAQIXgAAKCRBYlfqsM4xud+6ID/9zE1/WEGuInVoEj/gX
OYywzZSjmxZHetaVQ5ySoNuSHs8qgWIX0MJldjRr/VePtP3Ui2x/E2jb98N6CEXf
o/bnvlrP16ipayqfqjcVjgZKIXgiKkFMZ/YK2GlUA4OY8FxWIeJ8s3cgY8M7k6t4
xWxA/e4g+TGpCv5I2ue5bvqCUhqUqbe8QmXRH2Kq6imPCngENrMCLpTYZmNHKg3t
etYoFe94/z/rcaVBsYrOqvgtevF0021KDJlm03G61FDC1IcXiuBJ84O4ACtQP0lc
AzE1+gnr/RA5xxIRps6JaAiP47NRi/kKrhqu8BHFEosHcXonqqymYh2YJbh80v+5
ksoigabeoc0tLphpOFUiQIFo4VHg33MYiB3vqbN21YsA1YSJYuPoY0LK+3Tr6MK0
o8g3cvSet0mw6nPZqVSQGL/xoTtlxfcdIrB2GzwbmRQh6WeXbLo3K+79HLQxlOaF
ETAJ3n6xZzsg/8l0AQop1bBYE8uzGUdH6pVyuHsX0tTdsZ6a0KvWeqr3mdc+G3pX
P74ahF/pyrWOjoyXFzWK3N9qttkA6K2A/SenaFuK9PXzf4M/uyx+I497L/NfOiGB
mvqQ4L2ymxry51ZnjGLAlLZN3cg9qGwszxFZ0tZ2gmq1rYLPznuLvWKOoJbPjKTL
jeDvZUE+wuCqM2ItWXE82SbnwYkCMwQQAQoAHRYhBOQFP40OfEuaCiCrJ9xVMlD4
/nQHBQJlcmZBAAoJENxVMlD4/nQHnH0P/A6foMQDwWGxcypCskCadu6jDir+GWAM
E5J4vyJKk/vuEC84JBy2FiUDF2z9T0k6wlUwTToL9HatKDlMfJWN2FY+qTYntcLa
sNX/iVpaGZ2alyjzBMtLYMbPMFXMdwXctti/2E446zo6UtIgVBLUZhIT/PhSC06R
glbiW8DHA0X9dsxP2TTiAzTs0w/lPNfN9A5l3Hx0ssgDJmCa9P+8ct25HHCkRl+m
mUNyAxW3IS4kv2SNPrSPFsxm0R1tlo695r4AnlWQ23kDSS3gsW9rYUk1X4+pbuDm
YQiuYQBt0VndoYammgJIxSUF8PP9c394s08X/u7EMeUYKUMh+2ArBCLVFw14NuaZ
Za/iP/4bmikiX5KXP73phMBBX2TyvbFM0Pm3LuX7z9tfVlz7p2c+Nc6+E0spx9H1
UCK4cZWtj04N6lzXXnfBqqrldJncEfJFnt+xgXEQ2zrRoWgk1koHmTWVKndpnsrX
/tCBogdgRhxoTMjaDJfrmR7dJzrTEPFIBYOO2mMkjQzjtT7AKO0B2qexXHJNcy/P
3xnQ8AlwfDKZGx6fGfh5w6lrmBR0i/UcGgblY4VUuN6mPVD+i3Zll2rhNwNI+Glu
DFYVJaGUU8cpUWrpbcxb6lIr81fxS7MQtKgwqHb7GUoOaSi/t5mowPRngNf6C2z5
kVDOfcurbg1EiQIzBBABCAAdFiEEdfFmxIPSv0bNouB8XTxsx2rK+gIFAmWTcgoA
CgkQXTxsx2rK+gJnMg//Wfle9+aRnseP9cHZzYb1gWgbbtt8MhJRf4C5x6tFAyg/
ggE4jp8DImbWj4t4iIk4/d8ylx9TCZgs700a2l2zi/3snq+x48+GdqTlIVaWOzyF
WjaFta0nr4PmQf8A1rYW+Ts15YcxbwOut5XBla/8eO/KBprqS15BhyZRqsYwmS6t
/3s+odBXjqOQNLG58ROmVIDL7P8sITUeHkILBQ3fMoagDPzLen9dNnOSvIYicEuX
OrUK0nm9eYiUPFqnrBt0D+l35AGX3hOQIR/Lr2vgeA6WpV1VcngiPoBOeGYJWX22
FdBR7gXevutgLlroxIdeXgUY5nwCgDilGZQKFkCZgd6XMQkMpmS69jIv7EGKX5FN
i9EgypfNogZ/CwluPCFxRttCrfQnDiLPftDVwscINiAkuDtnWwQUSKslrnMcT9wj
Kx15OHkVDKEE7FqhiLtIZWwSDfcxpwZQoNzgIJqvJd4qhbH989/vrJYLfvxDbCWW
BW0gRA+h3BtEJPAoa/Isq/gPV7nVQg9ENCooz0FBWC+kaByJLWBqw7HPMqWFhQ6L
NyfhgOE+VHF3ikYFZht+f+KuIE97ukjW0wcdOke6/+fsErbBfcHfw089UHuyOc+g
42kd39Pqd6i5Pu9Iconut28jYJZ9eJDD8IO9HsGQK6fN8cK8GeEtkQCWxfVLaVu0
NEpvZWwgR3JhbmFkb3MgKFNhbXN1bmcgS2V5KSA8ai5ncmFuYWRvc0BzYW1zdW5n
LmNvbT6JAk4EEwEKADgWIQTx+ORtMPD2xKRf9EZYlfqsM4xudwUCX5tDngIbAwUL
CQgHAgYVCgkICwIEFgIDAQIeAQIXgAAKCRBYlfqsM4xudxZFD/0W23oH3FK7fWpS
apLEfqT2d6mAFU5L8XcJH/B9u0v3EWibG1usSbNNZISkZBFG/zPQgzUHP3oDxzSl
y/KDXmCx4HnrXK449DB5mfeEbpRowmOIXCSAjnGisOwNe2AMLL4MUfx68Eo0lPun
UkJaZu+bG6laytjiP7Z1SOilIZw7YA7MYFbBweg676kJNlRXNEhIMrK0WO2Vtq5o
kYb5nSzYeXDgAOmjLFx1KIcrKnAuNI4HyliSa3mGj8nDE0nVPgHekW7WF+ttPW8c
Dez7AwqYLK53ueK1zOu1HWpohdaX5252NL6HMw80OMMlNOSMO8lj0hPA1RaeXmdd
WrKRBY+/c5EIFcT5UAXs4+npUwJ7KoDxhrrDXTTDWYoh2JKtIEsCfy4p5uZBEfQc
YJXr3PthISaegQGCzzaNPOYhhJVuzpNtkz0R6e6N5o6FdxhQKRiNCv61Xn3fJMu8
2CuvN0DLiUuNA4fCzSA8EvrZFssbGrBwaCfDo7dEfUsaXOpa4zg7rApY9ewSOJ6Q
yCV7eemD/z5sop0lzqOwGRQ0pjnsNiSGRXxThMsGH4X9/E3GKoQB5fFkv9WdVLbw
zXSsLIx1QTvM8iCi9CrQ/41rwClawWKbMiVZAWaXENCfuh+OPX2nTtmS5WfpS+Da
s/Zhtpb44MF62QM1SHzBORAfiiDW8rkCDQRfmz78ARAAwXcldyu7CAjdq0Y2/roD
HnCPT/u1g+4CM9EAPqezTMGgJNozx83b6DImBAolCmPbR3M64EC5eca9YG9xKvUP
TPQepD2UZNtiVnmWobAmG80eyOSSQDwteq6ru4DRKIbuo1plh546wTKPrFKYPsDT
tAMIn3vqBwe0A2fS72yPJ8bLI6ae8uqepz1C/TZ2byaG4g2q4lT8ol8skhnjIMvs
Vrzftb0SP0qvHGPdCnjE7IvebXS2q36Danhi0C/H5cDxSlXLHdgHsYA0/l8iHKas
pJ98+3Hm/8/nOlbLAaSYfPS0CQD2gm+riBC1xbYNWSQVgVUBq8FdMSDmqZH3aWSP
LFVjwlcwKMYic6BiZ6G6SJX654CNf7SjaGDwnQHU5Aabf7y531yWcPmol0XFU5Sl
MBNu9cm5G8f2e3OZq/pBfgLoEcW59JRuYvUijrcSfa2IlKf2mXIRYAjM75xkhLIK
2DcWJOQpZy9WP7kA4kZGb8CdXT2DGwdRRjpvMBt5KIdOS+0/1Xo/QsGz0LnWeRMt
34Kg5TciNl/zIHgBn6LzEWoKn4qZZcq7rT3U0LZ0BzhL1nau+hVGuN8MW1HuGSEn
XmWflPqPtcl9sogQv5PuFZ9qJC1wCsnfxlxD6OERA5DrdN+k7FKkqxVqZTjVZAOE
kemCW4bm29M56vYrUwQ+oh8AEQEAAYkCNgQYAQoAIBYhBPH45G0w8PbEpF/0RliV
+qwzjG53BQJfmz78AhsMAAoJEFiV+qwzjG53BRgP/0LMrLuc6swxApMqBSpy2D5r
ryo2vmwkJUQSXRYbKeWa5ei82hbFAJemDrXqL7klhUS9GtH6/we3qBnlnuyrv2Uj
JyLVGezLYDsJ1DFtv0IADVgyNbvlDRoryB+Wqe2YgpWxg/Xa/NCcNNKsWgaxLCnE
1v1OLlWm9k2c06CFcP85bvyjzMQDqWLZcA/u75QAGjSYUBtzNHalzhJzaE4OWsp5
PNmLF9m6+TQ/OgaV3ideDeUiw8H4zrDOvJWfpxJp281ZG3XggsLatis1V75r86U5
nAc8x/xGSUZ5HXm7M+FvhMIVBICiII7eNVPaqtDAk5IuQKW9qslqDpVH3mjpP34j
a+qFXkHYVUvfIktrC54N6oPhEbO2kVukYGeJQuydvSZRVHxCpvfOvWzWXbPrgLY7
p9/Yu8g6QBg/HGTK0T2hZWJcFlWTfjbYXvrQN1FMMDTdebFP9G3D0donThvvZ+yy
yKF8vIdTZw5Cde6M2MH8FroUER5pwzougtOvewaCaxT4/bQuUeQNCWiPVzhgQHKh
gXljM8ZqMYYbcyrKjq5xi9tPMqc7dU56GjZm9LVebMJXK5hp6jcxBNo71Ohtkqns
0ViQwklba4RvIsN4/wkwZV6Y1ysTKrjz5FRMDTd0/Ir0aImqzFZ2AoA0bh+Ez9A7
bAJ6dCocmf2tBht3pyZEuQGNBF+bRgABDACaNwBb9gTDs9DMb48XF+tPTn1y/aX6
w/TNJt3JUot521p98/+RTK6mvgFUwbglBLAhF2P3H2vNsg1DF1864yU92kdNjRq2
201JrXmxyhKCpgFWRQllVMSFGzaEIOBVHoNQQnPziHwUCdgZ01t+yMyph0dElt9Z
4uquWILWLzpIYKvYdUVqk4/YUUcM3Gaq5GbB0tBjpr0Dv3vbreNzqx67AppJg6YB
5ZOtF5YDlz+sWtoflc6nm4rL2BLtcpVJ1RFL1yogxnw3E0Yia/WNkAnroxI3PaaS
hTLxJuJO+oicCw2Axd+lSgg+PG7gFLDm82CnEFmHVloimb0ZMaBuJJqOF3z39BZR
JUvbpYkKOC7bim008E9y0hWEEWvxG2TmgwBJSsdAHNSv6yNomDNJbCBYHyz/wmyd
vGe3cc9/tv2HsxL9lH1O/qbCYbFZVtcB+9eCg9ugUnjLIKAf9JnixaQAoRtXF2E4
cCP/bVH0ISzs5+Q5Y/BHvTyN66NoYKuQYmMAEQEAAYkD8gQYAQoAJgIbLhYhBPH4
5G0w8PbEpF/0RliV+qwzjG53BQJl/ZSBBQkMBekBAcDA9CAEGQEKAB0WIQSuRwlX
JeYxJc7LJ5C6l81St5ZBTwUCX5tGAAAKCRC6l81St5ZBT50nDACJC1/20XlhP+9z
SEpS15ofvs3D6Ttuolz2kgsZX/5SYkN9AKggb87TyOUC19X+1oKoVhCIk/C3xik4
H7dvir0U/vJGDIFQpr/8i6BEjhkEeWKaj6gwL/I4DnlOm699psYfrRFZCfczdfxJ
/NDcib8pp67zvhunVZnyro7jOylXwSTp0VHFCusXNgyn/6dUsr7/vRc6ItEV+4Tu
vHN6FcMmjaUPW93HMfUDRomTyzePCcUlTeyk4vMkhcP+JIknXRc1f6broOdShC2x
DicU+5gSE8bpAKvABVPXI7iMcSW+DKGKXpRPYaoymXg1QReR7LdXEtQr4IWDvDMf
ZDuyiBzMsEz9897tYJ+hc7WvikDYNUK5D1TQ7rAv1CisWPL6i9J6JYCe38Jt/FTs
EiBI2FEGFpmOianJQORZRkfDsZTy05gWuE+WyatkwBpmD1VTCQV1EONI/Bc3s7fR
3pj8ThidBW2v5hIWA3qZuEWsrfGwmZHLqBzWtuqd4NtOGJTSinIJEFiV+qwzjG53
dMgQALiV7pyxk0kVT6+fRGAF0sh0n67i3SeVYwFyd7ETGk1cvptPQCrx1M9jNcep
rAcrj1JhkzEBcYtTpaEZr9vjpWvSd/ne9VDqtLQCYJwq2OcnqS9H2oRDURathevq
mz/Q2cQG2lPyKiVg1c6vs9RQISZ4qiPZ2t1GUgkbT91KsWBk4/30rxbmbTVLs3ID
Y2tQG7l0ybIRw3jjMckszQChovr81PhLEqa1+Im1hoI2wA9OOWzpSt2WYCRPUFYk
/WkF/ni0FoQwwz3cYCwPIDMb+Qbv27hDG+uhYkyZ1L9v+tqY9kdZgsIr7FIlYnFj
KGkIOxi5QoCveCuRfjHw3clm1GsgnJCGhOlCYt7CDcvs2JWap3658fsSHqj9EYTj
uy+bJ82tpatTf+yX3Bg3X/mfI+Sd0MK7kOsrtiaC8lmTVJ32cfvVjrFI6A1/LyFB
/pEegJx43+xBizJgV6UqW9arFq3WJ2EawChQqVRelOadnoxh9ttliwBQCDRm5yvZ
6nMNhX4sndvrhc/JbNLg1OxBsTizVBG3vvqQ7aan8g1q1EdNLEFyWXoOMnIFlKRI
TIzEvkKaB4cBYFETXksDKJe69zImVGZebkiEWjBoCYcvylD0EsNMTruBV5O6gtx4
1S/3aXrBEnal7iYSX6gzmIWBqj76nIuZGhJSj0tdUZpFR4auuQINBF+ly5ABEADx
I559gg782KEPldKWvVWVl4iF+sBjfVI7oUWYmfVYQNAW4YBZqAT9zrvvl4GnFbMp
E2bHRyXsJYz4CQjjKOEU9e+qfy8of2Ad1f6eMOyxFxWM9xSwv9e6FH+zBXiQDOjM
4cKT+2yopj6446F6V0ouTf7VmvelWFSjoz5SpWeAaTejkUpXE2rYkpzliQd8fPuk
Fylg7sBX8G2GpQJhHYM7uSI7nitkz0r15e+XdTSVeejqkH1Y89fQ6FczFfH1GRaE
iuU6DbmtBSvtDtfpznQSgOfX0ek0lioMOQdfKWbVEDJFoyJlxoJDI7afMmWBRyUX
/ftfR8aTtPR/KHTf0hgd/I9GnCbIVzrbVmhEZ/U6Sst+/pFdl7+mr5llS9Up0ZfD
VrMKNjr6F1GUugAeQPTI7J2BKzBakVZc50oZS2/d27d7lwGq+dUd4bGGdHkqD5Xq
L1F58lZ6hoZeCq/SqSJ7QggkLH5Z1KJm5LElTUZKKA+TgRIJuDDZcjlxT59N6B9m
ZG7RjjbB7gnqNWha9JJAvqvMIont35WVBZgAeCRvGSLkJX1UV9s+A0ln6z3PWaoj
hJeLztINOqZWZfiygJfsZoW/Hht4Do3+BJOykAXokzM5lKElad+K2PJij/xXctWC
SDSAqX0xnYEK0Me8NJbe8UPkVeafpFraL1Qnw8CFLQARAQABiQI8BBgBCgAmAhsg
FiEE8fjkbTDw9sSkX/RGWJX6rDOMbncFAmX9lM4FCQv7Y74ACgkQWJX6rDOMbneI
khAAx4HLhzwf9OZfT8E/xAAdeitC+lV6u5ZvleTNTGFGfiN0TXwxOKLmiXRb+Qpv
ClLJ3DZFPnVjVPHvfGzk/QAhncB1PAHfjv0PjSwmw37p4YrCbYDRUW61TdjHMB9D
qFEvUB5dq0nXX5XJt/QWv/zYjesPLkJ8rfNKFz/1Cx791X3pgPWyDjRiGVA6akF2
icZ94WJMKy2ks7AhLL6mvTFpEfg99g+U9V8AjbiWO5V5lL/ijLNENIMe+qNryFX3
idgigO9CYcEwAJTTL4Z7TMM+nSIjKE64xfOnCnX0l3zluXfCDM7lHyQXJ2ujBv4Y
iucmLmrTmkXStXVPCvQ8lMmdUOwzse6V+7aUfu4i4I3V1L6E0Ps15BlDiV71WmiK
nJ/5yxfDX2gX3E+jwb0Fn+Rfqoz/38IiRnMRtYWm0wjgLDU/QwiZDJLRjvdy5GB0
41WjIJtYZp5ABfXkdBjLvTvIB5ZR58eD8gYUBMYWqSUfD7tZdDWcf7q+vWaNKQIy
r1tu3me6W9URm4ZI06FzTjM7xpkJQ7S3Rn/WOMT1Un/GpCl7zUPGSob4BLjWXnQ5
Ue/qoui95yKpocuufnkshAt5+M+c6NE3K9QYocc9OLnorkGIZ5lK1lZgS7L5LWHK
edrAbFKFteICHRF6pYl9EM6SR0Uwwo9hP5uzb2ZiWagr24W5Ag0EX6VuwgEQALKc
K8OLjOHH9nuagA0uDF495rUh5TFsdpn0MC/8PZ5yBkrz47TE866EqZPFR/IgqSZP
c//8i9BVlx6k8Tq8lnKHGIf6zPX1UhXhsMszjH01aRN0ZQygUnbYH716gyayqevi
nkXDTvladdlhYXN2cRNlHmlyHqqEmt59cMLekj/trdEFEcOUqGEEzu0SytBonHDm
vwHsgyl0ZPz0h6RJmuGWrxe8Rl4yipMsVc0yLTSS5kmgp1mKBYqDV54F+4N/pu8H
0KUhGPm+Q+cxQp+gzGANtKssIfvCrwIVGabrT3Kwy2a6AvCMSlbTnszus64UETsP
HiRieL3DSf2+z+dBkE/3SJuMrayl9yWcqy8m6YK5D6M3k9CftDzDE2I/jP/ZDdeM
mdBWGbu+HglJ/3E6vFsZpca/3hizpOviE7c6elQRfQsr4ydSojythNeR5mLW1hq/
6crLXjNZHPGFgfA4hAlYztiIstF4l37F7DvfQxM1bJnsPPUYFUa7pt6n1eFfdybQ
/2eAi3ZOAjYcahqE7JQJoezTDlVpUEFAspJTMkY47Dsyy7QdDE1hxDLVsOGpQrx4
qXRP+/8yK6kox8JlXi463Q9zi6Cis9W+bnym5ZCN2IG4CPmX/v3j5etIu0v9cSkL
q48/MhLShGv/CEuzVQEifGqHEQSbs6S9ED7H+KtPABEBAAGJBHIEGAEKACYWIQTx
+ORtMPD2xKRf9EZYlfqsM4xudwUCX6VuwgIbAgUJB4TOAAJACRBYlfqsM4xud8F0
IAQZAQoAHRYhBFc4851ZBTa/xUzQ+M91Y5a5jd9xBQJfpW7CAAoJEM91Y5a5jd9x
Vn4P/2ndVsgz1kCWRuZUjtGbaEAksV8nPegPvnGSMUerL2K1OZ57l8IGmsvjTnnl
8xtH+5r4MgxBWK2XbGl/9b7UugsGv05Ip9S72e0MyM3eAxb/th05aWXTSk8O6I4t
PVEIkL85mE0ZmZh+gYj/U3bUHBH8snpfh/By+GXDBc2KLjRdU3DLG3441OgloTq9
OegoLR/zcjVujVQfoAgjGsCTb8WVrovax+ftfz65IT2PGLh/aJ6dq++letFSBP4o
jVIlrSb/KVYiyKBjdvjZuFi/9vk6pNBaKqdQZETOvTCzO3nCxB40k6SdyE8yvWe7
OVPPFKPwQcJigqFEhkNTremQF3I0oyDvUVe1dM+J8lHqOjx6J5wzLUJwyOnDEvi0
nk+f3DMk9QgE+CN3EBpeyWD8CHysi6VnXWrPqfJ0oihSTPPPrza3LtuF/u5hUe/Y
YeYRltpjV/QdAS0OxzY2I01I170N+Jv5WNis5dEtr/NMA7/0JibBwZENjHU9XgE+
m1nEntWvnn0HZreZp+mXlvP1uJOcangA0VHnYXQ2ccTSTYQnrnZT9XOf4lFGLkSE
n2k1ppRwbZAOJoXvv5qzTR5BCivRDPDr3p8Y4AiVEZ3A9t0FDRkYkHvM5xkBJlsn
t1vxoSeZytzZmLVkZl/DqJSTkHN9gBWE1eH9f9vslYQnNDw61K4P/jkdeTOqzA6t
GkPPWPAwpxjcaYkke2JLUm6Kd5I1//nf5Pn10kFEymKA+5ZExAHVn7GIVhKUFcKk
upiwm0r04o7a33geABkqmq2YIv4HtmBIW1LRt3JrokwSXOT3PDVIhxG79eVCs/ji
komXaca0ZsyAHy7FqffazG1DjlVmGJPzaucLmvHHjo8x7K+3UStnsgM5UzdpUfxQ
RJv8H1wPytdKNY6eN3WMzcjE4jF1PUYIK9hiXVA0IKXs/XaL/XWJ8sn7fMIQoo2W
OQYebIMcoI7dYi95hcnTedAaeChwifWqqvWgIEUY3u44lCJnyyHhCMauAh24FtGd
YpJLbfKCk1nLjv2Q29qmkxVI09ClDd3h5BP5swzDCJ650ZZIbuos5PlMv+FqaUyH
kM+DhFpA5/6wWn5Unv+qihxSINVTuJ3taMO7KW8+lizZNvJcwL/8rBIbGawzBg5w
mUJZ01127uD2q0iAljuKt32jKVefk3EApqkCUPw44kvwC/yGVwknn3yTQp9whof2
5KVlUiHhSPIHHl2WiIzJ0NYJHlFc+BjXOXQBfbdcNq9SSh7UpNLEKNqNwt9XdxuY
0mKB+5TvUCQnoq/sl7p4/fY8F0we3Hw2e1+8OxvfDtDBeHl2aZ4q8DD712KHnYbi
8jYRUl+NdGKOQOy0JnQU1r4TzNBrVA+w
=9kkY
-----END PGP PUBLIC KEY BLOCK-----
