pub   rsa4096 2011-10-04 [SC] [expires: 2026-03-27]
      8D2302082EFE723A379ECCD26B792466B03E715A
uid                      Mimi Zohar <zohar@linux.ibm.com>
uid                      Mimi Zohar <zohar@us.ibm.com>
uid                      Mimi Zohar <zohar@linux.vnet.ibm.com>
sub   ed25519 2021-08-30 [S]
      1D5D554518DE57A8AAF51E3ECBC19CD1B02AE7E5
sub   ed25519 2024-02-06 [A]
      CD5D9A6A3FC4E04ED48C53DCBC0BD3184AE5767E

-----BEGIN PGP PUBLIC KEY BLOCK-----

mQINBE6LagsBEAC8uLXbZLVhXxnr/dN2agnjBnbgw11aKIsMy1HtuIX6hnpGo+3I
05ZlmG368sGU4OOJkdudoZgOOYgr96HLf/3Y5NI0GRGzWKnqRzrORe5Tcvuq8542
PaAGIS3k1ZsiElBcdtrr4kg8YKaI23CL5JFfF0Zmt2nLwyRgBkwPTWVX9dNSaSqs
DGb4WahkFXnnPsn4FYRXmXt4GnGuNQZ5FAuJp1GR3YBjGAIOAHu5EppJDHVpfGa1
pDIRy4FcSaBfOHdv6cJUFgWzLdnE2xFhVJ1X/G3R2fg+PFWk6+XQVdCsYb61EFVE
sLq3YRO0Bkgmtdsy8WcV7Bu9ZaT+KeXC90PwmC2rXBkaGlik4FDpentnq/iR0RHX
nWDR1uIgN3VXIzW2AeA9Iyz4VED/sDL8tLn3uLA6vGGmS7sBuqOJLnw4ne6S/u7x
kNQnjrRdjZLp1HG/WfY1mNBnXTq+fzBs6/Sd8mXErtPhybRlcEQ8Ty/YYnqIJQgG
Wfy0jaAI+N0QH8JhfBuKkAoEttB2A6PkY6BGc2iihNfHc3LBdJODHiJIVHGK6cA4
LPwud93GISBk6dDwtzC1tyMFZj7zTSLMO3I7sLXWxwAig+FGL2ZR9voRJ5TgZBC0
IdXw+L0vk175UpxdhbkRxYm+xrawy6noFYUkMkp3Hw0YinwA6d+ZNK27eQARAQAB
tB1NaW1pIFpvaGFyIDx6b2hhckB1cy5pYm0uY29tPokCIAQQAQIACgUCUlH1cAMF
ATwACgkQpmnQACOJuyFCyQ//Ztzcg/k3uc4Q/eA86VOM3GZOZa88aBD8HwjgTFpe
gEgmemmbsztyYRV9CDY3smAVjiQLEKOy2RoqIYrpTHgPryHc6b2GCR8Emru9uenD
qYbF+pqc7UrbMMdoKsWySp9MH1nvzzMtZHXZsyXckkQMZh4ABobuQWUNu6fU4bYl
BW8tP+qJt+oaSSKWzlR54Z1t2EGg3+XombugIcfSA6gW6+RXA8iFtnLkrA+oXU07
GARyUChE+kpI62tZyy9W3TU7wnZLj5wemOM9kKYyvWtrIEqU1N3b5RlxBJsmUT8j
BvXk5FxoocXYybdwDylSTmxB/iTdwUCbCGz7MarhCVV8lCAlkClHH+35eNbq9HwT
UndUUxUt8XoDSlsAv5JabjdyMMiQFCOf4OjNWP29yZ0HuNvzCiA9Yt+tNEsbMM9x
tbyi4NRGnX57GGI/Yqzvu5nrHZ6USRc6R24QaO9o1U55lsObD2biIyT7TuCvpW4C
GaQSiTQh3o7XbE7Gq3ufC8vNYH+APqRl3c+ETGHS1gZlJ7DkF6Lkjw/W+bqKPIlk
Ad5vy75WaYkHL7l2SucNp6vAz96eMsxnlSzV9IJUgorzY9ZyvCsJLUhAzID1XnWU
WOCD5vEEq6yP9SNdzZE2E2KOf2uixS6K+tFcyW/yaEx1KAWJ6WK7ISrsE6Av8NFW
D+WJAlUEEwEIAD8CGwMGCwkIBwMCBhUIAgkKCwQWAgMBAh4BAheAFiEEjSMCCC7+
cjo3nszSa3kkZrA+cVoFAmBc8eAFCRlWVdQACgkQa3kkZrA+cVrd9BAAiYaYcv7C
b3sH9J5XPmP5TRdFJoD320Ns2jT90nCo/0mgYaTXFwRqaA9+Sqx353EkvYP0tUBD
jFjephUlsbt9n9OlrQl0ECUiV0nNVRJAU490CIcR8Rz/WMiRKc3fyIP3ijx82AqP
KyCQGgeTXio5hoNhgIbUKwzDF6v6Htqqd6pZsE2lWUf+wLA4WQbnV7uD/WyB4Ljb
/vJgUjpADKoctIxs8eiIWV/zUmNV3TSiM6jTUGV3I2m4tj2eE1KvwuzcB7Je/nAE
/armr7ido6MtG69upi7a627XGOw9txo5I1K6k8oat/iqrAbV48SKCPMJ05QRTPiB
Ye9Zh+Hu2Xud9D6TAADZS6HBYktzEBLnIdjpvjSsy+qYrQkSrqWEfzA30rZbWrDV
hDqIy42tUXKMcPaKWE8NQgB8xc2YuVm9OZ90Z6kZudAiAHSqbnf+XK+OfALDMJLp
MWeMDyp2x2Ut0OLscec+C5AD4Ywu7dgSGNaxjEqICozKxGgg1By7SiTm2sRbkOGV
5tnGgDorSTG+f9S+8kTytEia1fH4JEKCci4j2OL+yxwJAqn3FwLsyqzL4ybZ50Qr
C0SWNryxF0n7FqjN+gzmZ0SMnCPV8ynU5ride/S6Hn6FjZpamaPkixAlujk15pbT
+4nwXOF5EXz+zEv8F6Z4Uv71fHTO3bRQZpOJAlUEEwEIAD8CGwMGCwkIBwMCBhUI
AgkKCwQWAgMBAh4BAheAFiEEjSMCCC7+cjo3nszSa3kkZrA+cVoFAmfkrucFCRs6
d/IACgkQa3kkZrA+cVrzZg//eEiKO06eQDWAGyHfsRgAxXWI18pDqsnhYm3U4qtg
Iv6PO4fMpsm0D5H6xLp99QsT0QUe6GtogFUWCgtn7xkBHPPvst91+8WhuJ1qHley
cLekPg7x60D251izq/gJ2IHtts7nNyOuv5FNh6A5oZ5wNyNrW2vGluJO+tGuXloD
QqIFAuxgTJO3vX7huQCy4BrDgDW2wFIjpfykwsaJXqANCUN4TvL9L121D9TdqhEt
57HFXuf5r/lDIlrBYMR2ZQbPMh3uO5GLJMnR/27tue4oU8FYve200GP1fKzbl93F
840fd/q1Bm9dv4WQbKF6zaZ/xfe2LRnw4KlUBegUbUUnNA+xt1+yC/p8dqUVBFby
55tlaf0yxlRJYjsFjBJQgcxcsnWef8NMlMzdbuBMItWQrO77IShwlyflXp+JDaJz
3kIb4l+7/1EhEQwSNofvgnLtSlgwHju22A+3kV1Ao39a+fWokCwPleyCaY9cPGXG
gI5mdq3z7tH5mojq5jSMDtb9+PMW/RU/DSJ9xjMgKa0cFv2GXuqCnkxA5g586aRp
s8GGETTOcwxpZECko1fNavhtsoIu9TZJEmF3UQIITJyl8F6ldBri3h/ubVdbi3mT
mzULFiuB1QI3ClR/Q43VgG7AEmbOA4nAgoq9/uGDXBYMrqvrYC/Guu6T8ZNpZuPY
Y5iJAj4EEwECACgCGwMGCwkIBwMCBhUIAgkKCwQWAgMBAh4BAheABQJY08hGBQkR
zSw1AAoJEGt5JGawPnFabZUP/iP8IVjGQDNBTa4z16DWpbnKrktU7KvtNDg+Nj1B
IBFr5RkoD3mciSo1amY3nDLm8CsG6rnmMtxFkGD8mwwn7gvGpd8ryKtrq9sTcvXB
1KST4CygkOwbDTvxp/bMEJlFJf8Q/NqIN/OYX8IiOAXFAvOjP5MNBXUGjNmOrTgx
FiJe5loivmX8BGPvtt8SfBFxPJB0fEilA/49sbhfZ89m6uBdneLGAhZwjDbmpZla
vXcrUAB2iofeZCQ89RrdDdU20Dodsc82qai97nV2UaTu0Tc0HIQGBTnmBZgYv7+j
UEN/y8klxRmY0lOq1xNGsYbhqhGVszKrd5O11atZnXOVa6upyYzXSJvqogcYt9ty
F21xiHWCLHI1jrioO+geoKOAxpRyCXi/PVYmvmNU69Emy+x/yKpnBaV5vZGgGxsF
KFe/icfNFQgPSMzaDhhHUdQryK4+ZMV0Dk2QjGt4gjdAOuYK0Gu5nIyRcey+Mr+N
M2OSiVHXfFJvJ+VdRxzM9Er2xlBG/RsmdQ0uhrWs4egtZio7YC1NPZrVg93/GqmX
7ZH1RnTSiJfpK6a2p3EDl5MNWbRJiln7XW6CEr/beTcBz1cG0S3kYS0J2WEouxF+
cBP4IeLLN+i0OiHo6DNxTfpq9YdxKW6Tv9Adm67F6bvZzRLrWvp7HBLFbpB6NsSH
/EkjiQI+BBMBAgAoBQJOi2pqAhsDBQkJZgGABgsJCAcDAgYVCAIJCgsEFgIDAQIe
AQIXgAAKCRBreSRmsD5xWqAJD/9+bPf9YB7NriKYpvakr5ZPQo3IyncTh87I2z4K
L9r6EredX5Dzxx8SkOo4OWE+9BnC2DaAS7c5dalcOGjUllRUi6nUKIuGpAljHD4+
C9M80ipHdnWVicZlYuBpVOB2F9TcFvSB+xS4FMAfXFDprfMEsTrt+70Wa8ALF8V1
v6qPIHRhI+KGicICk7PctW8YxcfWRCuMlNELts9hBgKRvUNEBhb2WifNA+4Sa3DD
G5gWC6FiF2/BooVRfj2kmhDhRYa1u1HCrCsQMMgeVK8yenVGYZKbwsWwDtvF570P
fIGIvo5t1qAEksLArJ9zwTVbTPjP3mS83OCp2U7Uh3CQefFZfhd7rK5cdvhXWXaC
Rh77kFYKBjX9uwXiLDf9QVa6YZgWsSFwm0XPHjbG/nqE+EMTMpfhpCyj4qyrvVk5
R8d/z/xYDI048NY7lpEJCX8xOvWWXAAURpuOH7RsuztbQFJ94tvQozvn5+z8pKb9
4MQLE8+3F1wrUYLQKBxn5a6zNJ10/E30ZZTjjyqW+T+oJuT2VGhmYK4lV/2Rfx2v
2ydO3WqM/GxVrZefC8dD1V3CHuP3F31WEuqSAL+xy4XKiYaY1Lu170zL/wz4b2wP
+HhA6e5Rw79vcFgKrDX59Lnefow/bBZQhNkLcBb4eeOJSNk8NLbC4dmcWxsiTl5a
mjpZarQlTWltaSBab2hhciA8em9oYXJAbGludXgudm5ldC5pYm0uY29tPokCHAQQ
AQIABgUCUD/KMwAKCRCJcvTf3G3AJjkUEACwxhxbK76sYZs4DcRNFR9JZ4JKHllG
3dnRBMp2BTpy87+OpTZAVhgvqs2zW68qNMb2M6OxfoJsd8OjzwGomQzvZbHIjULk
qJcGNEz1tm6FhRwdYUEgMIkSwYAjEasiMw2PnmGandzvneub7yqPbhHKbbBr8eqm
SAAh1aL/tl+Q49ot689Igs7WQVrM/bhayz9n9ADCC3Iwm/AcxE3Lm+jeC4hZm7du
cAfeNC8jYidfBd+Wyv9ikQR2FDcEgiAuFuu5GoKTXqAysWhCnJDsKiDmCgj+ru2O
P3II14P3JIDNzvK8WwORZWSh7MZKCNa3SDMnbmBRH0sxrVdJZHqi2HBiFo31S2aG
juVz7iksLixLZ1e7NaUNSbcb2DVPyNvCHfXHj1BP7QJp2MMawlU9u0dVzjLV01bz
LM3oZQXE4abU9IOTmz5YKXTAScW0gXxVypoj+MCLvXU96lwBk4+YeCxYNyzehnkw
GNyn7/SMzu1gAgd/T8CGbu+ZsYZZvn/2vFPMl/OLLS4f6Qv8bcuYsK6mRwyv4D6Z
wCRebNtHWgg42y6yuBuGIqnwhC6pDxad9LesS4xMjKr/dURYa5a9rMcFXVJvlSLU
gTN8ZGwnP2Es3A28p5OEmeTQteE5TSs9ommQcwp2fk+G3Q4wKuV8urMtIkjAwuk/
AJU5/ere3MwaPokCHAQQAQIABgUCU/fOpgAKCRDTb3abwRgE8O5uEACvUv/jf9o7
CQakkRRHlSIXiJ4O0fpcAGiQ/Yb6jmtEpj+nLdWzsSpnPdSd6hXcvdPZ432nhG5c
OYlgxp/h+kiCN0C/ed0xW1vGQZZ3222AFEiaZKMs+Bi6RPPmyIBFFUmp0puWr9S1
L7f2mrhTX1H/zuZqCdcQP/vAyDKLVKpwzgZ4dnoMCxUw2DUYBXrPTJ/3POvB1tnB
9SmkwY5UHOA6QPulyyXIr+g2JgtUhRbAarymKKZuBp5oTexDuAYSLs7L28BxKWN1
DpI4hgccjob0u0MrJEC9JWJK46za74DT/GDt1GdxUER3gv/Jl5wO0HinfUtFIERb
3iJ+QEiRRKkK5aKwjgel1XEG1Z012JONd0fssaSaVM9KmSJe12WHhv7UR9idISgf
aOSRIDK7IXKAwQw7C/dtqhJa5X8bicr1Gd9+g1ojR1sIemBySNWnOCOt/iBxgEL1
H1ZajzeHqJUQy/leItyr43cjgXHOQTp75it3s+TlQNDmWTeWe4SkiawN+OvnjocA
oz+I1Rw1pAbOdg701+BY7LAG5I0md2b5UL+iE1ol3tlA7s0EzQ7djJ5fPmgq4c0U
/Ar2LULerrwLWWwKTlloiL4XGGIdwviIeQVCGLdsdvZtC8XML1HE+/rz4fecXZO5
gEstYFWt6zpL0iaA/tQD3igajyLyBqztiYkCHAQQAQIABgUCU/q4tQAKCRA4273I
YJJpPjAkEACHQB54xtXbQZ5aVEdOM4kzGtPzbmXBECUnWlr4Kum02OR/jQ60nMyI
ustO2jliuzk6opiuMWBpn3xz6r28olaRggJtQlF+h4ne+whLvV4FC2oIt+KoUkBF
4rzlDPgh6AgGmJhtjBlddP/1U9ad+d7cOkPcxTJsYdtB0411f3+n/b3mVjV3aFG4
903MSPENw1WLNMLRvewF9xiCtCQ6wbmqZBX+DAdCg8Dp7ZVFAgBnvWdwGKeBG3Xd
CGAnl0gbryZvUPHEaapDhuE/3sYAdgVvojB9xFemucX7ZZrxDbhGM0S41wcULfDs
k4E7BUn956PXfj95ftAEcK88ExHWh7PR1yuzz55mKqbtKT09C4ndUEcCOFWJg2Ln
b0b2EqoDHUGq/X36JIMAI39DEZxNn4fdvidhkdErsciUDW0KoEa23WNP0q+7J++w
3kJwWRJ+oy5C4K6J9W24LDT8OZsmLUBxyVEZRcgYayL+Fe1MHfasoVgMZSsgSuNz
ZvXOQ7B+goe+NakUpG+PmrLmsVuhcGm2Zq4haE1e9kr2qnA4x5h8gCIBP9fPwqga
nKCD+ZW4xZy5qhEzwxe21YLSvRcCkmMuNRkBh3Ym1J04RpXHVTbgfudXprIo7Aof
RpXnKjruSn+o21Tor9QAJoUJz0PqStS6caKkbF+Gj1n6lq+RMmbkC4kCIAQQAQIA
CgUCUlH1dAMFATwACgkQpmnQACOJuyHkxA/+IdoLZRTBoJ8pOFx+Vv3Hv6aZy0gy
KQG7rM6GTpIG9dvPRdppjHnLU/iyouhsa+5GPaKhmTnyKNJKp/yX12fvk7ZhIkNs
zjtJgzzqCp9qxv9ZPYDY1lV1fPLkrPd71M31c+kx5PLDGJfkz7EZE4ZH2QK29rsm
niSyahefaGcmuFSgtqtY0HaDcasIQzfgUYW0WAW/LaKSAFGXEUKop1jm5CWFSEyU
Cxa8xqEvScNAkbpZWfCBOxEGgnWq7+wJ1a3zpWPrgiF4wsFlCBxuW0mV24NyQPxj
nFKFNyCNp9IXBpDhgXxkB4nm4yzds8egbNz9UXQrXidVShTwERuBBDIKdENkd79+
oQb7zrSU06T/2d5l5PqrF6hIY7UYB3a1OYWdj2eOlLA6VmM1d7WUgqOsoStaquun
5K4QApcnPWeIpXUBx6akHbtF9Cve21yytaQF+qRIbf9GWnhV2UF9Gx/n4Yo7TMe/
OeleUubBKdJGUHEATZKknOJkjyabu9eTPhBp1KJuyqakdQnaDnmLkmptb9jCmL7E
oOM4NYsQrjx5eagsnp6kXt04B9Jr+/AjdGZdlST3AOUQyS78HeS34U+IznmXgPOx
7V+IAvq4CoE2ynHLHstgYqi3BT6KqG99WvCR4pSTWRcrAszN9eUtTbTLNVRF8g4f
jdzAiXbAwspIoDmJAlUEEwEIAD8CGwMGCwkIBwMCBhUIAgkKCwQWAgMBAh4BAheA
FiEEjSMCCC7+cjo3nszSa3kkZrA+cVoFAmBc8eAFCRlWVdQACgkQa3kkZrA+cVrL
hA/+PHQMW9RBFAwJlqhWLIRTMZ7C5JJ+0QkX6cR5vjMiZVfCFIEgEq8DCvXtVhi0
i61hDZMSkW6xgusqfXMUJI5WbyEwZyklMV6p+ePtLwBSqJMwKvTEp2ilzDwKm4Kt
BcI0vru/2PsQYyvVPS2ARauRPq2QzdmXMJFP1pYP+bXYXNEmJV6yaXH6QZxO92cE
I5Mey8UA2QCo7NgkQ9qdV7kMDE+uuSAl+nyH5PNubDi3yDtrKu2HcH4hCkKelHwO
sgWl+qjX3UxuT/l9KjUqJSUg1MV3NkAOJPaQUtTf087MtSGjzb7LmwRB2m+CK7dz
ROSVGY/AX5HSsgXh0N/ih77Cv5mtxZlVNCBE/2u7g3ilIsYxVWfrh9Uqrfn/wwUx
YRzcH9hPOk7LTUeMf5g28TrDV0BQ4iJe8IieKkuxzCVN8OVtQfk45mBhiQtw//W0
Z5nbIkl802v+O7Y6R8y0xEfjijqO04ojp5Orz4p0CADRjJnYkH2BTXDWIW7t0Knn
99hDbZVQr3gFACWcsf8jTh7/5xyIfKGfES4lFfX1cyNM09lAI8M1Kn7+NzPleSjZ
qAEPkeXF0o92s5z/7FppmO76fGB2SRCIKMKxXkgFEj1Rek3xJahTzh8LJ4vkgfzc
tf7E4PBq94o8ItQsc3gd4ff5dUOpNt/bAhbn3m7+EiazOE6JAlUEEwEIAD8CGwMG
CwkIBwMCBhUIAgkKCwQWAgMBAh4BAheAFiEEjSMCCC7+cjo3nszSa3kkZrA+cVoF
Amfkrn0FCRs6d/IACgkQa3kkZrA+cVq7FhAAtabfTokVXGxYnrSMUHrJ+Zt7WKpZ
tzNbmJBgAR9MGWTA0TRd/CaxZSVlJSdDiwFGtKCndqjot4tAxOmH+BqPSyfUhT57
JLNbn54OqJm5+8lQypfkx1460I8sUzRWVBKW7dtdRM0koTwR+sPhv12lZYjm2JJG
1apP6+wQPHihFhGoRQhJ/t6+QqWpN5nxm52MrIWpJRQppAX83s5Z9pzfZNwTj2nU
WfwByNQsU45K7HTfBcZxqY58iYiVGiZVZGeeD1CRep3uRi5fwkppuSqZrGqvPSdw
Qg/x8UYGWDLcdN13OZnOXDCIsBFsm14Qciscp2hCwWC0ydJck5GhNz9YJtcVy79C
iLQtprX+yrXviMAvup1KJP7XBtUX8V1GpOXCfGEadhGQwOGDJ+T6l7CPbLooyVIO
zX2lFc+3Dj/rf8kYO3VCBD9GmziX+qQBb4D3O1QGzfWUSzbyuSii3cCk+sq5NJ5T
uSAUk4Q5mpTGBOFIorE7zYXUeCMsxMNlsA9EEXaGQdE/VZCTQ9l2W+MYLToZt/Zp
WQRFI3I9uHE1jQgyE3uxmOjHZdjJ2lsJqlVjEUqEkf0EU3/67jZ2MLxSmEbOh/hv
UqWTRdXOCJ8Lo43lvLR+4VMdrcRdwkIJOiVdccUtpnJep2KRgYTcZzIJKJGjgjWV
lRL8UME4+R0nUpaJAj4EEwECACgCGwMGCwkIBwMCBhUIAgkKCwQWAgMBAh4BAheA
BQJY08hWBQkRzSw1AAoJEGt5JGawPnFaaBMP/j2D1I+8owC5h8tVABq7bMWubRdu
k2L49AJZJ7BgyYIBFGAZYBjce+QfVMTtF6sx+y9jx+43bvqb/guQXKYJEdNSTw1n
Oa6Eq22vHjxlToYXPl0KKiZWoi8knX371v5DTejfBzHClXFIAjyrWS48gf+Enb9f
2zNJnzcm3HtK4Te0Djd0zYFyyOnGxH8ggVvlioI59oWcuBFpQb85HdIA/QPcXTO4
CUhOudrThGi9EBqyk6IsggFYB6FhnYVn+08UTcddNuEBK2yOiqcgYwykuUv4sqXK
ytSZCe0ZCvTWjK76QUTpAAY1lfAF21nWF5DhbGhBYBfWLjWbgUJY7WKDULaHTIcH
HJDWrntyyl72649pxKh5mYcScv09wRHk1kkt5lxP2ohjWYucd8j4hYTV19XZtVjh
tV0xAZvUXyU4+wf394qJlUB4EOXnZUfhPdNoyOv/YHJbXyARpDPAOZxM/42IPPFE
M2IZoXslXnoG6D3cdfRpdVXlRl2H3+RHnKrbcorPSYp/RyoSxw+485y669WPDXQ1
EBgFDVJszi9kBmCSEruQiiUeZKwstfz6SoPrZ/j9LQhA/lziyLhqHQvs7HHsB4Ym
VpiLFMxVjP7KksddOYhLysvj4z1wyjv1yIBzxiaOg+YSO9dIRg920j91GVBGgIBz
aKN+IY+H/7yYr/xkiQI+BBMBAgAoBQJOi2oLAhsDBQkJZgGABgsJCAcDAgYVCAIJ
CgsEFgIDAQIeAQIXgAAKCRBreSRmsD5xWqGwD/40kKGYuCCxWdJFrPnIO0InitQO
uMTdcL+5mj5lfbqKd/J/8D5/fCAYhyHOXX7GpPKq2RrQ4MvFZ/pNbW9NRq03gTEt
//m4SELbeO7FYbYiWDTMAZ1KMq1detu9vn9Ipf5MtjX4FACdb/wbSMyh4QVMnctW
3n9aWgrtmEpuSoolvrMsBslg538RksyZI//hTlFBmXRpewBsQmuyV01qRKER6W4U
3FFKXX1AZOqkByCHr/6rtAZaG2UARw/ivNK/OMk3blCWJ47WjRsGXB8nLMUlh/xC
LPg8z+oq979W+g2eix884DXvL7osmpkKuXUbs78MOsF6tS8kk6GzzlMzi+d704Ac
iS5uLsYRJ5+hPPrzMlm2ps8fWdxZUUjKGz+QZUuDNmXxK0DH/fCuiQwURuRcfuks
18vnxidYHCYna65Wbh+TGyHrp3RrGlqztgqzUns9VtCdBW9ZUXdotb6isF3eFA35
kfiFhEyYRccauUt2brB4rGV3rA87sM/jVgokiFHaRimeKHyTzPoQMfxbX5vZyVxe
hOj90kFiXtuFN20+z/S2AmbqiMrW1vR+rdVjM4T6ctHUnACBFJYuLmfrtj+SwuE4
I7dxuhFXaAg4dsBWOKtiFKQcDj8o9YQkwvdN5Oj+NRBYo6OUfPvlQ0KyIYy9lw6u
cy8HOGEBfI+sB+s1m7QgTWltaSBab2hhciA8em9oYXJAbGludXguaWJtLmNvbT6J
AlUEEwEIAD8CGwMGCwkIBwMCBhUIAgkKCwQWAgMBAh4BAheAFiEEjSMCCC7+cjo3
nszSa3kkZrA+cVoFAmBc8d8FCRlWVdQACgkQa3kkZrA+cVqLOQ/+K3+x68qrhT6Y
ZVfSru5i0Pq8ChwhVMmphZVNdbziV2pswzUvYwf6P3Gtw3IOxL596uorckiKdeqy
Z6hm6MGb3j2JXIJRzLP7weX+1rOfnw7cHMaygdFk1/ZkOZM5kbu1bKZL17IMVuK1
U9vBaQCOP9R0SzMbAXwNx/QmREHm7m+MQhPcs+ZMN/H3xRorusodEzSEqY1Neroj
JNCv8ufcbaGB0qqYlvvv/Dcn+ZXpoEvsBhKLgGxrd2Jz/wwhYdE9E9nF78qvcgOV
sYYDDQSkOGuzDbsVyBqidZDFul5ml6aSCoQdUHPSbBYZoau7T3tFC+E/Zkic5eUb
MtMG986uonaGQj/lI5/OXnAV1QovpR7hItAkLO+LgEoeBx1vwidOXFXth7gfGPGd
IxFHEPmEsOz/gD7eoyWSBGMZ5Q/yUCSdNyNCJ7XdyXoayuBX5pcsfrFJtOccJMbM
u8hIAdJFOkBVKNooYMXssorSYBU0AP3J4sQ1CJOrZzzwM6+WM9f7muQd5dwpXPbm
8l5lCHTPVxVG4FdzsreXhf+1GOdLycJkwYKHpL0d0Rm7ZZrMUSJwAEuAk8qlLnbd
F7gMtIIZpDabIYYHDChBolrkvz06qxfXQdT7rhd17m9Lr2C1qRwGBP4kAAGdQfZF
fKW8MLEeLodSUg1+kRe9epEuhreOyDOJAlUEEwEIAD8CGwMGCwkIBwMCBhUIAgkK
CwQWAgMBAh4BAheAFiEEjSMCCC7+cjo3nszSa3kkZrA+cVoFAmfkrucFCRs6d/IA
CgkQa3kkZrA+cVooTw/+KJ+rK+9VoYa2qb9L+Ms5jiV76KVoQ2TAypklLjwFsJyE
gk9RBUZDEZN+dImIYb5JB7qB6EOt+Lvu0/P0iYXB8eh+4nnWLY3L++VtI4RRcxZ3
oQi6FmQDb6+EmM2PiMc2FBmaT1LOSBRfLq2+TPJ1TaZfntRu8okJ8LDwEbdULavj
gM4LrwqLxtf2YoIhLdxztp8yx59hUm3xzyDxZD73+Yvq5G47XD0GbwYmr4XLwcux
Y5rOarZRSqTnm/IJZ8NyuZNXaPfwcPgrc0HirTKC1bPqIsbV+0U4FWvnEAfKdqjt
AJSQev5kvjwVurNp8AkhS0UDFWMb8TfGu947LjZt4RNc3+myiFmvhnkh0T9jj2UY
ds3Yf+PzNtWagWZmMk+9mG6ovi95IhgBC4R8Bl3ih7T74wKqhdxAGSsuBEdgGnkz
+I7QZ637ZnRndPobfk9pcsabMIIFzhwu7nFer4aFXWN1qn4JQg7VSUTFmlZQtjP1
ldQKa1CHlYRJAEEBJ6Khi/6StpNat/dcZAKkqBzCD2dsZ2Rmq7rng8pMhi4nWRdB
lyx9JfEl13h2CbXTKnGBHtYsxfEA8+hXXWb6HEGU4G54Pw2r6EiW62/t1Eb+bYrH
MTwXk6ZB0kJ8NMgwSyel+K14NPIExpYPq023N2xF2Hi0klEKdzqMwRJhrhsfk0W5
AQ0EVQb8xQEIAID6yk82oSBil2at7qT4ozhIN8QL3fNXo2eGzG/nkk5BrHlvlg77
saflqx0KABTYE3QsuGoORO8uXWRYdi3JMX+i1P7Ty4m9eGdOxHnHdEr9SjZv9mc1
S+lP2nWBE82dKroDjODW3uboJCGI586WSIktKh44ypXNCuMvnYkN6B+LMXeKSejR
wzkrkHyVuEQPtuSODvsXbLt1edqdAdox7o+8a6h35iSCzg1inCrjVHglx9pdeeo4
0/Njr+mXPjcoLtvbr/lCMreHxSKzP1yIa5y71qXwtUezLEYt4YS6FSwOAQGOj1DY
T1pAQ5xEshiUe/BkOlScoCk0R094ZvHfsj0AEQEAAYkCPAQYAQgAJgIbIBYhBI0j
Aggu/nI6N57M0mt5JGawPnFaBQJgXPH4BQkS2sMzAAoJEGt5JGawPnFaoksP/Rbl
PqIVFVrpfH04CoE/90jexcSDtroXZcsw1wuVBUFJA8iO2OClEMMLTaphpsUBS3HC
UIIEP20DWc82yZkxq51DsqONoB7EcNW+mSKYvMhI7VHMRNe072v8sFNYR5aF1hFK
+lOZUdZY36d4y3/KMMWJAIe3qiYKAsT6fdYcoH78wDwzzysq3Q0YRNGnScRtCueB
MaM2X1XLrPqKfJtgOMsc5cl5+R9CTsBLjerrQ3TGbmyoZPtdO0PCZVz51c15FMvj
o42r2gaprYmhf6h1AbntKwJN4MoXuGGBF4VQsb9zOSWAr0oH3a1jmNLAZ6HAWibK
iyUccsYsHu08Un0k6s7jGUGz5SURQe5UAvVVNepgv/HlSBsZKZMGvGJDX/DCWsGW
oagPc71yp/CSF/dCQ3vubwaAP3eiEQCIWtE3y4K2RsOMZfp/CBLwunVxqVk76xUk
z43+63yHBXpINIjjBsVjbnkSmw+CNa3m7Nk7jbo3biJBWZEZKl/Noc/VVIJ1eI6N
QMy/nhfj5otQzKwQE+AFsRDT7oyy8ul7LL+VsLXKxUhlWBYKDiJd9pM4vywHRmzM
fzt7zqhgfQeN+AXBCv6LF2g54nYrMOG/nunOoKWCePAlu43U7E4FA32iYDLbXUG5
wG+OObToKmiajVJU38+D+RTzqYyGahEZm5XjrygZuQINBE6LagsBEADMHyMm4UGx
3QVpwCH5UP/oVxvBgEP8JEUDDBlc2AEf5mZa3bNKF2CY+5YpS3UEsNDDb/jg0gZ8
rB3qCTcCraUPuCSfNfkIJq7FXMVfeuaOvG5jasurEoYSACwIwNUoWHcA4Xo0icZG
U5C4f3DKFYF6AjbxcWNcMLSz8fc8iTFsagNKsZcTDQv5vWZ/UnJeqy9Ja8MbK/QS
ldEVu1iPZZ7FSvyfc4yN3HP/fDMPc5o5SQbCZvbvH5rGD8Ck4Z1EWDf1JuvJaI6U
+KovXQP8/CBBED3ju1z1IZ5PnNKZxAp4h0oVA9NiPqod/4EpPY+erteJjNdfelwy
neEiDTglX6WunI5zmkc41nJPnxYQZmsSpEwDJKtLOMJ/5rADcgd688MgO6NKrcxg
6DFvOcnHcXw0zBLTHUEIk8vQ2UYacMkRrOB2xgppFDWZ5THGj7hMIs0ax360ap2F
KZrSAvrGH9RNlZ0oT7ad1olIcVzgOfTjgm1XbIzwVBFPFa0EwUHrXdRjWkcVqBpY
5GY3I2HyHDOFyrPE79157Fjt/HyUoMaUOwEf37ZBH56kbzUM7m2Q3dz3imdFfbne
w3btxDUtDwy3ZDjm4IgBeqF62gPAAivUIKSWYDUGxLN99X9Gj3sf5HBKhEiaTBnl
XhiBYyOiFRi7zzJSarD+5OlYfWV+CkKHAQARAQABiQI8BBgBCAAmAhsMFiEEjSMC
CC7+cjo3nszSa3kkZrA+cVoFAmBc8cMFCRlWVbgACgkQa3kkZrA+cVqLfBAAgUa9
STeSZcYkxXRLSVkQU+t2oaABUawNn903E7L2jt0b4LTKI8RVjO+WP/QRiXetMBpK
cMCpGPutf7p0pLLyzZdS87J6mijRQFwfptOQSF+L2nOOHDj9UqAoP8Adl8dusr+a
E+ISvTxTTFLzKQkjx56+eRL+KRXWl+8NpRchaZgsmPtWXJcAVubr8YjyyGlDl5EF
Z1dtEQKTV407N1mY+F1LQQKg/NLHqX/g0lSNN+0LZMiGCwYGoJisxwLikOj2nLrN
fWpNxzUOC5QO3GwMRxRTvdgGRtgruk+g6+7kcQ+ZQqZx1Iu0j1PWSG0Bu6lxNeHx
9ViH0m1sgoQ8uxygybnrPWwdH2EszmAwEHb4Qg4Bz+MCnjQqlRQGfs4XKpYNsDnf
f653gon9vMFkCiw1zEDIqQDcs1y9Cg1R2ihEWMpJBg6u+FqfyK0n0ZKaqStLRinW
2rNx0EP7W/WtLqVkzUwJ/guarUnsyIZ7s1vPUvhmJFjAiFcABHrM9XMusEhJkq3I
zr3maQi0ixo9HNVv2CY1ZFZF4xCepQ4umEamV4kzaC+PjZ63MnHYrs9qfNDr8Ned
3NMmOnBWPYywIpSREhK1g2QwojnVLUDW0s0AAcBsYowp5WDQHV4An5ok+MONPbiq
BJMmswrztx5CTvYg5KE4FtJoklIsix+ImY+IOVm4MwRhLCZ8FgkrBgEEAdpHDwEB
B0AorZ+XRntdMLH9EvNojqL98tEh2w5KNBjFVeTUBMeTWIkCrQQYAQgAIBYhBI0j
Aggu/nI6N57M0mt5JGawPnFaBQJhLCZ8AhsCAIEJEGt5JGawPnFadiAEGRYIAB0W
IQQdXVVFGN5XqKr1Hj7LwZzRsCrn5QUCYSwmfAAKCRDLwZzRsCrn5eTKAP9+mF0d
xOjKBhhtzBz6PRnpnv5ufN/5gzoDFvRttD4JUQD/T+aPuZaIYXx4p5xO7flmbUs+
mp7LVNtiMf+nCBE6dwTEjw/+MqexwWLjpQX84OwLNKtDAIZwbDt3Zgb308+f06dU
Jr3WqPEMmgY0CvSFsjx+6QVcchqZIN5joltRLO8VZmzFHvsoaqb4ZSoPAVhb5U8C
wM2+2ywnpRtgWteLjMBMyLQ46cwo7dhBNH8g24P07J8ImkoVCxyewCyT7FuauyWT
jYixIQMeLzAqbC0RdEZpaZiLgLDdsl3buTg1RfZSTidRAXTjLN9nVmR1zLWq8Xc/
GP01lfW3tA7zh248hQpR7DAwAuGvEIjJePK8nSPi34cJT8wnbw3yGtF4bg0znm4p
pAvsKWUZaXatw8n3lq+LG/bhPNw7mTp9oB7mP+N9bd62oe5odJq6GKSpdDsiFZsF
bgZDfNOS6AYCzpBXfev8HEKzu9ZqnC9fBBKkD4lsK2kIuS0JNH9H4udrwC9/rQKX
LqIj1GWW5fOQiy6IQFX3qu610aEHJ0ALQ2qyDfs/JgzR2fd2T3jkh3Uo8VXx/UJL
hd00xjSuwiUl/a3gB5/KdjSkjiYsyTCgZYtHYhFxouryNGsIcBDlRiMq+7QtnAA7
hjU9mv7buamAs3mRWJ2Mt9wW/X0b836RtTcFpj7QEWL3Z9PT9A/ez0o0yvUHmVP6
uKmoWpy0NQy9sXu2o4n/w1xbUaFQaqYG6wgrOwZneCW1sd4H+zWMivbR7PuvTL3H
k7W4MwRlwYGtFgkrBgEEAdpHDwEBB0AXXUjOuikVweHn6+KABFgqNOM5BYXFi1bY
CI4u9ogdPIkCNgQYAQgAIBYhBI0jAggu/nI6N57M0mt5JGawPnFaBQJlwYGtAhsg
AAoJEGt5JGawPnFaH9AQAIRKnT4y0IZiYjbMRBDddwR832WAZYw+6mx9JDLZK32L
JE0IjV89Bh2ODZ8pErmUnGHAJmL1q8Xt/83tWOkxvTjB0HwjzjJAZb7MJYrSNZul
POjLecHeevp+NAmG4mN2xRsVECJeBiYToNUxmnXBUUi/MxaXVu0qqUbMPcOXG5rp
qGw+qaVqOwaoEqyJd6zJcnZF852I1sGJ7Kt0cJJBtisZkt1UC9y8BSORjPkzoiHf
7xqzaKDGB+n56zeVflV6DtV1DogGhS4ObOsqWHGO9K+IU4MhsBTCxi5VtxpuY/Dr
Q4aDBzbci0eSsEQVjOs2m9YK9eeuvR1wzjVSkO2+cCBOAKDU2Nwo31LHVYDYC9kl
QXKliC8bizNkHmxA2aVxH0i4iL9E66O4/fxTOdm7YKB62OiOPRaFgYWT1Wjdmx3t
YrYzLocM0JpJPO1SB/DFWTdvPJnuSwWXNP3etaJSlestW00VmhIz0mTtngJ1IVlj
Oa0VuunVvYB7qj7OH5kCrKAuTRwjp4YG2kQYhylUwOGnW8+H5X9KQzW9Yk2LLd4i
Hyx1tCB4QiHLi831S7J87ehnNUiQ3V0i8+d4s7dKbpsphEw3qNWAaj/P+6ubG1H0
9O4hnzCaFygPveptZDhEdKfx/Mou3jF4P9LHwUtfe+w3A0/AVFn6sK7Em4XnZp6c
=YDNm
-----END PGP PUBLIC KEY BLOCK-----
