pub   rsa4096 2012-01-09 [SC]
      AD85102A6BE1CDFE9BCA84F36CEF3D27CA5B141E
uid                      Joseph Salisbury <joseph.salisbury@oracle.com>
uid                      Joseph Salisbury <josephtsalisbury@gmail.com>
uid                      Joseph Salisbury <jsalisbury@kernel.org>
sub   rsa4096 2012-01-09 [E]
      CC019583E489F052EEA2BF0D87AC77B3BF827F80
sub   rsa4096 2012-01-09 [E]
      19FB0630F1CAFD2053E2246D95B24E6307AD6204

-----BEGIN PGP PUBLIC KEY BLOCK-----

mQINBE8KtKMBEADJ3sa+47aMnk7RF/fn4a7IvRDV19Z1L2Qq1c6dxcvtXP9Mq0i9
5hBgPnNB2FFJJ4QvJUJ6hYaniqgX3VkvKvjOcOwKz78NYF0HuIZqTTwd2qWpECXq
txPSOstvEGwY0nECQE7e1kELFiQo/2GYwFn2sAGKKPEHCxO7lon1fLbP0Y262GxI
TgBL6/G6zLg+jxCRH/8INXYElPOF9w+wY6rifwwtkax7NO/S56BNH/9ld7u4GT76
g1csYlYP2G+mnkSmQODYojmz5CZ3c8J7E1qSGnOrdx3+gJRak1YByXVn/2IuK22y
S5gbXGnEW4Zb7Atf9mnvn6QlCNCaSOtk8jeMe0V3Ma6CURGnjr+En8kVOXr/z/Ja
j62kkmM+qj3Nwt7vqqH/2uLeOY2waFeIEjnV8pResPFFkpCY7HU4eOLBKhkP6hP9
SjGELOM4RO2PCP4hZCxmLq4VELrdJaWolv6FzFqgfkSHo/9xxeEwPNkSk90DNxVL
49+Zwpbs/dVE24w7Nq8FQ3kDJoUNnm8sdTUFcH9Jp1gstGXutEga6VMsgiz1gaJ4
BtaWoCfvvMUqDRZTnsHjWgfKr3TIhmSyzDZozAf2rOSJPTMjOYIFYhxnR7uPo7c9
5bsDB/TLRm38dJ2h5c0jJZ5r4nEQMAOPYxa+xtNi64hQUQv+E3WhSS4oXwARAQAB
tC5Kb3NlcGggU2FsaXNidXJ5IDxqb3NlcGguc2FsaXNidXJ5QHVidW50dS5jb20+
iQI2BDABCAAgFiEErYUQKmvhzf6byoTzbO89J8pbFB4FAmfCSfQCHSAACgkQbO89
J8pbFB5Eiw//W/D5+6DR4L4+WTkYY056CNkfNJ3Ev42QUYsTiFEka4J+Q6VBa4VE
8/hMMmscbt/clYmIzigoUDm2CNAgHPzevsVGFHC0g0y0zHQhQYctKDoRAGJKw+2h
9Ucb99n0n09a/csiGAC8qqZO1JP5TNs+FPsLSzcC4C7utNjQgi2Mx4MFJJ8QwmcI
Ot1Y1cxhkMhpwbJ9EAVrWsRBER0B+Bramxd6mQvI7+s8h3ZYuSwZEs43s0RTRikK
UsWUVaYJXdAHPH7OLsLEPOo6dVUhSW6iDJ+raPkB9LxRhHrkMbsDb0FICe0JpGXG
iKXFIA9m5CJzWUohzB6yY3INkF95Q56tazcNbTXMvPc/m0+YtfHwsqaXQV6q8y5/
GYlnqa8JUVJ0Y++qIGPpF+0Upn+pYyEzCbUiNuxREE4ByOlxlLXyxEo4NJz9I7FM
g1FkoWVu6tqJQpd3pnESqXCyJsYW3sQzYgxiCWrfcu12mejwUYA6uk43RQRstlk/
3DO9SCrBD66K73Joy0PCA5LmO0wk/eqk7aXRF9ypEV9O2Eg4HCdbZrAC4SRidwjM
nJnWxlBPRB+6hoaDS3jvE1wOG6ubUkG8YDkpoBDvTQG8myOdE5xFC7K1R7TinOcK
h0zSHs51QWIb1cM+5l9IiWP3Sw50VWP6fek5iqNbFlgUTfs0h6H9kBK0LUpvc2Vw
aCBTYWxpc2J1cnkgPGpvc2VwaHRzYWxpc2J1cnlAZ21haWwuY29tPokCTAQTAQgA
NgIbAwIXgBYhBK2FECpr4c3+m8qE82zvPSfKWxQeBQJo1CCqBAsJCAcEFQoJCAUW
AgMBAAIeBQAKCRBs7z0nylsUHg6kEACBKYoHoi5DZwS7iCQ7R/Yf/UnuhHDrvOxV
gmTE3grZSqnp2//QxrtRaelUwNMZBDBpdP7GfVZojFY6+C8VYvt+J8P3/abWLPvQ
mITJxvjBS24RJk8KFUnv4VOnlbu+QkOw/tDndLRXGtG8vir2xHVStOQfzhakjEcU
DsJt8D54aN6efz93bhuPl67ylyv4I4sBbunB8bG4tI5i0GtDHGU7QK4FYlCvSIY+
ZRuG5EdyWH0a4HzqgZKBOB4Y7i1KendTd2UgttpKKEySXS+wgemITl0hMS4f/iXO
W2KgFEnJ2iU1D7QD9rWh8o5xeIqMRVFcY2oCIWiokf7eJBDVVvLk3guCrWXtABXU
b8HbMRMtjXs88ctk8lDp2XnMX5HGzTHVCjklE6viHSZX/qZDsaTs6TUbhxKwGv0W
Rkz9/WAjU3YrGmJ0WPmAyBEtHXIAIi3tVPhyleF0vtb9ffR9U0lTwjwD4Oy22wvI
/T5e4kGryiZx6YG685J/Awvb+Q7LclPUrj/ZmW+9mJ6OWZ03x19zqqYFZaKYEuPp
XYbtEq/vBNVXX82CWYC7ErhcqTNPsfIVWldZRj01OnHmx6ZYqtUQTeMdeOqTqtCU
FTjHuyr3EUvfCWkHy0m0sWic+I8fFNdtXBEMDW5wnph0e1TWfk47ZtRFcg06XAVf
6jx1WQhy1LQxSm9zZXBoIFNhbGlzYnVyeSA8am9zZXBoLnNhbGlzYnVyeUBjYW5v
bmljYWwuY29tPokCNgQwAQgAIBYhBK2FECpr4c3+m8qE82zvPSfKWxQeBQJnwknk
Ah0gAAoJEGzvPSfKWxQeiTkP/jlhOgR6fJkG7gAh/C+oVaAlybZhqYnm49/qUN0g
twB/2pomKDOOsuTmHWPj8B6d2JSyTfBtTWA8pMAn+KXu7iZkuzAausH3CNulxInm
AJ199+mVDfxAbJ7w+reYWynEUVkuAWqjZmHT8mqZ9GhWapu5vxpb/o+YQe3ZdIsy
ZaogX63JGhv6zy53ghDghZJPWQ3XxXskO3gCnm275vSxIcBBgyTRir0L4CgqoE2X
n2bVo22ov9257Sy/pGx78bUK63cfHJ5S6eXhT4Uoj2e7JNtdqonXDQ4EyfDqZAtU
Eq5ezOBnnNHquEZPxCmiUnK6RoXgtuRAqixkoRgiq4S4e2/pCpb7LKvxgdGGk3ru
hQ3fmuQyZV6eunmaH2wqBmfgJoRp+Yl6moHUSD3KguxbhszcD59UPBCkObNIuSPv
wlQzlnxlr9c64EHU4A58K3vyvOgzOXDt8c8XxfdE17jYesEvw5lqUKLQUOugkdUe
N4LxKUZx/2H8tMY+Xwq0zUco8/x3fwEf2PRyFwJH5CFOtCiQE8bES2998SEglWaO
yWnfarh3blw3XbvgA7SUEln7Jcy0hcB+7Qmn181Q4UvLIIqXO3DffdaEhjHYAeTA
2ztUElww/Nk1c6MOkVMQFA4t1+fDJ9Qt0VVlv4aic27/yYzRuepTmAlsBVVQh+/y
FGvutChKb3NlcGggU2FsaXNidXJ5IDxqc2FsaXNidXJ5QGtlcm5lbC5vcmc+iQJK
BBMBCAA0FiEErYUQKmvhzf6byoTzbO89J8pbFB4FAmjVbp0CGwMCCwkEFQoJCAUW
AgMBAAIeBQIXgAAKCRBs7z0nylsUHveRD/9/jggLlUchHrbD96FGoplv2cVFjGn7
9SQSnvr3ywBqpxkBDY0+9OkYY3wPL67CfvgooEYnKL9MIcVzReHrfQlFw1fKwVlP
QFxdJne7lQThdxOYUCkcqh1vyszPrFHBkR3c6lRJWj/8MJxJsc3JEBhAAEHq2dK9
evwRjyAKIyv942vgMXEx6JCgfX9BnglYfGv3lgSsxtguhM8UvNkec2Z8vIwCUjKR
xtFqKVZN3SyhKqyvZLaR7Y0r2WhiBMsZnqu41GPqjYnnjkTNDAAulwcb+pgVHRQg
auRXUErg0U04JUfyPO0ss3Nb/pFBnfvHZWkMuZjqh7OeHf+29mGPu/AiAB003XGn
F18A3sZlk0yL06AfwvOyxsLTAAbX1XTEVYJqjYsborcYGqLiSGiTcCB+EP3RpULF
JfgW0f38mRMBTaxfpfrySOz2AosAWHI5IRHJ2l5giZKlWDe55rn+hfl/4ZHIvwVJ
YCuVn9PIdmBZappPOP/QovmgnafoVzJHQKhV4SFUHic8Dnme37HMbz6vE0XPmyn5
wSx2bSO5KOS0cbJOtCREdpeB7rMes24Pox0QH9HysDDE60jKyaUs7UXzRYJjYYfM
HBS6HLc4xQ4q5/WdCmshVMcKnVEHzsKKtrRmEEQ4rR7435/PVew5XnOzSZpX2tMn
7kqsSxcyxoyQtrQuSm9zZXBoIFNhbGlzYnVyeSA8am9zZXBoLnNhbGlzYnVyeUBv
cmFjbGUuY29tPokCTwQTAQgAOQIbAwIXgAQLCQgHBBUKCQgFFgIDAQACHgUWIQSt
hRAqa+HN/pvKhPNs7z0nylsUHgUCaNVu7AIZAQAKCRBs7z0nylsUHlUUEACA0VJ3
vYeJDeaJ37q6f9Rw2GTjBclsENoVTFsdYGyC7ohHcwrb2s4I5DDU1vJLQvmkicIn
oj3aCLi/PlZ7CdKPYoJNSzh8MqK4XN8PIhpBxP0WVJOmmgHCeSx8LUKwIB3ZFNI3
tTpsrwpVJjB6LiR6yM5mdmb+a6kXkkAzK6ygAZfflEGaRsHnABSip/9T0InWgXSK
wgmHU/FUjRlzdO1JyqFNtiEWTxYcZ1GZDdy9R+P+eEc3apO449c5rMvhL8s6scAN
LCJdikmVx95arGMxtZJFOiAsOBvr6ccmzRt9wkGYEozXAj63BTcB7ppQnKkIl5rx
jXGs1HjtUkIVjPAAFqaq4Sr5z76ymiSmu1gIPTWuv2y3JkGTlfV6e0U/up6ou2+1
DWr+TtIN9ViQgrLxOjVLODLjHsgh6aIKBMXP01LAt8RDJGKXUDwt5CqReNltcPHl
oDvMXUyKxamyJNTGRIrkaERp560J7OSs63esM+B4oIkv7wRLLNL0KBJDSNbGD2d3
0WEl7GjyJYUfdiNb9kfQT3QudsnCrD+d0fh0s28k7G9+qhso+wxrcVY3WnNY1uG/
00oqE9uC+TgOoUxGhsrYjsQVq9bAFhRFtWEnr1WVGmVckTIjNaxfnPbhmiS6cRCt
Vex84et5qFRBxBO/kGd3+0bG5DHIL33Ag3x0PbQmSm9zZXBoIFNhbGlzYnVyeSBq
c2FsaXNidXJ5QGtlcm5lbC5vcmeJAjYEMAEIACAWIQSthRAqa+HN/pvKhPNs7z0n
ylsUHgUCaNVuYgIdIAAKCRBs7z0nylsUHrxDEACsIRXNAlFF+gqzPwLDge9PmmOW
EW5r5MVRzfFDEovFKulVnQ/Z/GCkSPExcBuiBtSOnqUgT0rHjWbSb4KWobk2Oqd5
9mr6Uq9bb+9oGMOiZ/6+5ZvgyK2rhvScC5G3wf6064o92BUR0R5gJOjg3k+QVhrW
chFTy0F/eNmt70BW1DG9cAshG2YRJyIgWpRMViuPykaEldRU1ck7wNat2wkjTkvq
P/aknzpHNiTvCYPhUYXhSCJnBABcdE6fxTMF2UZDMtStVtTyVp6X/8mMpXool0Xn
o+m8TK377ztLMpI26yNzCp5rcSaznf1bXrGCQqRyvDbOqW9dx030YHxpTuA8rEuN
ef3XJcS4KsL+y826y8762bwAErWR9N0lo+9EDXCpa4pJF+47sDAix1GFZD3AsXHU
4Ihd/k3Ukmtjm6wRDMA9I250wNHNyB8se8ly2E3ZGK3lqLs2cCsUbbCn+ct0o2Y6
uzxI4aNa1RnAJd78/XkwmTWcl0nqnpEz7x2ddipWyS4oUOIW0+WF+MawO1EBSlhP
nL4wSiAel6zN22dAIk8TQCAABEBC7Nx87OOQ4zaO/1KZ9ZlcHxy8OvewIHKVMyHU
ls8E0hZIo1FgtmmDq375w9xS8Ki8bvIUj+eKIcCIyq5JSwRfMalusTRAyacGHAqQ
yAih78rFoRaxnrJRgrkCDQRPCrSjARAAyWo6nTMBXzjYS6f02QCqUpQP8tsv1OSx
Rhzs173tXXyrsghnUvqX6+k8s1rarY6CITaWjElp37GHkqoa7oKWdSjri0+C91d7
gQ837i/vwh4hMWtz9xj+BMcyMD3BkuQkCy7E2/V7N1kAdvpEkTcUpRG+2PLdhjdr
/RsDel6dwYEWl8C4hnoqqctBcbodCZ7O0NVlLCP6XE3l/jAlPvhlgB9UaCf7d8o/
YljnMAK76/Lpn9pfEM4o10Q62c+gCeXuk6DF570X8R/XmfwaYoO1LVQbdm/Djfro
AkdyjJUFFkRUXZlNFKAef0ECMiln6Y+Pgb1aM5b3bOw0h448ezva4VqYn5R6vXJd
irb/K/aWNaqpnGASon79NmMnx4guRBeJdQK1ZrJwU+BKahbTc04V46V9XKSs1/2u
AVOxqpkJNfB9vhagCJI6rxz25BMFqRf7JsjhWw3PbruIqHwR8M4nLXx00GFPErYL
OrHfFE+folpMzZxeD1LqNbVdXFX1qF2fmHZavBpQewrxNG6se8NVUto3tklrlQI5
TBDBYdhlyhnvlJZ5LHVkZQvB6d2ZtRdQFGUYmFa7fd4x0CWPwUVjvbAqFWUlRvM7
dTMzLmCkR9RRwKzY1CWXyMXPdUfoRmuqE2MpGPxRZX19denkQ1bsid5mFq5Kk+9j
DDxX4mZQAC0AEQEAAYkCNgQYAQgAIAIbDBYhBK2FECpr4c3+m8qE82zvPSfKWxQe
BQJo1CJfAAoJEGzvPSfKWxQey6sP/Rvy4H23+B1W/UHPRZG5W78CAFGn0J/sQGRt
STF4gyKwdcBU5el/a+/wVmWqIO1+JI9F8T2Dhz/LGR5qWX21K8pKbqlV+Ifiwnm3
6wOYFvRu5GDUAb/3i/2VuRGXF5JMvhpcnVHmK73SFvrOm6yAUqB/RVWkARqt7loO
y3K3+nbuhegfIMdMu2xD399GjyMKB1/gnn1AMCNyjbuJzVph92pMnMrPepo/jEBQ
Mp/sR2OQQtA1dsUr5HUd60QU3wmFad1nIlbPAoXZ++m54x58yGBC1JMby2V+LbT2
zLgKikO0PA08mSWrXLVIuF6wis8Lyeq45ARvu67TSUS3fdLiJtNKGwKcwnVBb9vY
03Zy/ARoe+LIAPRyku3c3rX3KrjZlho8ngEGWeFaRrahHvnOGNWM6j5j1xEsqm4F
wzguTPZqzW0AZNjoPFqmSDD1LTGJc700ro8vM6yKlg1cspxYQvJjBzfH94sfrELM
p3rCzZu1nazbXa70oaVLxELZ3Y6rIKEZGL2T23m+KiTjRuYTIyjNkSrR29Qx3e65
0QXmLCNKjKTGDli6zJBM3EnD+aQEG/x9VmcLw1g96zunD0B+9W8e8qYIQ8lCOuIh
XE8OE4UrkkZiDsRdRwukZ410Fb/gRLwaTYHQIOd40xhOQYZKAeeY5JQ99cEbecag
rsWVmSxcuQINBE8KtdQBEADO7kkSYY2i7P9pBlnK3+U4aqHIo2yQM7lWp86lYLID
BB8ITjhZmeKhs3IDpcltxIwZdux1IUmfZokOX1JMPWdjdcqLhvGITR7pfMADhdbX
kO2sSLum+R3sUxOmlUe2myY2tIw3/JbOwc2Wdd8M/RL3vZIbIca/5c3MJSq2JCeA
ZO5jw0nf4HNCTiWAIgfdz/qciKKeo1Q4YLAuAHCITwiIdKb5FSPR+gYCR1y4uO32
59HwbkfDspaMj3yWDRH8lctAVaC5+F5gxIQwl4SVjRdxnVz+LAvhMF5TnC7+puDF
3mNhMAoHa9FYCGvHmk4AQe+c5IqTTqmETvZNPZxAHYiCO1kML3oiisjpU8my4S6x
6v4TyB+zBj71l+L3uW2RnfHCYzokXjIlSXm8rTjGTE9dN1Cx2dCVdbJOwmxk5FP3
qawGbcY3Cuqn/GG+gZ60OXMfxI4oEw2JBtHvdSXlE/V6v2fZCnvCmD5Lxmrw1xVU
G8uLXsnzjmzM/piZqTALJvpfxnQEE6cXj4xM2EqoR/9vYWDJyPi9Ofzrq6wIybwe
nf/Rb4zKMoXnaHPwwh7ztz4ZAooNui9EYJc28nh+jAvFX0woy1+106RPPCwC6TQW
OTM+Oj53WnlQ+u6rjuRkXU9QTHQd63K3l+sCZlqrhBXqO8LZXruR/Wha2WZ9eIKE
3QARAQABiQI2BBgBCAAgAhsMFiEErYUQKmvhzf6byoTzbO89J8pbFB4FAmjUIl8A
CgkQbO89J8pbFB4+DQ/9GaOtukXqe+ib3+3QYXV+m7ZZvyq4xO1ey1YdbvL91QYs
0seXmNwdPngTMjiQR3vv8LvR1bjnxEvDVLCDGdszYODDK/Z9t8ayvxG74J1tUiad
ItUvhHiegxLoDa15xOEHLB5LHiV4xjeERe/N0LTkqISPwUYZmGWDiW9QIBZ+kGhp
8s05PdCZ3AMLbQVA8bnM7NHwgS4BTEiRLWaUprFVRwsPq3u6cV6jyoEqWG6Tf4wj
W+kLYDX0MQ2/1CBE4SaSdVTIiKsTBm0KCUXLxPZI/D6OtB2Lye4E51UI42G0vR1R
VI+zm+e6+53Muto39oHLSMYgODXFMskcD4jE31V/EMxLmq7v4gWE49NBcmy6ZQGA
tElPssle+3J6WUB/AaL7AitifwFol/hGQv2eULQ5ONK4YQ5eIaBfiHszNXEmnbSo
mg+iIDCPiZjt7hxpjao4+JJRl4cmd0zWtqjzxJB4JXErjYeBYoPQkynnG5YCx8o7
/LwPx45FJ9KPwcaYSSt+BAg4d/uNKfS++ZTUjT5ThZAz4/vPG6PTyMaH8cmBvdbJ
OwfIx3WjJFdTK4WMh8ePR53sdunR52ZbdnDYiCI03x4PLrsSXzBnOqLa7h+Mt6JD
CWHsDl693ekSqbbDaoaYuk6rIpJDvSXeG4HG+lKQ6mefeJLvht8KNO44tla83/8=
=kMy1
-----END PGP PUBLIC KEY BLOCK-----
