pub   dsa3072 2012-09-10 [SC] [expires: 2030-08-23]
      F0D0377A0D4F25A79238EFE56D40361B6E28C193
uid                      Sakari Ailus <sakari.ailus@linux.intel.com>
sub   dsa3072 2020-08-25 [S] [expires: 2030-08-23]
      53AC58A5F5948636C04A1BF8141DFA54A1EC8DEA
sub   elg4096 2020-08-25 [E] [expires: 2030-08-23]
      C8B372E320CC5D43A90649C7385C2F2F226EE036

-----BEGIN PGP PUBLIC KEY BLOCK-----

mQSuBFBN4hoRDACl9iWcfR+2ErOan4J8nzuo0//ghepK48p2QwaeAaVqcaSv6kEK
yHmkRJwEPH1GvVdlYE+5BfI4MgbvBzYf9M6BDCFgiovp5yZab6PYGIlutvDK2Esc
0FjS1Cxa+9xQezoSx9u5drCFYPnf1RiXSNqx1OYkQ00Rsn5rS6fSCqy/F8B5toar
RfBWQLtcEyz3QhSjuRXit+EbXUXYIXGe+uDBRi2JMWf+GJCElgPQa+/P6M+xCaRN
7Wsc19vUH9xVLk7hZXu9rIzxHzSh4WswaELbdB0slC0TG4vsSp0CwJtL/wYt4qmi
7YtyOTl07dWes2bjdhfG8PqyxY8PBZNMgbTIEbQ//i/bazA0cqKECJ+r3oA9x2Gt
htgCXpbtMZ6wYbF3N0mEO9rgLzBPYpy3zTT0u0J1OxA2XR9//2seWOz76vSQrnYw
9UB1I7VkZCa2R96oJPAxR37iLlBAY9702la4WcZQe51MNLiGJCXH7Az7rEd6I1Fm
uv8CMTFlNzBDYjcBAKjbJ4+7qJHnabW8l53bwv4XkhqMZNGoHSHpXEsv0ZAzDACM
32mfNOZWcjPkQSBlj8GJ2v8uJtnm/PgmkxJdnq+yISUwBau1I2AlwinlV2yiKR9U
8jP+d3eRc4pGci1SjyG/UoWe942yKyoBdxWcst5iOd65TvO9QsRjnYZELSL6SdHe
kB6etOD4/LUj/9svIQzryM39qWV21c0hwfEl3Ii5BQB8nIIb5kyYnTgUcTwfkTnF
NnqHBFE4TxFjJy1ePd/kMskH6zAB5f2hTDQFOJ8sM+ucyR7mFuMl0j9yrKlLvUfw
aBfHJpro7fOjjuu7LrFx9ho16Kq0uSpwDE6p+HueaCpDYf+MnST7/ii9LwT348Ql
CCTOpktqpSfk4qOcnj3SX2yV3cibl0lH2XpyMxP8rKI0KXiSdBoQx7J7KjiTO/UW
KJ5mVvFNGOG+h/4sdtbg1o5BNntjr/vuUkNAgZakFr8xwsxmZNMLOGq8xQJa6NIY
DdHRtXxn66WB60HOaRKSvv6fvyQIsdvcex+EljPDYMKcFeEX6D1RTLKMEa1eFtML
/jvN3kbWei6lHcC1p/PJD8uRrgxq0yXz78J8zl0zbvcgPl24W918lxRSePLjUVc0
UkeCahgZJveEFQ4mkCk29oEOglaomq5yc7JuUIRR4AJds2KZ666AlLLqqtgr4yGo
Q0WwsQ+PhVsZiolID4iVB3qe6d3ShJ6pczadyW9OgFB6SgmEeqhy9q2+DQuD36TH
SR7JZmVY5uXsQ0iTBM9Gq0VVsHyvdSLXWb+tMHi5Pozz3Y3DDFYHhGPY/ADKOkjw
gOvl0APIlyPY585RzyovP0pgd66ZK3gdM7wkd0UsRahQ/piOELptmah2oko60T3a
HGMfwtkHys2+eXwsYzX5r0Fwh+557TFwg3bGMrx/c+IPaYIsc7OZgOnghoooZaRH
HtmyQzvj+/QYPACEstfzLALv6yEWQKPWwhefgtq6s25lW/uZv9akO4xY4LxHGp4g
ipJYBb0TxFOVHRlFG2nYB661ovQcj9Y652c3cTmYtdo6TXvKEWvilugCVFyc5U0r
pbQrU2FrYXJpIEFpbHVzIDxzYWthcmkuYWlsdXNAbGludXguaW50ZWwuY29tPoiX
BBMRCAA/AhsDBgsJCAcDAgYVCAIJCgsEFgIDAQIeAQIXgBYhBPDQN3oNTyWnkjjv
5W1ANhtuKMGTBQJfRM6UBQkhwu96AAoJEG1ANhtuKMGTJ7sA/2WeMndE/00oSpgx
t/RckZzuOUuQlO/j8+N0rmziRMSgAP45M8RY+Os9mtpj9p3yeDuP+rkiE7h6Jljr
i7yG4aSrXIkCHAQQAQIABgUCWfT1BwAKCRD7Nz1F+LNtKLjZD/0a3W7dg7n0rqf2
+MpIukVq1AF9oCD24FLubLhp7T4ab1d6Al8sCqZ6xSX495EV9v4lr7Tykg07XncS
mbFS7EkJTZygm6iANLmgu2MyzwZ7gKDV622/TB0LV8vbTkqOUNzEF5b1OdXPNeK7
FGyUGOVt0NgKFzbIovO9Y9upa8TpA06wiqSUM0uhn3jDhNdbN2yc2M643K2x+OlS
37TINhUAtz2BUFtQrewNvak2iWV+hO76aN8JkNqCQla1EuZN/dEGN06W4mlGT0Pd
JI53GswPj2bjcSM7C6G2kWtgo5afXa4qdArtblwEoQXjjDpji9j/JkDHCK+GFNTA
cxi20T5wyc7dDxOtfpU0XIbtwUVPC6utRBR0Bz/t/ggmJzc+7YhrtRQI0wey9uqm
BMhXOIrfIyCI/llTFeSv9QvsNLx5i/cfm5u36T+NU44e1ggtn/AY45DFffd7k9XZ
lsRxTwJN5dbKwjMkqBe/q0G4skYXv98AmlRSdI8WISxfiPYo8VPvsyCFMBCWLDD3
b7DdoEK3y3rmt+kvwsqaHD9GDK4WOCEoRO0Bfespf3rjUF9Seh9v47pHLSwbUZBj
WJqFKLucwkIDlBf6GLXbY52jbSLd86Q/Mh1VcdvyJBypgye3tWL3OZtdpfDBwi4h
J4PTlMJ4bbuoeYThyB3RZI4DQ7eI2IkCHAQQAQIABgUCWfbqMAAKCRAIXz69juTh
Fe5rEACAtTY0/SEnNABhdS/duGQvYETOh3t506U783JZKzIHus6dCfpA91BJHbcU
Lwjazrb0srevutZJK+Xr9MsXhK5MtzfSjh/Ar8G9j6FDlGQ4ePaOgvljMrNdQfpr
ku3h2WaPOnsKbq9SVSPPvbE4gGlIfRznUUrHdP0MiGqDEt+dXSFMYdRz1c1M/q0C
X6skLn7kLOFTcFEcoKJItmcdSzdSoFUuznQ82uwI40LVJYjr04yOBUc7+6C1Ke/5
jQTUWWX8RyzPnC/WvzgG+72MKq362EXTCS7mTyzwlAFH/zXQIR3oOJzJ7iMPlXSE
VNnH2rsjsx9fg0uZhEAaLx6/xx/l8Cbiu2KUf/WApl0rTNcOqVXuyKv/hifJ6Lc9
Jqi3CguwnnZ0c+X2fk4YIze709P55P6AtImIAXdGe153FiyvFNB4g9yDMJBhJ6Z1
H1WbzqSqM3YxWWtQg3hhWGGEnT/osNHsb0dDHdQuZfqFMOW74nXCm0FsNejQ4Nsd
WiVakCZhgcqC3jYdI+refIur0Zt9pn9kBkvmnpmXAV91Zt4IYZ25fueuBHYx3tJA
v9XDWfn5SKvop9rpsUF/ub3a1HdadnR2WGru98vnyYI41iLZCil4NY6XUX9GFbHV
ESvr0xDY637Z94xl3bz5K9+T+4BobcMLexycmxB1UoBuxgqRz4kCMwQQAQgAHRYh
BDpaZgiH2ew01mL7JwSwjI8VJPr4BQJaGXakAAoJEASwjI8VJPr4TxQQALgqLY5G
pe5zS8wY/CbCpNF4SnW76E5CEDMi9upjx/3mM7zthAFp4C+IPHf8fGO2Ipg5RDIq
AhLXEDPZ3oC8PUDN3ur+LXAvhjOGKppBChXyHg9GEtHLorjVnoHgw1AkC/WDrfyy
3C5spgv16sV//NmexcjD6v/qJ5lhUjdP/Cg0oHg2tPcL0n+Sx/xtIRDyhSaLeRCe
CFrWQFvHv/9K0f5fPD2E2dhb23zS2cUvVLLXscNB0QEL+YU4L45gsN8q+8hnOaPW
ICUyfueVDsKWlvSU+vRQxBnX0cyqV65E4EER9Ib92mVD85diWjuh1aL2PRTqSlwg
0Nlx1YVwjsksCtDp5Xj9m7vdiv+Gz68/KdflxX5vts7L0IY9zUyzsrwAZ/1dlmMD
linrzyWknSeod5CgI7cJbmeA4Kj3oDHQuwShyz5aR+4mhyJXKIynrt3i2id8Vt5V
NnGPvMoG7WW9nMLqXIYznhBxq4a7h5pTWOSng2cy/2tuvn+POOyp1aZ3W7OtpY3h
SoSVHlCFs3HE/ZevOm8r6lsuPXNiWLYHRb9VrYYZ9e7b/f1izON39f6t594cVkyP
bfhvUOzXQj+MejXGf++wJGDfVxtjXqo/ZJfTcP18QPncVxRTfW0kgH56bNT8xBEY
VmJr3IBM/hgwMYXlViRwDiGsXpMlUxaxT/iiiIAEExEIACgFAlBN4hoCGwMFCRLM
AwAGCwkIBwMCBhUIAgkKCwQWAgMBAh4BAheAAAoJEG1ANhtuKMGTiFEBAJwHqFfF
tWuTy4R28rxCTi9neHnZ30+26SslUtZ4mHivAP94XZMK3HFGsPlip28JLyM+psz+
CYEbGylNeVzJfbPOX7kDDQRQTeIaEAwA5/Yf+rf8YJn0Xd75LlHgzkY9Ygc9fdm1
CWD5swSa+cu0GvwBGK/3B2CcvS1/iPAmwzhb1GsGV3lBceXVUhqpuRsn9nxK3f0y
ywLBD8CCkKHVcgWzwMp7SLNbx0h9hLBTiYEITzojKvX0b/K4cz4aq7Zb2XRZcyOI
EHUdtjOSLLuj+wBxGjZyxZFibWc13OOSo/GK/1YPjS9B2aPxOIpWTX5dBEubSTa3
sE6h3tvcza2UXQzb6xK/f5f7OemUJBs2NCN5ccR/Oc4eA+nizWkzIC5mn+hAxvcP
EzHq7OFZ4k6/zMkQ74Xg3mzMlFus1vxv8HYIJr63d90YBYV/1Ddych2UsYKAqkp6
K4wUMh6qZmy1ru/P+1S/P6FCavv69eP8bpou+l/NPjO++zkHhjv6B/rLRXxHCwHt
fuL9hpLCkigb+6xs5BFvGmQb6PxSHr+9L8T7LnU4M+0Ov+8CLosVGlOtGr1Km+of
TlD0gcRJAHVdG1hqQfN5ceaZnePYMXsLAAMGC/9eK9HbJbwCS0M6lyLSikNFgzAP
3JYojRcBvCBX6nhM0bCcer0yYZvSr/pJM9MSVXx7AKf6b8sc5WUr+5Y641nEVzYA
dKQy///J1vmTVImUZApo/EQ3bTkGNDhZKNrcMBA59mCVmPquCvw+HyBF2u+GmUkd
gX42hXsBRZGS46/SB2CDl4OdSIRmRJl/YWKLQKAM1pqtN+dE7YyVMWYPOf+o/H9I
RVzLLJpIUuyqFWTjBcrXLx3N7pgwqIXDtypxK7ynJ38mE8KR6advjGTIArmmL11B
H6IjI85QxfwsfxP+S4iZjPgl7XH+HoRQX5KHeWCga427XfbFv6ABaKA6Hf5Zi33G
zNDrqCj2M1DHtP4GGR4Ac68Ca+PzUAQltLbriAScZw3cNhfriM04Igeb9wNSXqnT
Tp2SSjfBb9xnTJpg4tDR/O2nIA9i33ayJj/Jrdx4lC8JLHUPNeZHRYUxH5QJJaBc
W24JNO6oq2a9TPADyUl9P79hYwyjWxIkkmxZ97KIZwQYEQgADwUCUE3iGgIbDAUJ
EswDAAAKCRBtQDYbbijBk5gTAP9Vcyj4usyR5H7xZajjlvcHO9totzMxv4UyFu4o
iPDRWgD7B2hYaUGkOi6DobTllNI3NBGoZnXNcLOWoecbORKwIt25BK4EX0TPuBEM
ALgQg9UTfISi2GrNRdH3HJTMwNXJFzILpe2BnubXBKF0nKosqWht9El95cGqFERS
dM9DZFSef6LMwPBsqmT5PGLh3vjAO2GtuyikHUl4SbxYAOpxrEkA/zU+aCkK+yVA
ZsWzVOTt0oPYYvYBpk6h3K3nCM+ETHAkYiop4wciX4RUg9jUu7950J/SS87q0QrY
1bMrO95cMVR591HD94NkZCRtAaqJTc+DqzuVXqv9OrcdII5DdlITF4kVDk+jVzc3
tbXoKl3toAeUDTBbN0zBz+4EwILPomI7S/14vemakJbg3Vm6LCvsdn0KQjfY7LR9
nZn1pxJy0Vml0iLrIdUV4qPLbswA6vipU+BNsXoIkS8FL4g3lDZ6bVSOt4mEAjvs
aSQ79mDRblyvhPA16nRQhQrTC5mx+T3VhU1wE6fkUp7nuKufA+vyXkt4YgpMTmpE
IRjMw4o9RYQ8gcfC3+TTg+LIEgy7iITBxtJ3QfLolCA1hzw5PygavdgFVWrLT+KL
ZwEApYgybmDuWpnxBt9PuxKpY+mG//8DbOnd5gGOPdFTbRUL/jfex9MYNkQWIYrq
QAFpZItS62HJrEJ4oI19JJ/BA0PExok8ne8uZxILDxQGEUf7CnMa4LwWGwdy1LUA
NsqH/DYSxU0gVGwRu3vYj6gDhiA2baZQ0dKW5PlvRaaFz+uE2OLqFkG9hdqrsJS6
JLj8AKj+RAvmv6WAl36/fiE7R4Fiabn+Ixkckvan7hG6czna3ofAQdsy+0wkZi4U
iw3oMtWvx9QW0+iP9wJ0uUW21J6TyoIOyvu1gNSnKZSLAePtI9tCf3DvWMpSMssH
Eo2mTI0f42fU/ONQOIUn3sJGA+1Xj++glTEmunF6bx9o77ftD2SoYyT/JAXVU/md
eAhe/EGzZWw3WsHIvXEeACQXQKnvYKcmhIMdW+xivmCRDFnsKiIYGf53rphBCh4e
jkjcSLzt2cY2Fk00KcEc3yzoLKCaGPrsfgMn/gBpa0oelKTSpK9RscER37QYyF42
2q0gAbxkoe6kuYZsMmdz2BpasGIwp/zwsy6rG8W87mdOjCjFNQwAqVQWC/tydwhj
EMCOOMuiZNJSDcswyaoUNu4U54C5GObIDgY9DGrgI9S60V4uhqJIq8XTNL9Vgd+y
TnLP+2jJlm4kaMBc6GLHK81MAxozV+P7Dd1840iJy6Q4NbNRAR+oJtfSzIoqxPg0
q+OpG9AhlyBTtrc2OiHjMOIi9STqfxpUaWTkgiVznKnQd/HuBaoyigl/iNebUHqh
xV8b0an+aw6Mx5UlMV/9NEEXf4Eb5DGSC1Ag/hW7p0Hbdhyt3iZIxNzzvqn6+kz/
f5iYGnCVVbYWIl4NizBFs7VUvyyPdu8K0aJKdGOuN84qepQl4V+aEcc5BiOijX2i
nDaR9tPBPB0qKtIWjZJYgCwapOka2jkvwOG9Q0p6yrhwXlKtPF/7d0SpyKF7T8pR
8FPITadswHItNwNY695KIvuQcunyo+WHvmJkCV7eHU1oe1d11s2ylKLpYU9C2qoB
PbfP0CDqblHM0p6K9Ao44l3USSUNhyTOhi/SSQR+IHHe6WL/hiFJiPUEGBEIACYW
IQTw0Dd6DU8lp5I47+VtQDYbbijBkwUCX0TPuAIbAgUJEswDAACBCRBtQDYbbijB
k3YgBBkRCAAdFiEEU6xYpfWUhjbAShv4FB36VKHsjeoFAl9Ez7gACgkQFB36VKHs
jerGDgD9F1oKcXwkwL68U/LhUPY2P/BqrbwjZcSr26SSWZ05T5wA/2PsyD5axPZE
HcwOtnv/qUAUNbbzE3GxWBtayfy3VmmzCyEA/R9YujfRUmUuscS/yR4ReYL98ZAd
Om0UHZ9pFgJQViFoAP4j7cyldhz72zl3Ke90FCjg4L/c0xjtTDa57PC+u8e8C7kE
DQRfRM/XEBAAohYk36MELOGXIQtrSNCla1TZYj3X70p+DSb9YUsXsKjU/YgEHLEK
c85SyU+50H4ceXKd9hY5welIeAJK6icsguJUlKTdhNoV/ys3xhP7hte4tCQiXiFy
9Zvyr4cSltaB7x6qAWMgz+OvSYLX3SB6yvbgYXMevko+fgh7dDHMfF313PeXuuEb
pO+d2SWQtTYd8t/xjZV5tZeJxOONnE2+pViyvb7hgyfX/OYlLI9ZPorPh5Nyo12q
mkoZEQNLOyo+lT+IxzfG2Kp7G+mo8iCZtVKno0+7dOcoO/yphu74L/cQbC0az9oi
IUasGLG8DA0TgRNwArf/rEjhTHps+GfY/X+rqtKAxWivWtVVr6MtrnXuQgQpP5y8
S/j1BCklS1ZffuyPwRF1DiHyXrK5i3jTJs1djugVMe0zGOVSYyoe49HQZcb406+4
Kwhai7RQQLSIbptMUrFFvxRK9PF6O4/2TWM6sDNDgFXFpuue63BZknkzSzETJL8v
VRe0+xw+i4jr/xITynalOmiEbPThQTULO0PMVqcUAKxRsv0HmX3RswueSY/78uiP
Fvp1xd7elwfJ9IuykuqQ4NV6vFz6YwJvm2uIXB2Ln4pLRaUgNxGk4q7CW6Gb7J3C
cuMM+hf7MZ81NKF/65ABi1D1fsqxCQrumv+0+WOrB2hTmvBUGms5oesAAwUP+wU4
HIAbW2jhiz+COPt/zJSComQEgmG44gZrbRCvC0Ya4YqdrUXlGt3+VXFyOVq+INpi
8Gwh66kmBkpaa7CHvI/yZjvhk6Hm23vXVr+tZk6sQirBb0T7/R5HsrguRWUb1Hye
Xudm3xWxJA7Q9onVftLhAT5OG19y7SDiyaIRX9dyw6z459sUt+s+nFkWv2je6Ydx
tXNCkGBh81Eo4kD5tUu15td0bQSy1FFeih2xcOSWJ3KCd4HSWCCVf69OJpXrilA2
7AbpYrqsLioUnUgRsEpXqxJ5EqWZCuzY/UCaqVdFsYn+bzhAKDea1r/4l51GBGWl
YCIBeDUs07hgSY752DNgp7UcgHmgfPWK7kqRD1k8eK9kIyVavm8x3IogwzyOODSc
n7g89L7oR3MzTcGKB0NsJyw73T/2kKc8Ya/7hqWZaFcJBy991kiVeHHiNTqbe6rf
g4VjjKHNUpVJLugWXxicFrtXOXufKccPRKCWhklIRGeMzd2a9gc0TYil+N3i+tzw
Lzsr06dREmtaKwbzvyeRbeVgm5V4YknRIaOPHN6GGWVmZfBIj2Xe0cvoADTm9E4v
UOGPujX7yIHxs+3BD9VfnFHCod10zJeAiM8LY8m6NE63C2wQP0u/Mxxuo/CEvSXq
JyqZ4ShqQaTMIwbMm68U/co+oOX3+Hjay4jyF9CciH4EGBEIACYWIQTw0Dd6DU8l
p5I47+VtQDYbbijBkwUCX0TP1wIbDAUJEswDAAAKCRBtQDYbbijBk7zNAQCPhCws
3FvRx6jYtPVhaxnVxHhDHkwqPA5TVULMlYMYcwEAo06ka4TlwHSPCNyx7Rdjj0Um
9s88P3J2NsSVE4ZlyYc=
=OnVZ
-----END PGP PUBLIC KEY BLOCK-----
