pub   rsa4096 2012-09-14 [SC] [expires: 2020-09-10]
      9691CFAED3A4DC8623C4D33A774CE9C0981DCA52
uid                      James Hogan (Personal) <james@albanarts.com>
uid                      James Hogan <jhogan@kernel.org>
sub   ed25519 2018-04-22 [S] [expires: 2020-05-06]
      BB95134159462DA9F0CE54BE35CEE4862B1023F2
sub   ed25519 2018-04-22 [A] [expires: 2020-05-06]
      5159600B821C677AA9BE1F140E001B72AA49915F
sub   cv25519 2018-04-22 [E] [expires: 2020-05-06]
      34921EA48963CB5833B13822406585BCA3A3F126

-----BEGIN PGP PUBLIC KEY BLOCK-----

mQINBFBTj1kBEADpkbY6rZ+vHa7qrOfPGCsf53reAQI8b6opeCRNXgstc/aTWmDh
U8KpgeysTXVNeEOmTeh8SLWZlj/9IpCpeM2QcLjaUTwB1Q+15jzKaUj6qJ3H78Gl
sokTBZM0PEPkUSNP9LjamjXWX3ILukWtDliAqYPv5ffxJ3gF3HQ/1//90G4N/2Ah
ZSnP+XxWpgLyW5bXmRhQXHKqM8cC7zOl81L+3ttK14YYTS53k8/15lCQo43NkMOq
T+R97Igf13dSpLAsD3ax3iHliNwRMvnSZrT294uT2C6SoPD9r/e9lpNMAgDQig5f
rZPWjtDZGv09UO193DoI8nAfHwmMYcnOWJwMDk86gr0N9pGnHdOmXawqJ5xINFau
9z8SBKGGYquf785INgTmCP3piT5UXRZklRspPJP301jqxbRSmg5xWKC9BdU3AN1y
JNp+mDStd1y5aZc2QqDjfVahPNk0wOuDtKhpJP/8WK9xVdZpiFzAxPTCoJqWN+B3
WMRPZBoDlI/EvHtae3P12CxCPn5eO+xV6RA55o4kbsg6Rcv3muNwY28StFRfuhob
o3Y/a4JzDvPgo2Mm1Ca5TG7x88NLI9wh5y0KEV/qFJmv+cG1ZWcmOr2yU2w4AXjD
hL9u9Dt/D7zEDSiWJ2xjGFOoeiAw1rLC8/LH+K2R65u9JAmh+/xNDILMiQARAQAB
tB9KYW1lcyBIb2dhbiA8amhvZ2FuQGtlcm5lbC5vcmc+iQIcBBABAgAGBQJUNVv0
AAoJECY38MwAtnaCe4QP/Ruf9vWMT643KSTZ0G44LUhxt3tFMpqB8g8RMqKbrWy/
rEs6dbvdw2r/qZo54+KscMIH+eu10gLzAyOTtHVs6c5suHlxZgG2wXzAjA027qzn
q1/H6lOXWGabKMCUiLQcLgkDA0IlI5YmMhjJY+OGVQbc76xnthSvcHViJ0/UGOlF
V2j5q7k7nXSZsxj1J9hU87PCFkgW1I+WEh3k3+oRGmMetUSptgxS4UlAvuZwTGDe
I4Cby5QCnIvQEIljLFhbtREE5W/KUsKB9PS2/hZ8D+mMPJ3O/Hqnj0AuAtg4PDTU
5ftq76VpWLtl+b9f5W0JZPA55IsvcVY/mnjb/wwJXPwtsdjlGIzezzHte21bJhvM
XSiq+eWe9y3ZR4PH6fUpLToV7IwnTuBkYBfjHUx4WkpxGtTl5KUZPQooaIYato9Q
onlk519FOy1gioXiJ4guskewUGJ9UQ6Iw7MB6XDYpurVL5othQTuSk/WfVamM9F0
odmzboAdLWxpCUJAnzejhVh1zsFslr7fvr9PraWy2akJyJy4ilu5fptlVjj0jQzK
YwsUIH5bnw4TgdzeaE6VKi0zb71lOs3NmBVC6MwvQbIBNNPTwqUDx3kXDVeckVae
+2HjFImNbWMqqqU2oZs6TAkhh8/8mxqaHo+W+pbtDPkcPpufJSFSUxG/zh8zu6Q8
iQIcBBABCAAGBQJTLAz6AAoJEIIg2fppPBxllAEQAIT5rlcFIjidqc0SQ0LYq9WP
NrSOym4Vrt9YI/CRiM/Fwz1o36K1Sfax78G3BbDVRFxRWfKn9Tnk8IW1CncWkjsC
W2N5b4hc4LEn+Ljc1FDf4BpqylvRaPnmi0OJVgGYNR5i5S6b+/O+VD6NQP1GP9Ny
Qbfw8de60CTC2/vtyWLWaPXwE87RdqBPNP86kFgPaJLJwOuNyTP1zNVKbRzk+6az
StvijHmC/e4nu2rV5yktV4Y+5amRjRzCc+1pM83CTlI/Si/0+tiPhvUtbvg140tk
r8m06qVEleckuv+XyWUCCQZZC3YoQS+ks2dvwUrjrhlXGrsLHNAZ/n34UDbyIOyy
glphUxAKFhXYwaSU4E6mig72Dds8DpQibACkE2BeDfV00qH4P9XJMnaE4nYYo5nk
g8dWcH7a5pLgHqd3hGlmGQXAY4rKfXg09J3pLoCkGqg60FocSAd26tLpDNL2ItvE
XdEuL9ZQrzLiY2Ov4pxoHWRCPhUwGtM5ZRRE0zgDN54SU6p+AcI9HZAzdE0Rc4B5
4NLatCyKLdN8Lbf0Qj6cH4A1gWwEqcv3FZ9GojweBAX/oRhb7u680pJWXxEJ8Fef
SsIYXZHpoIzi1p5nOqydYDazu4HJks2L3WnqvNgoFJhHhOe5CjXtZf4C39hoU9qX
lzttocvtoZlMZhmQlKKFiQIcBBABCgAGBQJTKTCiAAoJEHxWrP6UeJfYuk8P/R7S
mVV7HE8vEjsmg+15hkJayFKYXpJP2/GwkFPHcQ3aJLaMcV/ez+4F5l8OeFSyR/m/
zM6IR/22xnBFjpDnc+cSQhjQysFxoomZJUPI4sb8ItVLszq1DBys0ltSfqOeIxn+
NJ/dLz3IAsQQHlWQiGJDxfbSUSv0ObbD8YTKakWOCcq3YOVFF4Qs16upp8hFS6ei
xOm4+3IHP81WnQ22MIlUsU/knEeu82rjXCj9NCvYe+EGXLF7+g/Dv7y0SRV9NIHT
iISzuBpG4H/IGhXHQOcp3eD32Z0ZWTbl1UV55YpsNXdwQd+NrqE4xCgqHYpWFuFN
dGvrr0NLIUfF1zaMYG2zBinhtRxODOXH+ngKwW8VCfIGF0uUj42rNRDC2vGWOIq8
FvPl5EBMCnPq10K/G9Bt52xttk2+SNvg9PNgelcV50fBpGNafUtrga5U1wtVrAfh
DBnhO6ccjFznXXlyECc13JftH0TbZiTq7unr1npX5B+k4chahcLykZA7UIQQLZ3c
/jNAnJmOd8fW1sR48+JsIMZ7MpnQU+KKVoi28DtPL+oykNkkvWptRCUipcIYa0US
5kHzohyvk5nBWexUGeTBsvcVZoAzkT91LRyyAeWea+rHkC2laDBvzd8v44R7nE0a
Gq6LApodVluvZ/ZkKWQHeOYjl0N2e3dRMFBWg6DfiQJWBBMBAgBAAhsDBwsJCAcD
AgEGFQgCCQoLBBYCAwECHgECF4AWIQSWkc+u06TchiPE0zp3TOnAmB3KUgUCWbZo
ogUJDwZzyQAKCRB3TOnAmB3KUl9sEACkTrCIgFGRpKgcvAQozgnPVqCzcwyuzBle
RhUtMz7y5wMg0lgn6wvyOlZwVhpSkSl2SssOhnp3biSm1FtWK6IxtMKq90hM/aDi
UdLBETdLhqeyw9YrdD7Ia/1LxTxqwCOLP/+KrZvruEYI25Sspxhp0duZnEWuzY5P
ZfnmIqroXC4GAy3RH2PRGLQMRY+SnbYcc6ZEZK1ZFZsIfUms3v1RdfrALCmP2IMo
tZYEIcC1qWWtci0f4fIngKunapk2hjFFDZ6JLHMjB1dga6zwNCzaKpFOhaaPtTU7
G/wZB+DVAizKddUN3NxKapGF+Tf8aRNeJAqs7fnRB8pyIcN40LblTW8fu42/GOth
hYKczxJ0GFySwCIrNa8j5ztjgQBhOIZIdxxxioB8mJB6VGKlG54w9HuJW7ZAsRrM
5O5LyWo8MVOOoxmOC2Vh6KS/MMC3ShaELfL9Js2YhFw8JjgzeNc0sSMuIIHl1elT
Q7Yka2O3bEnKTDTwuEht0yZITjmxjYRdPdv32xsvniYzxPmJXq5z0RJfbsQCuBDZ
OlyKCM2mGrY7jeap6QRX9ZdCK+Ln/fVp03jdLUcOKKpRL29W8CPgtiLs8Pd07Dmo
ShPNowEVEJz6ZublWWKziD9mOFaZWgwkyctkq4L3zGCXA0S37ZqRthDE66G5bQkC
VazTH92CB7QiSmFtZXMgSG9nYW4gPGphbWVzLmhvZ2FuQG1pcHMuY29tPokCNgQw
AQgAIBYhBJaRz67TpNyGI8TTOndM6cCYHcpSBQJbKkkCAh0gAAoJEHdM6cCYHcpS
wfYP/1tPw2rTXQhABN43vVsiGiebemkeMgU6t8arhCaCs4hK4buJ+lx5fPYWCek8
P5PoOoyB/oW/UlU6Q7P0lVJGVESkOn81FCv9ZXR2il19BaTHbpGm6qu/VoVEOniA
E4FLhzVc1L/AkAVcz14CJUsVpNN/jg/O9u7YbAvxQlYMG40mLgg7mgQZpKP6Vdnp
Z6M1wVcOVcvz6yub51DGkTuMoOEWx/3Ntms77gPWhH+ypCyl1uusrN3yBjLhVck/
cDsGodItuK0CP92D51EYdb6Mnpfag5wn6qqqZ4I7vUyuyu9s6nVgYz+crbrlTzAB
MZKukhOmpHh8eCBOR9yau28IxO/bEvguly4JZa78NK2So2lmcPnQ6DQ+zJY6sWV9
7MkgHKYbQhR7vknDIoBcSwOaTziYKq3DdAcXdjtYmfPk9flirk3voVI1TN4dNeBa
dau+BH2MuroymGVjTcZgy4M0g38qHjjATVq/xQ/Jtbdiui43Ybqm7A8vVUUeCpaB
JiKmRsrXxrbdbNz58OAtrQZws8QRlKbyxB9fxyfpVj7nUb7bNk7DG7FIgPsBr+ws
QrZ7MBWRt0ygvca5tMKfjn1mJFghidIJ+8DKNAqzaSeWfN1YJwIx9Bk1H3gADMTF
10qwNUKZRuhWNvlWR0UiMspnj4vFZ6bS16WikxNaJ4/C1qjFtCRKYW1lcyBIb2dh
biA8amFtZXMuaG9nYW5AaW1ndGVjLmNvbT6JAnEEMAEIAFsWIQSWkc+u06TchiPE
0zp3TOnAmB3KUgUCWgrJ3z0dIE1JUFMgYWNxdWlyZWQgZnJvbSBJbWFnaW5hdGlv
biBUZWNobm9sb2dpZXMgYnkgVGFsbHdvb2QgVkMuAAoJEHdM6cCYHcpSisQQALpw
CDgz61AKtVPQm5osuNUM9foSZOF18TqRmkvVchklqGptBzO9WkYOSZjQQ1uAoxnu
9Ah8UUc/hMbDLh4/k6tlIZ6CtBa/673kQZQHE84fjr2hxf7EBmIbRT8G0jh8Jpx5
vtp0QYVUcOzOQPnHdaqNATLEZzBNNUeGiWWCUY0suNEI5y9b20iM05VdQBLh1Kc4
UtRgblIiYN773gRnBy0KX89ZOXZ7kZr7l6Ach3X00CqTZuEncI10B7hhbHRdB5WH
Xjp659qH3LicyX5HltPwAXEuf9XpVY7nbBlYHxcEsPcTr0ecGmnezZk/6gDHSNn1
ySKmHXJp993dMMkuFsbitDTG7yYQRx34JjvHiTSV3ik4ufVuZArLcoDvRyncrkTn
R3e91kLQ41BRUiNVhIg33mmFien1v6Kvz+cZSPL9pyTftaBB1RQ8LYINtTjk37Ov
JbniX+Jm3vMD/fU7OeqLqyyPL4PHFe0sKwxlvaegbpQqICTBOEVd6VqEOZaJpMSC
bwhIpXyPOo0gjfp44t4n4pDo4il6U2GfzHvbhnEkWahwG7H5av5qHYptuzxTkMzP
xOr6jsTbaPiR1q8vxlKU55tua7O+lXmbZZYcD00uPs4xr2dVMfeZLusQcb1Uu5+d
/Kj/9x9GqouQ5Tg5P8VbLEig/TPnBo548xT7yMXutCxKYW1lcyBIb2dhbiAoUGVy
c29uYWwpIDxqYW1lc0BhbGJhbmFydHMuY29tPokCHAQQAQIABgUCUxhArQAKCRBR
r4ovh/x3YfYjEACokS2lxt+vUbtTSl4fPfyy6FknkgQMYfArHpE0TbNDsN4dZzWF
c/H8AF1JtChFymIOhZ0n5PQZSTzIJW015PcsS9po9XOmpEiGgN1QGXF+P7gJKjzp
hlhiCv/C6Wt8WKq4YMi+bPXo6ncgVfcGlwwiiYD7fxBxlsyspUTEupbtoj217CLr
qO0/Xaxznz9e73CXqkVa2Ua/P58eN/ohc6OBQD35m896lNYat5lu8bVWm97iivaO
MUps44ixHx05hYQimFNmqMg/dY2RWRu75cBdX1JqNz9io2zdPe6Gwsacc0Fk/LTe
25kOND+tidp4iHXIL+XRXPJydSW3FRDNn3pRnX5g2SPhNDjasqnglEVCjfW3HCGf
6xrLEDrx3YhaP33Tc8UcbGA+POv7b0sjen94oVoASK+ZNRXe2VhYqWZkDvtm3mjq
PcMvzNZuRAVK0Ze9V/WaAxSkimAuRchT6Z5K9P3/G5jgmSA34QGlXyKMQwP2m8Wu
8o9stC6H4GW4TbetMaJhWWKqXcJ7hOBoEpU2w2VxPpEvHD7DDnNoAWpKd3aVsWRK
Oe5eawC9SCfrhvBeJW2QnhalrGZHjmN2PH3cfoQSgRfxzxu/eg7XCDVt6fN1hV2v
ktijRTTPDEKkI+ljNsJNqsy7vvoTri5FdHPuFfHiB5TMDdCTH2iZtaOcyokCHAQQ
AQIABgUCUxnQlwAKCRAvOFnAjSM9VfKAD/93fQ9XEhXpx+v7XZ2AwejIdlWlX3d3
9KAh9/zsegiyLjHYFNH4wjCNxyV9jeVLRPWdST0oh7bdHaJXz4DDk/mVUoE9hpoy
ba9bNKtSocCXzNkabH0St3QGfJBVd2VPoDoXLNYi0ocP1qb0JGQwsQZwBdpPVM2+
wyDgm480Ac5vD7Ed8dqgL62mGfgi71wvS74pP9/SpyiOfLPYwWhaIlhYMLAI/UOx
CQIq/iS771zEiS2WbB5YPnZEGiLoz5zbjUWN3jF2WNP+m0rwJOkz4V9MvrWHzwye
CrMpkIHY5mghfm0bC/sFX+FTlGf1GL77WEYxsQy5QyMo4oByk+kmTs187xof2TuG
TtsTtlF3oOdC4P0NBykO7TPajxvzewZUrnWRcueQhTArrBzkM1xZZs+hp7Cz34/I
p0KzpblwJp0YwPuPpdyklcKFG3YUaLZoWlimCq5rHE7gmVmRn0rlrwKsWj0WJkAr
WEUo8Q9/EU4qhR7gKWRRh2cMrf16sKaP6V09PdUNQ38ZaSn8PdWWpHLty/jRbVJZ
Fm+IKyx5Nc+CQp5vO7pNOaDpHlOaUD9zEpjSVbuAGrZi0SXSOjTALIYPcQfP2ZLw
Mi1AfQ+uKyNcl+dNSrvT5n22FQdUmLtino8PffhSEt5mCe75UjUqVmulxek54e05
hHAWDdhPzK8hDIkCHAQQAQIABgUCVDVb9AAKCRAmN/DMALZ2gu0iD/sF+Ah6j3Hu
2lWAGxiF3UPYTbherzYQkslv3rdeHDckKcH+J50A76nFxPVWYu+BJ0f0S0ruVo38
HCel1cUVmKMMk6BY8zEoNb2FgD0XhWD/osNJpTIcYzgmbnw7ZRaTGMsLCiCdi7m1
Y44VLJM3mS17Hg/pd9gquZk1FCcWXZH4+FFQKc8bMfTeU4LoYntvJIgIH8fVUyW2
kQ9TutgIpW4s/jwyIsDiLoi5bjqVwEyxDwMgaPYJYIhrmgJCuhgdRaNJP4kLR2O9
FsigjRidXXdegyz/b8iFynIY1hSfW3JahL6mX1VW3oNf+Afk270Jgg7GruqlJPJI
joZ+u062+RQxtQ4y3QIolKM/PB/AX269TPOcMIVgcqLdReS5cVdafrvjw4XexL5u
wjluk7juopLncPd9t/u19rrw2Met0ykAHXNdikC34VeYsGhd6xSCqbDl632kcjFe
wRcmppXkGRyOJsOblmNFEmt/OWkcCwghKEZbsnDv7FTfPZ1edD2LKIDElYdsUVR+
3X67TvSWQF3TnkrUiJ4csgTvkQxN4H/bCA5a634JizM8xgPpQ5J7VC2AjqoRiKv8
u392LS5HLFaQJQq/iFPzxPDrzwaEI4/fulfXZT3nlisbo+EbcsemVnFM7wR7rRtF
FCtSkR3D9lTBWlKDjU89awRh0vQbICgS54kCHAQQAQgABgUCUywM+gAKCRCCINn6
aTwcZYVlD/9Qa2UZUlphurNuX5aO7/NZ76l+YiSS70u3FjTV+MkSRNP/zM11yI4k
RPsuoiQmmlXdhVDVU2Y3D4cXQ0IWWDV+KS7BBQhl4kM3KGeNKamJ+jdGRB7ejE/V
PhVwI6Gttdr0yaK3X152xaGVoyJRlLM36uRW/78k1uFDccC5oUFte1yoJvfrsp9n
nCt1TMepq8AL8cfizvg+ciKbu5Ptdcdujsr6GO7HQR+C6ISAGZBZuR+lkK8EkPyI
UA+0GTUZbG3BTrLVL7nYVpDJjVmrffDYGSB9NHR8pDvL9DHW/J6gYSqd5Vre6/3Z
Smuac/tSym+UrByo8/L62nYRwuM8bVTmKzj9VwMHqDrz4cidJpx+4iOKAcbA4MsD
Hj/3UwRDHlqV+uReaWnbGFMtvd0Rflg/d0Pg1BjjAYQqavRRb16uHAJfImuzUSdk
MgfSxWppJ1GEkzCfrXuOaOgIQ2xW3E7IC44GofTN4blSuJYcHnSaG0KAZ7rO/LVX
zygoIPEfINHNkSnSy6N9X6atEgLm5W1Go9GXmQ8fXHqCnN9EfxZNSYCqS5VJeCu1
/oFkviKRZiQuIR6MZ39d17GeissWMtalPNMYDXZcm+QuNYDIVQGZuow6q/6uX3Pm
/N+zSs4RkQCUcslxJsYdh0CKCce978Q1IC8Mh3PgCXP77cCgn6DQ3YkCHAQQAQoA
BgUCUykwogAKCRB8Vqz+lHiX2EX6EACKhgVFXyNanrwQ9ax7B42yrueYPcECz1j1
RGXzonDC8cHeJg8y0ljofkIH8mgx/bfi9DeFaqmsmsFF4DCg7UqIp1eAvSuRoYNg
SJYTbS1nYyxQOZiZVfemZiBKm3rI5kxxVzqOAX1AFQd4kcFt7Mb/Li8DQZ9p0Wqh
U7cxvLI/T9Luea3xwfWSl6OEd7LaafxQD1AK/SVZeDeCLnCUVFkPqz/m0cMnlmq7
5ZuAVnmOXFcGNOpQ10h+1WYjNn6wn8nF2lY9TS4xV+PMWXFqTNFgthWecHSbiGH2
y4FsBLc5Yftdmo8KlM9mKMgyHjI/UNT9pDiBziQ+v0v5iGR7XgbQUoAyc3Mu54ss
qsPNnZcltSO0oe239SVMh+Kv9kFkXmIV3eAQ7Ca55ptHrnCUHO2C/VentR0RxDtS
CkIcgDdYzYfcmPuV/U2/aykFNChM0O2gLlguVkrDgq4DiMSD8YMP2ixkHCAP3+wa
2VG+uGSUTfnYBFXa/mgxOGVGcf/6ykq2EVEQYXe71t4tPP3D/azBQKHF0aTsu8kS
H5gzL51bQdwXvvZkf9rdtFo9MOSzikA9nNSlpuh9VUPAv/2Hgj2FURZVBwNzs56n
Py1Szkp8KrXJdKLTBKzh0cggdBzcvjHQDrLM8iQzxKwMJDVpANaNHKSa93xQ5F3M
QUYokT5764kCWAQTAQIAQgIbAwYLCQgHAwIGFQgCCQoLBBYCAwECHgECF4AFCQ8G
c8kWIQSWkc+u06TchiPE0zp3TOnAmB3KUgUCWypI8wIZAQAKCRB3TOnAmB3KUq5V
EACB0X0uDK77/W/eZ1I59gg2ZEIdNBFi6tVYSd3UgawZ0U7PooyClju3nbe7mrqE
zqo1XrC2vxnZujL5SPkjtf7+xsT6Pl9e5NFM+8u55BSB6CSYuqJtJ7B8nzkZbwVL
TzQuRxI97p0//ryscA7aJ0rPG191fg98lyom2X0P2oMmSNTf+acB/UeJJz/WK/2i
8KTC/Etz39wsMizKQV42d1vlayUsgHO6pXnhuMqYqGG3CT0zltfJPfZg+dAalGx0
rNJhMYYmf0DWEadgRXgDIO5oULnRlr9GKaJhKRAygLgWzsa0JiSivTZ4svZdens8
+Z081sd8ELYxDQAsxTErNKGZdecJs2GA3JdAgUUt5QXLgHyPRP4J/LQb0AFC76f3
2nq1sW7XgnXH02mCmRnw6iS66oqVcXhX+4XffI2cHq4E14Yo7Nt754dIwKLH3krS
m3qezXSqh3UcHwB627E2I+m2L2Nz49fYrV/mUqst6RVyTBseLF4W6pqq0HF3Y9sF
c3tDxlCnjWuOJjjFpbCNQHwkjqPVAbylKeE6STiysm1UV/rGL10dLr9hQxkbNAKl
n8o/GVih/ILAvQjd3rw3ip103r9MMvRkTFx55yVj13OO4OxcQ3SLo9uaGMHE7Orv
fwoDveQFN0TA4I/tkaxL5cE/IyBIzvv6oN3Ihp9ZknD6gLkCDQRQU49ZARAAyfjS
lLUA3AwNPQvX0aTiauW5SQMjDVdZnvGWr+YawT2tpvIC73Lx3Sd397Izuin+Z/1W
Skt/5twzPGsmkZwomtxnuhb5O4E2viMp65jWEXUt96z/bbhHW8DekE/WultO0Frt
2TOqRF+d59mQdNNfw0Yoa1Ad+XxAH1KSm/cEgXvic4h7fzoLgOdSLOgXw820uHWo
FE/yN2HecUzA6fmXtIY57zEGDe6y7+gUS1D5N8yszujwbNZzDRiQNIspwXBxJn61
ercmypv/7VNQQV9eLR3OP/KgRHH36w4TwCRVXMuU6PMcoNIzZ7ju9Rp8Dp6mRsp6
T7Viz0RESbEbs6FvTyBM81bHn9ngXLGVmUqyg15kCcv8rjLj+EWIPPLAt8woRjJW
vPx61Q4F6MDmwfhSBCKRYCqJhG0AxgM6MeJaAmK9GoEIICagqXdARmnqodrv1Ryg
JiwRPB6+rOHgnUMbi3nEsbfUVnVpQ8r2dIESWYMTA+LyXMFdvUXREQYXEllpc3vp
EuqYAbtbqW3hQ++74lduwNa8msVmQU2YG2mZ0ydGZ+Hgv+i5N2JNDF46ulAFlZCQ
CXa9G087F0QFUSFOtQrjaiMyxqTnKVsNz1CJj4M8XWhdl9KBvelZs0KRJFOyWUto
HXr+G2aYx+qqsv5FLlEeTZ0tmrhm72/KSciyQQsAEQEAAYkCPAQYAQIAJgIbDBYh
BJaRz67TpNyGI8TTOndM6cCYHcpSBQJZtmizBQkLRAzaAAoJEHdM6cCYHcpS1B8P
+gJ9Qd5tUK97ChBZzXxN1NDYuqynPlpv4fT58UrvrgsWqxRkWK2+H/LoG/ZxxHr1
dVnKMUxMavNHCa6+fRyP4cxpNyXK78OOjXOun/mZXw3N+3J/ODmuIzbhtc6G+JeZ
DFlH7VLvjfNu+zfd3fTMl4xoRGKD8oImuIrvwXw4Jm7TwjaIBtYOfJFMw2B8+6JJ
lywfr2b3BEROBlxOb26iXiQy528aM/1gzYQmFA511yuHUGfxWr8M5W9VwwgGJiU4
9JXfsVSoTIfEMmYYvOICWAP01XO94ONW8qM3iakgco7cIW6VVKyFh6k1QX9zrhe9
NaqpAmG5xLkaUdcy6XtxdpQFio64bIUtN2+38ziU4i0qZPJ2iA1XSfNNCtOOvz0R
Y0xpXK5R9f+QXMPG6GQDblpMaYshb926X71/z/2FNqo9f534uXZolb27aC9L/kc1
lfMX9m3Zvyfv7yvQmBlKzwbupVsdEwkBompm6kYk6pZrEnDIFb1bueOMsVvsoM6r
XiCpLLqst6olpc+TzB1xREbHmLmoibIx5dcwo6w9lc+uRKCSScJmr/kmAVgEouDl
VHGLjMtHqGWuE1MHDpMsV5uB/qvGVkPcx9AHmuoM8XGI4gJSpxgAHobytnr5tExK
Ixue0ZaVX3DoLe4sc56iPydy6LjK3L4IjVD6PNqrqoZJiQI2BCgBCAAgFiEElpHP
rtOk3IYjxNM6d0zpwJgdylIFAlsB6FYCHQEACgkQd0zpwJgdylK2YhAA4KAumM5C
j1yG/6cTH3oq+Q/v2j1G/F41te6P4PSPsU/7llXrgVZRfs4hctnZ+UwWf1RXs2dV
HSWSx0cTRKACl9r6cv+BBlfT/DRz9PmfQ8dP4DsdBiT1nlsgl9RiQEnDlFsQW6No
FHBIF/bHxSbbASyCYMbxbP5HNnjnODwbIhved6k+VGvkJsU9eCN0J0IPN2igQ672
NltROfCt9JmxpDaZH8KK3e+0YUJkq1u2AmlmB4oSwIacnIrPYKLVOdBc9Swks14b
rI2K1+wr+DjTv1b7PyucY+d9obVXyamxqX+LuU7KTlrqZN64O3y0z/9Joz22zNqr
1ojyGWGWkR6Jqe/AUs1TlOFlDZnBqxVgjK9hxH7R5a7aSav/CVqiMrMcz2b5CgHe
R/bLQHjjWxZ7UUO78iMI0RZP1GQXuYlz4O8qLq+9QazzklZ9CoMZjqHH947xrjYy
HsGTmLKSQNZ4lWG+ap8ERezXQNe4DudcWwfjfzjaPJCnFunRrsnrRy8CvvL9oTtR
BFn5VLLTTUH1Y+RevLN957dodUnb+VSFl3bsizDLWFI4DXww1DSmxiL47W1oVTbA
uTBVaGde2ySFIHekOnGGEPS0lxCU20NA42UlFF4id99Mki6W7szef8Of/d4hcRcz
2yvFBdmUu+3dhQYXVUo5bdpLg+e2oMcKPiG5Ag0EUmWJZgEQAMGLdJChCuYZdzwa
kG+gURGFJ7Dp3++14LfWKMoXNnp+pNNxHEMP8WWWxa3ZFrlNsMBVqIqNz0CFk4pX
kTXFf6Fb/mLRKguvsCV2AISuWP9O4O/boBork3Ry7Rk8D0lJNA1ldO2eSrfuxjbB
hpHZpYoCTkGl2lmE7+z1MscpwDOcPlkxRttIQRbBzXQcc7S1TPGWuordjEx3RUfy
RT+eSCc866SND9M6dM1FbV7A0mM6ZHLbd58kPNnuXThwcamCo0lKfbtBdbijyR5H
GK1diWEUYihb54rI2iWfFczG8ZjGP5htLa1XoweDKGBbf5i21vY+qVge13JDP7Iu
gFs89OO7+BB4VX0DxUB2akyTBIa0V86kX894HGesjfv9VtbiRE5ZJ/SRQobWAEPA
HAx3dC/05zCf1T3XaITrsmSkUQAeBWVr9A7MizyQ52VQY1cBZtLpXv2Jy/agWxjg
M3LwBdvdQ7VccC7W/0ttJNu3Lwl4V5IUyOWmfLpyGVfZiUvIMdNIWSc9bhNRhO0Z
lHUdybnPv/9gzxBuZKLFPiCYDwnr6G7Ac1gOOQCeAKWVZYxg0usSM1J76PH+oS0V
hexJpy3igZbNQBoP7UVGgKQgxYppoHQ9dkeJRL0dln4RU2G20dOrTl1ylUlzNVds
GDTpKWAPacIT2/+nW5nGoqzOafY7ABEBAAGJBEQEGAECAA8FAlJliWYCGwIFCQlm
AYACKQkQd0zpwJgdylLBXSAEGQECAAYFAlJliWYACgkQbAtpk944dno6Lg/+JAPS
kdyMvqsigWMURKD1WLIMQ2FCFrabamtNl6zI6FdtfIUu5gE0Xs8zCPyJnFqKz/QA
lWBshygo6xoBVjCrHEe0OoSuiXdsaaYA9waYWV9V+D8//8YsQ0nrYPD/usGQPcj9
kx+B2+LkfMjc7O4R3h4oFqeA25nfz5fWNJvCDd+yIaNgbmvN4cZfdNr6FwpmKU/1
R4rhDq8i4/orCDeAxvkmz06VDh/DK4mupGiV4Tg9NEcFvIYU8G1/G6I+uQwTAsqi
C8o6fA2Jpk+id/yJ4CarVi14wrPyJLJAwv6u7aMp1N2GQg+8gRgJ463Cmm0/rsFI
RP8wjF7u4EY8pWuYJyZh3Atvmlxa+Mbcd/6PruO/3elIriEefmXmZe0fliHp3PZn
Mh/nU8Tw/oNFMMGPFQYyr8otAM3nJzUtho/hCZQF/6PTyjzbcxqdFsk6BGMe/V6P
dkJJdkf2m6BUEFclKU/RKYTb0I0102LkuOce4+x2mQc9qeTgk1KHX53vsfCRd3Ib
so/Hi7uedwQK/HEKMnEpQdyya+P75XognXDKEJwDqCDM9CMZm4KxqCPE03SXKL3/
4tReJwFCtRZOjquIqQbIfairg04rhOiymeK0TNopMR9FA2Uc7c6Jfa3kEUTZHtOr
QahzwLNXRpwFGb1sfgZeE3fpfQaG+ZHLjN+KAYODeA//cDB7/3F4D+2mXsnlxA4H
Sm//RGq/+7Sin0xEF4liTDHPD5h40VvS5gPSqMGbBLW0VVqBFkByMiWljlHEFZ1B
CovnA1VJm/vqirkS9NOb7I++NJxeKTtTZdt3hBWQMG5UOhHAI189C/LlTCC3RNa6
SZvJXgtnTAw+Xxu5AxoRowFNfSx607FCz0ud5mX/7e/JPwichge5IHUW80NhqHhh
XEHdmYs6YczgAkySVEAwsMyanvcYo+gZ+J0uXB9Z3YpNJB21bl8Bv6PMGVOYje7s
+1IiyQq3+6VbAtm9MlqcVW0Y9tB70s9+TCzyWEbpb1PjE9LtijZLkVvEfH6KHkMz
93mewsjSyTYIFiMrp6d7ayw849xkCwHOS+3eXtyOExFra1zj8PMUPh4xHqDLOexs
ZdYXqh1FgJ5HNvIz7CnAoiMkVvh6hI8UAFhRIhqRICthdRw500C5ISNZhXbb8OeF
cpKEuTSJIJO5mrxdPRiRhuBMc1DUeoW5BhzZN8grl0tyVA2XB4lHDwPPEo4wFryO
f9ElcTv3xaQdeHT7AE/qdhknjXcnhVeDomRY1cpkKrv3sm8WA7g3MDP6qCBcW1AC
YsGUww6sMsL4wsCr7HvmpLOoDvtXJhLTC+5xnlrh8ZNrFxtUEBQ8i4Z1+Fc0PkTH
A7tFghfTswDVtbOMq8WppMCJAjYEKAEIACAWIQSWkc+u06TchiPE0zp3TOnAmB3K
UgUCWuBJ/wIdAQAKCRB3TOnAmB3KUkmXEADP3tAejm2HEoHjZZiYYh7kuTaMW/9B
En8DmQQBFQ0w/5UO6s58aI1yOs/XnB1MW2uIByDk1XDHSKUFlJpZrf23pUEMsw/e
P70IaO6OHWojvHR4SuVczWJaMY47hjikzxAdfRWFf36FsVo7UUxpUelmExZsFu/B
VPs8aKbwqhbLYSLv/rEBdkOvKhXzzW8EhxppuQV1KDBLhtVs/xnRlv7Od510D+Id
uPjczoTx2Wqgxt4+rZ8Jz11q2khbHKxFoywrHkdtdO8Yd/p/VpXl1ER2MIrKqf6K
n7u+fRmqdoIijUOCBQzbanZqRDsBn1vx503xntf4bRiqeBrv7W/iMOWQio+SWI+V
Ex/vR7Iu7oElVJ47A2NnLI+y9/dExBaxXcNvMWRdmL7B0dUsduYRe0p91LDcv1t4
9R1uyK19BeAOM1J3bmTL7J4CBLHEAtzRytGswqSnZAiIm6d6PFmFPRKTT4yTSBd4
Kl6jGreNBBA7Hk5Goq+VJX5iuDNauDT7I+mcAmNPIA376JPPcatcYYrL5XXR84FM
fE4PPJOh3z9EhKxABJQzy8RtfTtrTO8oRpwYLYGkFBUPpMreJ5sDOaMYU64wNukn
28dYEovwteAubftHVyFuWcBxNjAOTkxrxhx4WXDvyCRMToIW/Ic5JyE1qHxasR6R
J+hzeHwDAMgoK7gzBFrdCagWCSsGAQQB2kcPAQEHQCmXqh6aq8rsiWS2BQxd868J
t9Do4TieeiUS5g6e1pwtiQKzBBgBCAAmAhsCFiEElpHPrtOk3IYjxNM6d0zpwJgd
ylIFAlzRZtEFCQPVkKkAgXYgBBkWCAAdFiEEu5UTQVlGLanwzlS+Nc7khisQI/IF
AlrdCagACgkQNc7khisQI/KXlAEA9xRm2epyMPmM7air1AfN0eq8M8vGUp3+tW9e
uD7s7DsBAM+pXPe7ldej4Wn2TYoXSIzoEHIpML9pL38dw9ILuX8LCRB3TOnAmB3K
UjaVD/sF4Y6gDKmwgb380VlvtKLWFXllM+Wszo5dgNYJ1DsUKSCfYznq/5LwW8oB
Un9p5R31zj4Y2TnQVd0O/Q6U/+W0i88AoYrgqRIWTHwQix4G8FmUlUIFDAssZZXx
mkdqqKiKUzueVRru34YTufoUZrdp4Unv8bvFgLtJbYKeedyscC8EU5Krg+Zblhag
tMzsXpKCY6+4B9zUlVtrVvyeTfqLMvxSjU54EwgRpdA5RF1tWfBaTjnVwhN++H3n
v9N//PXXz5UGeGnXTVFtFGgrSyzWruAAk/121bXG7IbBJa6ZM5PycJVjokV9/FCX
v/S4FXBOISwxU1gOL2XSsloTSanyVtZejzMibeuZdsQVywpTNUGvkjtd6Uf6Ix+b
RdivzHEWWSHy9opsMpNi+vJ0hccVqBtA7TWGnEXmSTrtKsrPxp9wYklLsXZS81nG
EtdPIdexuSehE/zPXsGau4emIymNQffPipIVqE7apmgjh0x5PkLJFEPOPqudabiP
5HoZJpeM6r+qEDKLCyrxYtOv4xsAls7nNdaZvAWsTPytR7eIaGSsl6w5QpLX+sUB
3hDPGcLD6ufmO06kHEbwfKWJCrddluS40RHtIOQ8CD2dXztFKrcFMyaZDvVHjdCF
dpL6rQruo6WMnLnqTdOQdmOyuXnY7dOSZMEj+CoHc6R2f1B/5bgzBFrdEjQWCSsG
AQQB2kcPAQEHQMUbtUXxkbvWjfXtuI7ZpWps9+qMCMTi0YizBMVvo42ziQI8BBgB
CAAmAhsgFiEElpHPrtOk3IYjxNM6d0zpwJgdylIFAlzRZtoFCQPViB0ACgkQd0zp
wJgdylKzsBAA1UrI7lSLPS+uoCbv0G6fQm43wUUOg05/OfYMt/EABujRFxWkuv4+
P2/Szro0QLzAECJC3lzIbFn0WVI6E3Dcl6qoGOPoDpwZitnAsvBuvzZ+b7mYNDW9
ONlfiGlA7FWKVrKnY2nVfPYfi2DkM5xapXDtQ4NClOPEb/46W8WRg6XsKdj64ZJe
6AgoQs7P+a5MsU77OBYLVwZcMj830zxrZiwnLjPNwLjh8KYIryo9UmX6IPbSXmkE
QCEIQJzuk/4dNAlc2d1UNPgTHnHHA/rE2UVhrYuenHCohVeuXTnDovDXU+9OaOWZ
n0n+n64wVa13sshVYJlkqxTbJCuYKlGfTaGEnxf0hL1dQgqxBeXCFBWUW7HggupR
GpE9wh8j6ZcBdAbIh8tuf8Ybj4p+quuUpC7ihQwY80IN7rRAwiAqneutHLYqkktM
GJ1JWZKL8ZdPOo88TDWPi93MzG0oHiOMW9krz2rKGdF8QiLAoQiAeHSk3QhhZkg9
eCjj6coRh7OYX/+4OuwdJeEMUwqUEt4gAz2FiyxIb6sekyYfdYa6nZWvCzank6pD
jqlYwox4oc9SN4v28u3rAtUtJJX0iPtDQZ4O6Ve6YOT/Hm3hpr+O+VyEsrdxEIoF
3pR6i9nz7PO/PpvFt7zOMcn3NfKhj5kzG6zLYZblmxqBQlYnpNysWt64OARa3RiT
EgorBgEEAZdVAQUBAQdA8DlhSw4GaIbCNpQOZhd+B9+NjGaVO7IhjhmBjtfTHEsD
AQgHiQI8BBgBCAAmAhsMFiEElpHPrtOk3IYjxNM6d0zpwJgdylIFAlzRZtoFCQPV
gb4ACgkQd0zpwJgdylJdDA//QYUEc1WnTW+gegVHfQwviOjpSv7hhz2J9NXpsiV5
HHhz1P4dZs3Xzayy0EAyXo3LMiwlJDwWYUcW8WuOI1u2tmJSkhU8n1cjEvIGESCP
HUX/E9xqy3gZWnkL2O75pnXwYIB9qLAgUV1W6AVw2De5gzT12RZ4+GYDdhiQUhvC
YrI4KE/4fIX3R1BuinXMVO0nlgEp+EM/ppcNmfe61JpMYR8FSm+SaojIIV2XjlV4
HINZfXHsMTXyNO0wqyquKbeNuREFcjZtqjINiZpKPDM6YVj+u24Asw2cIBXLWlZ7
3BrkWJrQtwf5Qk6AtU0WwURaepwYGwlchwdkg3iWSyjFa3TkT/U1tXA/j6c6NZeY
7ysgaUQQ6hJKgN6BrwkhFvUx80jyLsz7jkpbU04B7hoAKwRe1Eyb+3yeMTBRSdTl
pzcxsPzb0hjKRbFr18nmVIFafrSjm0wMcFLS2jKefetuCzZdsY7NeWM9YAeF1wHp
a9PquZ9SdnAL+Efrw8vTTlG44538emGnYv8bVKmXExv6AibRNCE9vBH0o0HzO4hU
lr8VHeAIyb8bwzolb4/r3I4mP5K6fDccSPBKBZDQhpBZxraHeXH7GmN62WBwX7uF
FK+UoFjW+s7Ha7yQnVo/QgB4kUhgJPHeKV5kGJYl/SGe+AmE8ropKSJMQf6/h06g
rQU=
=CGiH
-----END PGP PUBLIC KEY BLOCK-----