pub   rsa4096 2011-10-01 [SC]
      85AE4DF9CF74A0AF85DFB0AA7CF76C1A6E2C4CCE
uid                      Randy Dunlap (update email address) <rdunlap@infradead.org>
uid                      Randy Dunlap (sign) <rdunlap@xenotime.net>
sub   rsa4096 2011-10-01 [E]
      DF8400516C655CA76AA278C89A40EC0696F68CFE

-----BEGIN PGP PUBLIC KEY BLOCK-----

mQINBE6HlvIBEACg4znUrf1E7YiYk6LypofjeH0cLDscNyiCgFIwZwFl85l4UFbO
LUhh8aFW+VZ6zxU8Vu6I8KKZjBNrGYdYBeOXXxjdBVj85dtU7LqQ/jcnUN0eNpXY
zBqhY+hs4mmT9aQ8Ee61wVbjBzpqv+y200tZL3nuBnbV74Ir/ogEc9kIjeRDGl7Z
OKcPpuzy9lFfsvPzE1KzyfvWO7EqDriMs5Qc9Cc6Fx34GT5CM8Zjf+y9sEu58g9O
vB+LlXuoUAv5+hFTJQMZhizIDC2YTzYGJWcVA37cB0Z5LPuhzTXO7Q7FeLKOdqOg
XbqbJ+bYbpboIJKoRC1r9q2n+xqOxoj6pBijZO/H+AC0WcT2WbVtcgvzw9PBPo4x
xhYyF6bFQEgvRcVUtNB/0ABnlvh4NW7VK5pKio+s0HCHBNN/VxUZAFIrCN+QxNrc
RK326CSYtyKiSg8NSWJGxZdPbG1+2Ham9vdma8l91oOM9GVAAsmCVulpzCu2AJ5s
eXgpOKhvuFNac8ZOF4SqjVypUIDT0IgAuMwJ/qcV8MR/SwESx3/2hjLB5iIktiLS
Gu1mPdNI0DHwmbvKfreStHPrcwk3cx9PsjqvbjKavkKjPZwA9Wu40Y437A/rePfU
JRCFsLgWIV+rpZDY6oMOq8iVFsfZmx6lj2ct93DwgXGr8Ix6rftKAB99ewARAQAB
tCpSYW5keSBEdW5sYXAgKHNpZ24pIDxyZHVubGFwQHhlbm90aW1lLm5ldD6JARwE
EAECAAYFAk6LdgIACgkQeb4+QwBBGIa1Bgf/b/gcuCdpsspcva+n6BrLi2lF6S/l
tZXewpn6qt0z8z2xDn7LHsXA3pBljo6523o7uAY8lGLIweQe+TTYYIo5UT8lz+Y8
oWJwvHKrcZOCnfWPngQBCDAPtVcZ/XHCMJO5p6IegUqt6lY/6VlEV4xvGiMryBuu
9HSggkWkDhzTiNYU1E8+mSvKDOhNxNfBTlIk9gUuaHcpouhLp6UigscSeUM6gUdV
9GhiAVgG3noMKuaUzya+9NUciVy7g5OUVuFHTvKl7kEKsBqiLtBWp7zIq0KjHcvX
IEba+bGyJIBtXySudrBEar70QEZVYkDjQp1a+5Ws80qnTEHhB4y6YCDBxYkCHAQQ
AQoABgUCTouBfQAKCRCJcvTf3G3AJo5rD/9/aUDWxDyne8lPw49PYLR+k+xxcS2L
PTj53SoeN1bH8N7dw+1EqUZo7jWXSu53A9FvjFGEhuyPiJIoFVLn6xL+GEURN0eK
YbJIu+u2OhUeTxQmNNBJDk1+136Fv6OOGynNvcccsc3B5wniniu+/Cln9H6aat23
olMae15VETnuS+C3hNqOgaZm5idgC3l9J3Rqf0EKzHzdP9zqoNdnHvUul+hA26TL
iIl/U98JtQsDgMm7QP6UOAnfX3utkhmlVa1tpk8H79Rfv+4d/jgQGdz8FmOoTdxg
AhKplSavTUV1vxkABrY2vK3QIUWQbgKIs/jMXgLJNtQCBIHgt0+ubGgzH3leYJG5
uIoOfrwQbHRfnMF+u+xkpYIfTBpqY1Qf4SZtO+UN07kHAuh5qbqQDJqza3BjXsex
c/YL7ShM7FM57HDTMUg/QzMLuiSRR1a/DGVzcJsTiEk+d8qhcsDEjsoS66VQN7R8
+9uP1SoyvxcNC/gaW7Zt5MU4xp9WCpkikgKHM7Cilq9BFi544pBihamxh3bN5uR/
ARq9a5wacGI5DvkBFmCge+AnmYMRRFfyvJw2fYwsG6yvLdBDINsCHW4kWovoRRo1
Vk87zW8Gm4cs9j1RT0ll9ci1yL5tjBynSeBBi3M8URLRxUEFqSE/jX0B+NGL/kRw
90iCHg2E5MG4HYkCHAQTAQIABgUCTot1pQAKCRCkHscxUxntqv2vD/9ooyZU+l+p
glxW9S+S1w28ZTRkQKeHJctZd6ptigg+WS92/Fto4fvgvEBjCD350k1goqADXNYo
sEqJD80BWm/t6y7Sa/2qUIxGZZdCI+upUeot6RePhAI479bAadSofqvEZ9wnY4i7
CsvmeqbL6CGUiaLZS2qxmXsm5YzspW6syFlPrvqshS87OwTJGFkiVVQnY3lhKSHV
GjDemNDNhCKg00i6ag+8vJxcBsCj6bTPpvOIBRp9LvPaL1guFcTOjZHTufppxf16
2P0ymBz+BT0WV9Toqf8sFBePanzOP1I0f2sRHHpiya3HRNk3ZySxyWAlWuCuuzT5
CDgxfeWjh7sMeylP3uluBU+dnZZ807XiMpqfbj5o/koC/LcTQz5hzKweOYIEuyhN
jAOuZKChzVOrDj5IYoHpeVHpGWbyWLufgzxKQr1slxBOjJjLIfa+ThD1t4Edtd2g
d8bsWXRN8ofEEp+POc989fnWYJY1R7ud3SFNr7Bv3RAWKAo2aZwIC6Qr9Rum8mrl
Gp9hzb6Hl7yr4iGR00u7QwBBGae1qKASQil6jhOa9On3vEfgdehgqYGZsFxiXwLt
BeGD0YponwlBkfd91/dP2H0f4z22P2CIcU929orkDOWYFie34gYotGGFS1Hcuw6d
8V5xE09tbx7cnKg9jpvLe3jtLEtHDQ406okCHAQTAQgABgUCTot21QAKCRA2LRbI
1pOvKqmhEACTxnCOZ90ML2XgPwpE1Bht4t4MdZgMqarQO3/zmeRTU6Va+eyCeaHx
VGKWoPHXmWnCMmWGiaQ4EVL1a4U8ghN/+shkkNwju5yyvBCqlGNyhkq4NkqwjUCS
7jFT5xYsHXalKzO8n3RMMe22b9iquW90ws3Ak+lRpYe1ZH4B4eLZ3PJ4nvYKp1tU
U3pSZM7TlO6m10WNwy4Wcwk6mMku5P7YFBGnAzJTtufo3Bh6PcsX4+Kg7RCreNlR
t5YADoLera68R2DwAmDx0vIIKGqjEw2BMEpcUYolEHOVxMBxtfmEh+4x/zjDwESA
v0ly4KhyrKI/1Q8+/KEVyjeiAhDLvXPMOik408Qp0TGguwPC/+oKvW/rx/raqZGI
rqnVvshXJ5FC2nnUgGv+9recK3hA0lVP1j9LuKJykZxPlTKVT4mlxn5i3I0PniMZ
CutVwdBdTlMQCWurEfsR99LLlWJgjuXTFI4snNzc/iJug3/gq54stX0u/2ebczJS
Q+l72ZVp2+7L8WwdoBZX6wvNKPF6Q/zXqoJr7xf3c5A4I9fJbEOVCh2aEkRljte3
tV/pb5S4T1I0MM6QsCLzcW9lmp4H5OD//4wcbAaVEscMxhu/fdOD0aPP6hJLFJF7
kQMFGN7WXFFCgwbsmPz1WsbcQiGherg7z7D3gtBZhTufxUcSJKZMOIkCOAQTAQIA
IgUCToeW8gIbAwYLCQgHAwIGFQgCCQoLBBYCAwECHgECF4AACgkQfPdsGm4sTM7u
aQ/+KnW8gMlCGMLY/zt0FkLSmoPk9ZiIHX1zvNRhf6BTjY7s+nL3bl9WB29ICgXU
9FNLqOyK4CabJeQBDSBPRD0BiQWwVbQOTyBoaL56xomrowLhT8b84bKxIVIByFQg
ICkapy273nO51Q3vsQLQc8G+VMGibdHfHFJfw+rHhZXjiZugnzP1fNnGHCX08GA6
1NwYHwbgxgAZnpYathvCJtFVjzKjP5JOoRDMZ7YML2z9jQJhJKJ09B5rd5met/5w
qK3Ze3MylO+k4wsh6NFGyg4CUxkK1sRtPNqKxRdw8Z9dxHWyQ1hzxi9NhEhSfyUw
9n9qj+Yviyea12VKZE3UHKQ3mQBgCcKQCaiAF7H+QiqzvjEJ7kwOtR3hw2sSio+u
EincVi5H2OBkVWFjd6IsHPiiTeX1ka+0opvu82ecK1jTlLUUXirfvt9y84aHkSXL
LuVMvxTpbrLgkEWDaTTc8X1XP/+ycsOfH0Z7SDLsdy/ZZWvuo0HkKnEx7vK9wHaO
yjDNNMXkn+6iKDJd4wcTgff56XtkFEc0K0vYg7oNLE8vCBsS1oP6XvFRwx/WG2+c
nwUM8Bh+65nZXf66yismrgNY4jJ7lOsCnJ/2XX/Eb+ClpTL0KDPqf9MLNQV2eVaJ
vSX4yOk9pdvlS6/aqjgf+LQlwDPg/2T6xkP7qLzJ9yr5nj20O1JhbmR5IER1bmxh
cCAodXBkYXRlIGVtYWlsIGFkZHJlc3MpIDxyZHVubGFwQGluZnJhZGVhZC5vcmc+
iQI5BBMBAgAjBQJT6SWmAhsDBwsJCAcDAgEGFQgCCQoLBBYCAwECHgECF4AACgkQ
fPdsGm4sTM73+BAAk9/83f5IO/Tq92tY+vqoC8JN1wsl0fbTQRHlqJj/7q2IG/in
yqI8q+0Ft/KI0NoBJBMLeXOBBwmW27dk6fA5Yyyw3bfM/1bZg/nMj3kqtpwRfWQE
xYm7+1n6YKzc/Kn8Kf/z6YL7mLi09r03fwH+KkAvc8xzI/LU9mPiTjgMjhG5gYmS
P2xONKURfOGGEAgF9umTeCZ94dwaWb0nYN/yImbabfk/zekAeWlVgMZc5leuE/oy
0SUIfQCHfiGa/fIJ3YMLfSXVhxPf0WLUxGLWBlpUcJX4x2CcrYdiF57j2k3QQBm8
asAsPXywb/5jRWg3vHtCyHIho2B4f4fLejO8QI6vBw71BLCYofXdkS9KhC/eT1g4
e3c/DHzhlz2csGlOVpYqdyGz3akkhMUD0gZ/9XDy2QkURa3W92pU0D6tjdx9K9/y
VerY4DE8c3cEGwme1+z4e2jVpameXf8AjQPHv0eNQYmb9AhricJqsE5hULFTqQ8S
R/LfmFVQBb6/9Dgsg45zhVonl8fE42gzoSwk/EFWBXhDS2WKSdfFd74zzEPVR8le
8HEjP/GKmHAln/bvsQ8y6zaK2AYIwrB3RfWGPviZpl1Jffa0X0R1tWwJ9S8u0/ee
Z1zPi/7bOxtf59bXuY4lgAh9Jq5/NTAte4awHTBELMIXThMcW8cx9sD9odO5Ag0E
ToeW8gEQALV89VGJsVHQ54ZuIdyCrEBD/Xri/QT89sOMhB4TXnrBMO84UyeKMu/x
hxzX5Nti5WzZDIbGiPgo3/D69SSQ3sTMaw5gri/85iH+3OZHIyFuyhr9TYLvWXmg
J7lY7HAoR70t2w5G/tTzKYBAh4FNhO1ktktcoGIf3QkhSOuebpvJwKJ+PXnYjmv4
wAy5kvM9BSk2W2Buu+mQ72CCZ5SygcvdUnftYrlXIQWOdrbsfexnAaGp1jHhVZ8O
OAuK3zp+ECbOp+AhzU2PnlN5qV0nB/g8o/hdBzC2GXzHKKZiccBOcto/omW29W93
uPbxfJ4IymqFjK6UCdISZbq+abHBUZvyD0are3UGBY4O8OJGp6/7JObyXY3UlNGa
te4TNf95WkY2DwOnoLbT01SiwTAMVT8XuV0zWo1hqbpnJlYM9ZYhID4tjShssGiP
7WkhMJ+MktcUN43lcgNEO8VYoOgdoYMqhosQvt0mRWC2vUs7AwQafdohtcpHXqT8
C08wgGrplc/Lip0xqQ6AE9le7EonxFUpmdgVHoZhCYwSpXu2LVvJnM1rc2lQm8CB
e6jLLAvRYU2EqXsWMXEqYRKPoKSwHJ5CcKv0a+0zyjQ912NcJAIVtJ3gGJB7tJ2x
KRik9SYJ+92zc8oHfZIMIuiXR5X5QqQb1/uWL/+d+iljlBP+8QBnABEBAAGJAh8E
GAECAAkFAk6HlvICGwwACgkQfPdsGm4sTM7+oRAAgK7Qhxye5nZ5ytDaJnLzZ8FC
Z7rZfp3Uwc5inWI43xRSS11AswJ8BZt1wNDCWGBYlwvlEM99jGlRakBaSK/PvWh7
IYNWgvxFBPmPw0/uGUHH28oQW5psluFfQ2bKkP5Cj3QvPhYN7RG//kGDDOK8p/nE
Yh3PqjWzj070CBxBDRytAkJ6+vKyBRaydBCGC8ql+vNXvQGlxAitrFd4O9+bJvsG
+2CRaRgCrzuaQhZSMee95NF/Zz/SykVz5D6fQTZS6KnTTQun3mgMe3JzOyc0bTr/
mV8jGWjgyj+JBf73+CahUWk5tjAGIrkIjQ1dU311Q5HYrml2UdVK/1C6pN49z6zm
Kr/+rtROv3dguEw14hHrWSgYUg2Xv0ppPH7F4jPJjbnHixEuTbEiyKA9r/qg9BYx
K7Dkk71qvIcpEFyj7j/HtW6v6Kw6QGVvoddEip2UIYZcg+KGrdoEj2CTx+0Q0//r
7BrDWExcgr814si8fY4rLbtQZMSh3v2Y8SZYfwI+jJtcd1V1jR1tFnCG4PzWDo5Q
KKQuZnzoeWGItq37W75r/oBMYrvmEpHLvKkXtYBnRZBgGVom0CylzkOabbqf7e6l
2KGQsBYXDM1kRIvVuBAD3ZMIGWPakVVq82ujCv3cDG1Xw5vpGyOSsvDfJLoiWOg6
8sRGdYdS64/29S3hGwI=
=6e+4
-----END PGP PUBLIC KEY BLOCK-----