pub   rsa4096 2011-10-05 [SC]
      2A0247904D5AF9AD1CD23E7980D8961BAF5C7999
uid                      Kristen Carlson Accardi <kaccardi@gmail.com>
uid                      Kristen Carlson Accardi <kristen@linux.intel.com>
uid                      Kristen Carlson Accardi <kristen.c.accardi@intel.com>
sub   rsa4096 2011-10-05 [E]
      E6389F37E5565F67CA1D2DC192FB06EB6E0D8A84

-----BEGIN PGP PUBLIC KEY BLOCK-----

mQINBE6M5qgBEADLl1cfaJBkUAGfRkwI9jj9lP0xPXwbkyugKeGEZY6eYwyokn2e
LxLKowyR6mSNvFQZ209D11hczXsO5Tegqr5RCcoRYIy2FECTGJFPtjIlURScZ+JN
e54Y4hHviMTbTgBRMfDcUa4eRA1N4Bgzk0aoyp2MfCPl14fYKwszEEN2rkZJIOli
y2uPQ9DnsSXhvg6AZhp9EagGiLAXNw8+CCTa4BNTs4Xf7igIQod4wANNriWEN9Up
LsD+EQq6t08J1CNP4uMbUiJy2bAqUWdx8/rgk4v3xi7CfBQfAB6ZiMrx/W+6PBEQ
VT6uiufCrliUgslJFfQ9YVuvrTknFWF7M46+SXPGCWtEZt2nL4cMXfeWDpXsJ3Ds
iVxddruqtwuaMmMbwoB0690H+uFiCGxeTk55vMyJt1ge8bdj510gcIN3G/AlmbEL
PVpkac8+ExSfmcv0sTQ6vpqioFuRyUU0FpqUYL+3b3uLFOPs9mgp3DPSCoae4Jai
nvwhvIXv3m8UjXZ4zU5hJPxgLVzTQGp8U1ZCtPbacGIJ+ShnJNM2NFp+aIL84DZw
uLNGZCRFVs6YcayrIzNLEWl3Vglx2nm/6raDcE6rP5X+A8MB1jHiEmxINzy1j0fA
44RtFTrZ2AQ/S6LBaCjX030NTQkvq0Ir6gTOk5zPkonqCKLR5gWpxz1R9QARAQAB
tCxLcmlzdGVuIENhcmxzb24gQWNjYXJkaSA8a2FjY2FyZGlAZ21haWwuY29tPokC
HAQQAQIABgUCTp8PvgAKCRAH0EU6Frc2Fy5OEAC6by+FnLb+YvjJFe2IpW/FK7ur
F5ssj+kQFq2y9QpAcx6/yxB/mnyMUL6vWnlzcGmwwMQP41s68vI2blzdsPYpgbVR
hUy+vV/rzuBqRGFoGxwBPUphGpCO7N8FQ5ulzjZ2WJkDQOCBoFduHZuSiO52nQoh
JgC6Pxtu0zf8RkOOf3WHeD1NJLD/Uq7gaawg4rKZ0ZAFdKFoXRs7LJXDqtG22tHM
RxlZH6ZnvaeYnYeNexUrNytsxdt0FUfqDXXfZft9/+uF50z3HE2OBGhIYv/4ldFM
HTi5oBTluODYouDiappk8jHlLzToOyPoEzXSMjlADSuftiIf30psYG3EapF1aLME
S6wmiv6OlXXg6sIaN+bGfCC8GgKw/3T4XA4dj0do65ee8ZpOUnux02MhjDQjgUnW
zyrNYh1bpyQr23zN1446pgTNz0dV9bhuaq6pHn5MbIo3GGmddQcoUVkydXcBOZXB
zgallvUqlZMq9uc/BMehjwQKBuw5J1NIQ593VRyR3CsRYss6xjVR7dCU5Lr976+M
Ri46MscR+5EoaIqXQxxMwUCL72ExRYQ0n7wHLbWC/7kfM5C4+Tdot70C6eYbxHyh
BEWbZeraUG5vp45f8BCVO2Ko6asvweOCaO6zEBQHmt06adic0L4MUjyqe2h/1Z24
hzuX2L9Lm5M0eDupYYkCOAQTAQIAIgUCTo36CwIbAwYLCQgHAwIGFQgCCQoLBBYC
AwECHgECF4AACgkQgNiWG69ceZkYVhAAnsIwgegZU7J2kA/Ta+crYvA24cGA8zUV
1QScKfIRIkxXE/aNdSMDANNXOcyFEpg4Cbdxkk37uUq543mv5Eo9CMalM2ISLxoa
Fum+n0p16aqUWJAO/A+kn+C0fAL6bfviXZ7GB00AA4zD8Jb9bIPw+qA3oJN2faY4
QXzoM0Y1QzhuBVtX0yUu097oq5hfEMPL9oTvhS3bx4IpKQ1Kb7j8691IL87dS/4q
X9kBn5OEQU5NB/9Kf1MzE9pncK6C9R6iGDO2p1FHLkxORlvYYUqC5cam+OlxPmmp
0E99JwzkcBY9Vu0f4bI5OYupAhUJ/zjzdrWDnRcM+u8nS90Sx3mjv9LnR0ZCHjTn
JmbQZptDCPgfJjU8jJ4YSNx8s1yBU8lsuU91g1qxNdVXHt3fqm+AsnNPO1gR1UBW
PK59m5HjGNTKtr9oUSb/G5atS5lfDsun8azb8in6dNYYp8KwwxmaJWz2ectnmObf
BA5VRy0C1yGAzWW6BAmrzQ+fyfdbb1MZAdI189WHI2JMIg9WGeULqC7vT7OuHG4V
zF04CjrVcBrLXUdHOIs5AUdzIQEuOosTRSzLb/+/ZtswyOv2Uj59JwtSJG4CQ7JX
81krLDh/RqQGDH0Z+gLWxMQQiSY7q9LG+rWirMisU3Htc56wOS5ow7cHzyWfB2wG
FXoSBaUYkcC0MUtyaXN0ZW4gQ2FybHNvbiBBY2NhcmRpIDxrcmlzdGVuQGxpbnV4
LmludGVsLmNvbT6JASAEEAECAAoFAk6NRGUDBQF4AAoJEIFK5HwhSFTW1KgH/2iP
00zkVPuTtlMZxoCjODuLFMEy5rKz0oEYscxnm/S8I9X9MOGI/zXAOSGcoh8RlmiT
ih22Po0uj22W/U91GEwJ0g226CgvAcaq44iQqw979qaXZlZ4kknmGmTjrbLp1jH6
ThzXfafzlFiELJIn/fMjOm/D1ZoBQ50O3Gz2nkopz8dpEBTy1W1P19aTp9gD9Bi2
95E6Xv7Hh7Zy8i4u/thgm4X8pFA+peukYxlcdinjJl/OTU4k0JQf2TXXg8BTdJoP
oIqKmv/Sp8kb64HqCeV2dANQPUbBtiseuAoPQBRqW0JCxFwtBccquOVUoohl1Y9Y
XB5LJB6wO+FY+/Syd+mJAhwEEAECAAYFAk6NvKUACgkQ+S1zyaMaHBeRmA/8CHVI
wsObZM44qzcM50PXFroiKEqEAh6Ob0QSqPMN6lRP4HCj8fbY9ze5ftIqWF6V8bW0
6SOS+s+2kGc+SbiwMki8738fnF6dQ/5agHmdDLnO4WMRiKqIz/6Vy+ywfvvCd2Wj
gNJqu76MU7Q/rd17qvw55x0Svgrd2aqnoIxFW70Zd5bMoj+4J7g2cOe0nCld+2nu
RcG+VSpPIdqf5h4JCjcDaJA1Ovtcb3Fq6qLjdqalmhEmwySUtzI/sYXg0RD0AMHr
26EDx5K54wRs3SwShX5z+5zRtgVHkd+gmMWPvY7UwpI5AFuEi11clsP9Eb5Oj3nO
KTtr9t2+ijjmCf4qNc3sdPy9umS2uz5o9bCF/3QaXIgWV0ajnBYJ3JnK5pCVbv0b
K8/fQT0GlukqPOh1opEO4lw5c/SbiLKosZWVbgZDIn9NDiLQRG7MXgU8HjcJtkPb
4/zwoztM6wLEPHZF2cJRqaUxEeY7VJqTAJzDLtiXCDwWpZhibffuhH6Mvsw8C5kt
U/Ni6j2D3U7nHL52ELY3HXBCj5feauVT/O9lXzCghqZ6TmVg8gnL7gqPugTM5NTt
d6imvemBUj/3lVphKNiLf3xeu/xpuavmvPnBoWI0DQH9FMFpAqiWEE+QHTP3WgM+
a/FXBdPiPR9KGQpd/eaZyv5yiToPU4phLBakLVuJAhwEEAECAAYFAk6fD74ACgkQ
B9BFOha3Nhe2dRAAxL4rpsphmMaAVqhBHd4gyeNARfR3sy6Zvf8WhtyyN85vZZqs
o0mxxt+kP1XuOjx1BJCpOBcHCPL0DU/2ouGGsHPLKEQkkBEkTKxNNO+6FUQ0AWYC
FPRqGdZVr1w4TIpoA2z0GzHOjnuACnZFehDpPcpvpp9Ubsa+s2zFxE6U41OU9TJf
VT9O/fNXz6TlvXuvgYcrGCimOkjwQ+3xSDciSVm2HPlzL09cjl5zf8D2oqexsyvX
WApQrPtFNxJRnpQUijO7+ZJF5Wjdr/3+6RlbnBz5+XCFXY/rBXUhj2gUSNQgtoPI
kgqwxd7e+eaTtNp/ZRP5lGNoqfqc1LU2/vuFkr4Aji87uqTUJ23zCd5iaQoiM2Cr
NtLt7IFWRah+y9zhzxKcJ9ObZDlc9QpeNCeYyxT8Psv/PEz5GrKh/g331W0odMd/
LN+7bJoD8NfJAU+aTmun6WXuyG+Rbw2uKzXKBrwtMj0Cr+QNit/ruo6ot2ba/7PS
hbrNxmz02AbTxgTwaBCRMbvBwz22t6VhDOhjY3dG0CX+zZW1D4dAvviRtz3fgis1
p3ePKk67j1pvtcBHhzhdqtXNqwjPRKOI4HjhXqvaAyHdiZ3TTyd/q/5+EOgtzLe7
VU1FCIGDKkwRkiqqBjZRHTg9nrU2Hp/LaeBXCDR1fGeazUVIFES3EX1a0TmJAhwE
EAEIAAYFAk6NwQ8ACgkQgKd/YJXN5H4YhQ//ayFW/lwtaWlZniJ6xy7v3PPDn/v2
X8LjvPpwTUimn7cXqKqu/arh9dMJF2tCpvS9J2f0XZDW63rqHMSMQlYUY7ogtRvy
rYAERONh8gaAtxnu/lIPYzso/aFB9U9kAi466jMBEb7xtHRSjD/N6nv5TahDCX/3
/91doM25mEtY9E7COohS2U7MOT6bRNXgpAo2xCcOe3ao5vEmlcdPEVgYCril364i
OHC58yAs9Z1sRn2nYCEkRXkWozZfXOOb+mutpwvH6JPHjosDfkgQHcJ7vTcxGwaZ
UXAT8Q6Y1nJ1mGTRgHiM08dAauO46wn1Q+CGMpLbdEp9sEVkU8lg0C5PXBj69DJ9
TmumpihlBeVlIW/03ZcV6Zz5Ipl4zDfhWGnLMzXzxnxfxRMxri+hqBAVpYU+Hk6F
/wRFfrH+DvDgDb5Q6wvSq7Iu0WjRqtGkgAxPksYILLEy4blx0J7nEPOkQTjQCKk6
Wlr3XVsr3mdD9FaODe4wP57x0t8hlOvTT2mecs0EAUrzuOwhbPIKjfQe0fVqSwbW
hpVhTaPScMl5+C6xbez18+/UeSZy/JhLmrvJ59oFL0rq8VmSEuLQZe50Gp00ghOb
23+fPpETAEvuJkRvp/867ckyVbUmsbTFPwKfJ81MDFsNL3X2mID5G52CV+7yQIrV
edsxBh5nYnZbvKqJAjgEEwECACIFAk6M5qgCGwMGCwkIBwMCBhUIAgkKCwQWAgMB
Ah4BAheAAAoJEIDYlhuvXHmZ5AEP/1bc7DUctGcSelwD/jdazZ9TtJGoihXZAuSf
5nOCV2aA5ODD0cv9MjmLyXsYriHgt6X3vxcsvXX7xl8Gkh8lhXa+ZPBWTTI+nzcv
h4+UctizL73A3SB7gEJHuOyEmksPQTamkyTSZWDU6WLwt96sKfCFvupy+SZ5Gx+R
X/ZopyitlF2MJCxmRUPW/pf2i9U6rqyJLBrXAt7Ua+o4X6YloHm8DNSC9XFs+PAg
ZQ8AgA6BP8Uw7z7UWt6FE3LHZR3h22nxOz6ODm1ncquHwSdvjPTsoOM/9HXOz7gz
NJZmw0bZfSuhsAw2VSW5ucWTvpkoBJpL6o6ymvrfwjPcOCQkZHi5E4QsXV3EeOZF
y+ztXDcGWMiNWRzJEmLLD6CbtjSG3JB3rHtMWte3rSAj5xzc59D5nz9b8CyltYZ6
j3yUBDlRSbOkeMMGiR64w9FwQdu3i9gltsLNtPL/gMR5RfsAnNLrb05PVmjkSHeE
YnZpRAhgkrDMvi95HWpb6Yj6FfR5LWcykhh4568WYIHNo5G5G5K7CepX0MXh8ssB
qpMv9RIa4IcShEdaEQdarSF/5w0k7hY3lSOsBZofQSwr3C3XuDmKTaQlc1HbuNh+
FUoxrA7kGEIeWcspnTnl65pEFCJYQKAB+7K8lX2vZfEtzmPao0bEU3JULb3ZkIqY
FmWYc2dktDVLcmlzdGVuIENhcmxzb24gQWNjYXJkaSA8a3Jpc3Rlbi5jLmFjY2Fy
ZGlAaW50ZWwuY29tPokCHAQQAQIABgUCTp8PvgAKCRAH0EU6Frc2F+S4EACRmO9B
r3GWZ4DIMwIeX72FU66aeLAEiavlvvKk+W5gNFABjBTtHLlSq+PCH171MWNQ4/1c
Dyxhc+Zg3oiqY8wEgiEacXG+xBu6TJ8UJZ/NP+/nvR1su3pg3gH/Jcpi/wPnFgVG
q6apjNYMiRdiz3PMvaYCeUpviXsPb0Y2xu4oi6gnTAmG8ouaJN6XSiLHgQDv1nB5
rXBTaOSuIiP4JxAPaBTGBCOYp4e+L2QNEuQMdpdS9Edal5W0m/5cGbjj532PQYB8
MYaYS9AF8gmT9HNQidN1cMAANjI1yQ2j8OikkvzrszB0IDsupB5ynab9Ik3rGWJW
XVdmEa9C8/fHnHSr69MEmT3Y/4inLT2gNDSqrKCv7D4H7o4vOlMmFMsqJMbwP0fO
42WuVnSGhzrVmZF+qWhyLiUJR04F5Qr6U00KjXq8BjQJ1O6Z5AjvZCZ0ABF2Th8o
iRHkUFDI6NR5Iu4O+6akjLQzAovm8jO5c42wmvjZc+qshs6tV7QuaGss3ew57wEc
AAxt1EWYNt631sXMnOn7ZvaL9JGvTewUCEsw2JI8N+tkWP73T4CXIVMdfbGHGgNh
UH96xBFUgYKkjBQhEQzHYHJz0MT6MZkWZXkXx5qNtiuhzQyAlkTLcinS2Q+Nc2Q7
vwa7M37slfhSiqv7E7xJ55+GDTvXv3PvUxZF1okCOAQTAQIAIgUCTo358AIbAwYL
CQgHAwIGFQgCCQoLBBYCAwECHgECF4AACgkQgNiWG69ceZngDw//QAsK0vMBux1Q
w3yGJnDBt0sy31gmMxRk9EsWHoM9EWwMtG/O6gILUV49guZhOlQj8XZJoPDp+ZVd
H2FHk+Ds47v9ulJrhrt0/uhXn2hwF7cu+kt1EGxd6325n0rnoY2p5J/43CuQf1/x
02tDkMO++nfho90pZYMIbemXByDESIiJ1XLXQRvd1E2P6nDcwCWRu7E0SEdPU/3A
S3Ewn98PS0rKbHN4dl7Z1QHTm7oIaZphukv0vI3kGBqIRGvSWl1fZ+qKQL5xG7DK
jzhW1JZJklEnd7ux5Ji4uRaO6HGKY6TjvToRAqq1u2qi7px7ZMW2quwIsRpCxuzr
JyxVVSjjnP+ZRlV0EQZEGqyp7OjVBSuBRNhJ8BJvx7miZJbGEfuFe6OauJkJF5DP
C+r273WZ4kvyiyhr14Oalz2nZoilPvMn5c60mHeIZafLyYrw1IgeiG8gQ4KQUCfl
PuGRfhOrk0uSaW+MQcIZSAb+pgV5hdIWj8U9v8a4kT93b06XBiHCn3pdWTrXuF9x
4K0Y+jvO/BELcAPMBm0pvMyywknFGPdsjjURFu5gyjN+s1FpznU3PDuhMnZd3Hpv
iDaRP6+OIdwh/Ua4b2pAxDN9Ij6U7+KZK4aV2zC39UfudcFRIJIZaVYJPEUGRRjv
d1lWEMT5saBm4SQYe3mHv/S2p+GIOKG5Ag0ETozmqAEQAMOqUp77mRGWNPhS6aas
4XW8gGt2RoLUZh3UJ8RbALppD20hkqgzFpeiKO7uhm8h52jLPXBRUQ3uFfBcLtoS
27DVjVExGuRD4Pjol/Y7Ckb29ZFvV2KhoF65W4aVVBU5sklj9oXZspDvPIv++Pvq
rcV/JHopxxwcCTFOhRAjT+1YWIcNQxLdawA0H5qdwefjzGKeCnUxxjH1hRw5eUex
Y8JrIo+jrJjPVs8ZEmbG5+FPJHz42IBOS4ycSUGlzmOL7P3aMRJmM50n7xMMFV07
bh5i9yelRcwIPjFf5mYZnnnZxWfeCqOlzC7oqorzqYFOjBlvhY3l7ZQmkW353lsU
e0gADbF9y2ouTYlvHY3kzvpnsI3AqbHo3Ai9YINRHXCra2FyZX0HCnSoksmK33Ea
G06SkzLwnwYX7DBXZZDWlSsxrCjoLIOriGZWsoTccPiuA3jhN0ei8MnhaIQrJAq3
HUz+HmmUL/WsEH7g7//hxKyL5IVFmSBPpO2ewJyF6bkYqjMR/dZpgEAhQ6wb/nuS
GwHL2Hp8+5KY7NN0vS2yId9ji2ECwVLIOUbd6xfaAJaq2CLyr6urxgZuj8QIiIbm
1J7bxhsPIhoJLPvHYg9OlYHueSavbh5lgpTmisQ48UCrDp63U1gcKZkbawnFjViF
YfBYsJx8yK87EvLKbgLBnwajABEBAAGJAh8EGAECAAkFAk6M5qgCGwwACgkQgNiW
G69ceZlFBg/+PiEbnslbYiR6YZfDhuTYU6p3z9m46Q36nImZaWTcrMZyu7TKgxJA
/BVoDbTuCEB+v1XCzc5AHVYxROrzqA/E8Nj6kKmTC/8nLga9PDDU8GBwOOiVBYUk
75WYWJO1XW115BGnwWZOx0Enl3UEQ3sTLZ3hzffIEXrkzq3KQW2DNcW12FKWWA4O
/IDEYk8VMCwUrrF3o8uHBGfc1P3Jx6WPKh9YgLVDLIYY3Bpj+ygIQeXi2tF8/ZSb
Gue1WJzDv4IQIsEbctx8yj5F/UhYyPRyCDIcoc6A0NUNeK8v38LyVvRFgjs+uoHj
rGw6sann40RKVVe7eP3UikM1j3tpQ8QnGTnoTksRKBg5/JEJ+dNKxMJr6cKDHgBq
ENVMq+EJg9f+MNENazqk1Ik7b4lmB93YZ0GXvg0W/nGPom7KViz7DBSl2bdiLSy4
bpO+1CAWiI5e+Ou5gGfGdUVBtJsld3QbjEk5BJ8ilFHGLFLexHyU4T8pU0sU8JI/
iz6Vhglpw4NM1OgiosOHJO04VgYM3pciHQyt025JBsKmqgdsmyAYjbGv0g84O84H
An2o5EKIiI/lW41xOHbWxlvu568JCl7eJdO0qW8ZBy/AvjmUffVDCLbnstfzwxI6
ZAt3Zw219tZxgcyLBvPH9896hLUa0u95WP06n6eJbliJa3hsMAJtvdo=
=ZImW
-----END PGP PUBLIC KEY BLOCK-----
