pub   rsa2048 2011-09-23 [SC] [expires: 2036-01-23]
      D5606E73C8B46271BEAD9ADF814AE47C214854D6
uid                      James Bottomley <James.Bottomley@HansenPartnership.com>
uid                      James Bottomley <jejb@kernel.org>
uid                      James Bottomley <jejb@linux.vnet.ibm.com>
uid                      [jpeg image of size 5254]
uid                      James Bottomley <jejb@linux.ibm.com>
uid                      James Bottomley <jejb@hansenpartnership.com>
sub   nistp256 2018-01-23 [S] [expires: 2036-01-23]
      E76040DB76CA3D176708F9AAE742C94CEE98AC85
sub   nistp256 2018-01-23 [E] [expires: 2036-01-23]
      0A3F49FC7E20D7BB7EE800F93E01E40786F26FB8
sub   nistp256 2023-07-20 [A] [expires: 2036-01-23]
      47373497690FAED0C128035A920E9CA6AA3F170D

-----BEGIN PGP PUBLIC KEY BLOCK-----

mQENBE58FlABCADPM714lRLxGmba4JFjkocqpj1/6/Cx+IXezcS22azZetzCXDpm
2MfNElecY3qkFjfnoffQiw5rrOO0/oRSATOh8+2fmJ6el7naRbDuh+i8lVESfdlk
oqX57H5R8h/UTIp6gn1mpNlxjQv6QSZbl551zQ1nmkSVRbA5TbEp4br5GZeJ58es
mYDCBwxuFTsSsdzbOBNthLcudWpJZHURfMc0ew24By1nldL9F37AktNcCipKpC2U
0NtGlJjYPNSVXrCd1izxKmO7te7BLP+7B4DNj1VRnaf8X9+VIApCi/l4Kdx+ZR3a
LTqSuNsIMmXUJ3T8JRl+ag7kby/KBp+0OpotABEBAAG0IUphbWVzIEJvdHRvbWxl
eSA8amVqYkBrZXJuZWwub3JnPokCHAQQAQgABgUCTo3CBgAKCRCAp39glc3kfnBk
D/kBKGohDS1Q42tYlnTutfB3O6ZVa2cJQhJrSqIRDSNwhPK/CKyiK0Wjy3qxKgVt
XG5Gbv9D/eZN39INWpSAGcVtR7cJF961auYQY5BbFvZmZiw2cb3Zg4cyWRVTFCxQ
PnyBo58oGN5/z9O3wQyJ7XvZ2FEkNuereXeYjSIuebrxYy9SpBy9QJLjosap754G
sUqv5rct7D96RA5Uv/v69HdvoPLRWwRkHJHH1d+qg4kcc+EkpEruC8MuFc1NmRXP
RATr7IN/6o/U3gMrF47uUVAnkr03MooWU320kCsu0kP8U3hgmu+CRSIwUoNnha+D
q+DwIPbpVr934N4zVR5wqV7CU32cg6MEWadAViCmBVNaD8MsCe7Gv1jTuatSFmju
HhFljajRNupnn4Koydjr/5oLZ4CAjJ9rWqC29jjzNv5ippohJrcmo12A+BcZSYG1
DicuEIpTiWMl9JJEZ+HrmnyPr2AbHstVt8PjQDfP3+8r89Y9jS0SuJ4NQU9TLdrR
CuJ+Nmm01pNktuqY/SpzmkcWUdCwcV8cR/l4q+8Diokbj1sM7+TboDpw9KFhQ1aI
EZADXN1kzEDoM76EFcdMXGpE5sLz3tKU08rzJ90QDgTCexXSvgxisxLDq7IyH8Cx
NW+5zlx17dEVO5UVYScx1xgTBd1fv1toUOhaMr43dtfYs4kCHAQQAQgABgUCTqaW
bAAKCRD301j7KXHgpqAVEACDzWzH+JsSMbfEr4ztqvZ9zXYktS7Py7PtIuG+6Fps
DC28avovgHuAo5TSG7QJx8ZPoGpns35VvLMaU7pgpySg5U+/5y84iu4izuAAhCLU
vVmc3PfDTTiIeNvuO0S/BVSMczLBSeilDjKe8esCvPfAKGcjVE8hczrtWONlS3UJ
ahA1A1E6lHHwLb5Ueg/6IwXA5dRaOcOzxnm5361SGUnr9UfHysln02fxIbz13He8
ChxKunK3seu1+wBJ4uZdOEePYkhBQT6K5fnVpqh1h1wuSKC8r+h7P5IN27yEqddr
7YIOhGo2+Rnw1iKluW5Ew49BXOJcqB2VlxAc2r46WSy3G73hkEfLa0QnCueIt/ID
CndRW+jdxpMcs4y9ZcVnMOWDWTVgxc4abBTI5G9MMzbfpSupOblrM+ZNgrYOt2n5
gHrGwN+73luxybS00MjFoMEwv2W5rCHtQ6u7jTY4Z3u+gXVYkg3VTCersNefVH7a
5VH/5cU1n476YM+5iz7Vo1PHp/PsQuBCGpC6lm7HSm8VnNJcXshdBrzuV9BLOUl3
hDBQ4s3+0+JARUp88bMPH/KjmPz5oX/pFWHy55yTfpdBr5884H4BA+i6PFkZYf5F
RCa5Yd2l44dCXaPWGHzr4uYRAkI5Ml3sZ8H9j4onArHwrksEWFdnNoZ6BsDGCM14
lYkCHAQQAQgABgUCTqbijAAKCRDnv8jslYYRCUHSEAC4keYBgmSYQORfydfNZlE1
nxjeoJjmL0KrDJWMnXHaJAVycyh7LdoQxemiaq3h1v/vhuR0OgJvHAI7Koa0Cs51
uPW04d/qkaJHttK2g0Eko47k0T0cd4TkL0Jqix5IT/YcT+Hk94AdoH33NRldbUuv
HyHlfyquRVx6mB3ajCENNXtwu17LwEIwz5yRL5C5Un9m+l87SRLptFAI14+qL566
GymK4KsVQoLWY39kBZHtseMCfccSrwROtwpLWMR3jT57pNVNaCmuGFf7Z6kzG7or
q9UI1LIZQr+RwYRGsX4VWEGLbEoZNOx8+MS4671nte+ATNn9V1qv/IehZcL0dy5R
JGYnx5kSTJB/7ZhLX/k9YRoifXoTrBMudtoD+iZ9+ns7MKcphUDX6uWYZr+rgseS
N1G+iWXuIpKqSWt0T11WCHlIxiVXTSG/lP2esb8C2ol43hvr/QWXacmhQmOaAQxz
1l44IRq57ahSUJuiv2kbgP8+jxZBznOiZagWWgyy6WZZNSSQTsG06ZSjEOkLvWJD
MDvUOU78LMvZCXk8wo1MDFBYeqaUtnd6zezZ466lZcs7NUo4/vXsujqNyKL7QyMH
o12EWtqMeY1tJvsQqwi52EKiU8CLhhAmQ3yqG+NEOvDZvc4Cn9+0gXcATZYF8l2g
yz7/r4T4mIsKOtvQ/pW4RIkCHAQQAQgABgUCTqhn9wAKCRDg83Pze/kJmqn+EADD
oBJPaXVqfc71Pth8Uq2ov+rh534GsC5ET5Hw1IvgZGfP3zinc3QdUj99bpD/YUUk
r7otR0JZNO/AQnfgbOhCm8JxbY/7YepuMOL6/ysIU3fFYOCzF1WnQ/mHrVjUnhwT
G2ANO6pG4P0DbPltjHQ/I31k4/2w64xJiv+aMexoGP4El+8zIisEuJkLh7lsXXQt
7h0Gmzz0o4GYWIclU14IXDXB9vIIAvxIuvny9GsmMWDsi67IvJ7KjKt7anzcmycp
40EEVGqSyWFAH5ebsQ4KnEb9cL1PqV/Y+2+uik7/bc81BlaMUONevAjHkladteGW
b4CjNQ2Cib2CQ6V+nScF5V+367xLgdrTNDqSTYMy3eAsuoHYq5gSsZcCfhjKb9tO
jIcbWWpWmUiS5odHbW2I83DAZowHWeOy4oCqpX05G1hrgYbaR0yzUk08Qye3FrJo
IBOIm1y+G+KVwf9m3W+WeNq9w89E4TJ7/MBjcMdFw1Rc+KMcbSg7Ha0FAs7xdXK8
p/T8XT4ktWfSejTn11lE10AZVRPqTSUauDBhI0n5r7hC+R4ZEDFQYVJn1n7lb4IW
aNsTkYciGSU72xfpc2jJh1wwV+7NX3sFpMWXgN0BXuikAyLGtw4eF1Q6s+3wVN9O
CXiaAaOf/sAcMC4mlUN0FSAZwBJ9unC5eA7YavyEVIkCHAQQAQgABgUCUlsXgQAK
CRDvH364dl5DXe+wD/0d5jayXTebUoFv2AOk+WBEtw2QJWT0APPyEGrK6F0vDp2O
IjeCuP8ioGO4N66SkSlufbg+mNoeIe6BpF9aiaEnUfU8Ro5e8fHj+PFKiR8ChqxZ
vUQ+3Hkutjyy85BkZhweE3kWx4aQHDfEHo7S0gKEjbl1CMzsDZxeGehbdbn8WhpQ
c6OhdBjJMfln5SMDujaY+iGlITt4jY+e7MXZLKT1kiLVOCp71jpCo0YE07EI8JTl
g4OFmR3h+Us4t6//qPMPvJUZ8IUeder4matCX9gHVg7lp/whKqPiv7ZivFMXqe5c
I0/8b1UCBVzll7SL2B2/dTL4I+mCMLFgeE9T9+N4Jgos1zLxnNNC0Gh67QVnaGxB
XuftzQbzmiw8fMOb85Bj1odC2yvsKX4BUo2BxFNGzW2dw9g37tOdTYoXYtlVndY8
f4SGUd8nnY27HYhBqKcDkQJYuZyXK2bC/BOL+OWOaV2xKSOXdXZCGioUP3ApZa6P
rSL1LLpPZsRuw8evFvPLuOjJcsd2kxXSUW41b83AEbhFCWkFBmINCjonLj3k2MJ1
L8GpL1LuKlOen58rYMtZ4D4vT5kfu9XQxecB9Ke4UHWrzFESY1bbOxQAaLcQLXgy
6coo040iXOaxmXoMJ3eGTlLqU1TCIn4t/cvYA2Fjt8bG9TTsQT8T/WdLbwBL2okC
HAQQAQoABgUCTo1SfgAKCRCJcvTf3G3AJvGkD/0e89QCfwWYhWC1LxgnI+Tvkbd/
YMo0JCNh+a3r8tzdV1N+OrKVYcZKrGn6NUoAnaJv5mL8gEIOTemuLQpe3SPNA9Ii
9NGJ3DcVOuGk8C05RY0dljyx0uzDv78KE+NdvOdhCeJ7z5ZGyrRdUgxg8bKtbpn7
9WO6t0vYnizMrioyLxs8DueXuqjba94Gj1qi2ydpucDfZ7Ipce2FrgdG0/OX9puM
MtF74tc5o8to1jbdeEiM6trunOCVe2G0T5Phrgm2r7ngl4opHkCbcgapkgJA7N4Q
jBgidEVNpKgLCTTllTA3j5OCjlqdbApDbqlyhU+AJXuNEaEOORzdAP8KNLqsA+7F
TeDOYzHJoLP/G+Jn2O1V0tP93KuJgoeO07SXuW/KntmjY4QPbmV0Zl8BmGUUIFHK
4yEA/q1gR138ROlDvjrUk9rw0e8/IfWRUJNN1styfSRBioKiq3WF4U3RzNf+MMGm
iYUx6ZPSpH0P8gmjhoqAnRxtN0qlXEnurOIPCYZw2UcDmQXMghhv72S3rI4+DvbS
+lOcMSxUZS+ICn5Ct7BpRz2RCHApxknQa2gM8a7UDOhODEtpWUA+1e816hZQrAH9
6opc2VdarN0EU3zOB0KFbj7zz0vE3F25KvZ+cHyebBSDULvOoRtAIBOkaJgMWQ4p
PtwK2PSl/h2LvXCI6YkCHAQQAQoABgUCTqlExAAKCRAt+/RSPlQv2ThyD/44n5u9
JMxGPrA1kU0deTgKMPV67BOjoHCd/c4gnugFWAEjXZdoKxA4VT6WPELeRFWTVuSx
wTcL7xmpn2mOGft/jmRzHwXzaE9k+Ji4XFHOJnr4YV2A8mpmuvbhBbTJECiA3+C+
nhqJW40kh85IUphcb7rLKRIIMlOHBEkphOlHIMNCKyQl43LUsg+0ZClLG8MQTWSA
HriMDVLD7nY6NTsITfbXkvPW8SHxPKlfgShcvg0UQ1m/4zbR68jODWeRwZNvAzbC
QiESv02Vlyt3uaVkaqtumodsJCoSFabkdzL66abrtB8+vUSto7M/xOJ+HgIxbszD
voYahXy9mjia7W6K66+VDPPO5pSJGB7j6yaczluwieGwK3Qxwohlg5d5q4LBv2n9
WDvOP71rBQoulaO2w7pv/6Y1yzleBKshqCP1r8OMAgxi/9Vzj/Lgv4E6BBcxORPV
mnEWzPpUK3e+kBbGbThD2en7vZwtN/qj4T7fVFMtL2+bm8YxerweowR07Gl7joXF
DGiUOFCyt4AFxE9qR689ETzWb+pIa3KdDgfgjTyJGEEX/aXMoo38vUX8Gv34ZJXI
4KwZk49pwNS3g3BzliSd/c6GZNRwpmkIWCpsM0zdU7xKHR3NLYXxNWazpxlpCryh
0g7AzFtfzlbMSFzClg/YPxZ/Cwqi0XmBocG0aYkBVQQTAQgAPwIbAwYLCQgHAwIG
FQgCCQoLBBYCAwECHgECF4AWIQTVYG5zyLRicb6tmt+BSuR8IUhU1gUCYEuZmAUJ
GzWEvQAKCRCBSuR8IUhU1gacCAC+QZN+RQd+FOoh5g884HQm8S07ON0/2EMiaXBi
L6KQb5yP3w2PKEhug3+uPzugftUfgPEw6emRucrFFpwguhriGhB3pgWJIrTD4JUe
vrBgjEGOztJpbD73bLLyitSiPQZ6OFVOqIGhdqlc3n0qoNQ45n/w3LMVj6yP43Sf
BQeQGEdq4yHQxXPs0XQCbmr6Nf2p8mNsIKRYf90fCDmABH1lfZxoGJH/frQOBCJ9
bMRNCNy+aFtjd5m8ka5M7gcDvM7TAsKhD5O5qFs4aJHGajF4gCGoWmXZGrISQvrN
l9kWUhgsvoPqb2OTTeAQVRuV8C4FQamxzE3MRNH25j6s/qujiQIcBBMBCgAGBQJO
jU0XAAoJEOVv75VaS+3OzAMP/1S76GSH2t7pzHxlqExzBlPBpFhmU/fMLZBmrRcF
rqEaKETxQUBxDwcVLvSzyf9NiSPE8u4WNeRjBCFT9txxqw6y09Agi4JXV39Z9zYy
HrHgepHBB7lTfljNahHNhK2qfjHD0v9rtR2B2imlKcHkJw95MN+qP8QDOCn/aW/5
wUFj4dMonRRlQMuGUc+eDpxd+sIPFFgJZsLMRSDU3sCBZNy3qROOwsxADHDRVX9r
8+T4JoyA7/zG+6DFCOTOy7SvpDC4+zItB/gJ1cH6pQqk8ajmYJeMY+GkZ5+9QKpV
IKRA1Gr4CDjlaAfpyDGf0l7BRceXZT+c8AdZMYlcQXrp6amqF9y3v9kiy3fW3h//
PJb0prOf6USLy8CN4BS/YZFf961AdW/XeDwiRCl2hfOsvNLva9QwCCSoEAXtAPOO
U4Ro42Dzf4ffH8lCT5Q95s/JdGdD04EEyzigtt2Y1OKo7eU7SimYGFgfnOpOCC9U
EKQu7jHKqYnp7dVMozI6A96mvlWS8issn1TVgPQYt/uL2gmvpdFgq5W6BOZCVt38
YXLmhvyRV7Ak5+phcn2TXFgtZQLhHpUCMewpPUb+5ZiiEAtjAf8iU+e+XHIsMX2A
HwHs0LrazC+/OoG4M7YI+0abhjLetaS3nlcYHb7SfOuHiErmJvdQcl4/bZe/aTg9
Z+K4tCVKYW1lcyBCb3R0b21sZXkgPEpCb3R0b21sZXlAT2Rpbi5jb20+iQEfBDAB
AgAJBQJXI+B0Ah0gAAoJEIFK5HwhSFTWzkwH+gOg1UG/oB2lc0DF3lAJPloSIDBW
38D3rezXTUiJtAhenWrH2Cl/ejznjdTukxOcuR1bV8zxR9Zs9jhUin2tgCCxIbrd
vFIoYilMMRKcue1q0IYQHaqjd7ko8BHn9UysuX8qltJFar0BOClIlH95gdKWJbK4
6mw7bsXeD66N9IhAsOMJt6mSJmUdIOMuKy4dD4X3adegKMmoTRvHOndZQClTZHiY
t5ECRPO534Lb/gyKAKQkFiwirsgx11ZSx3zGlw28brco6ohSLMBylna/Pbbn5hII
86cjrCXWtQ4mE0Y6ofeFjpmMdfSRUxy6LHYd3fxVq9PoAJTv7vQ6bLTDFNa0KUph
bWVzIEJvdHRvbWxleSA8amVqYkBsaW51eC52bmV0LmlibS5jb20+iQFWBBMBCABA
AhsDBwsJCAcDAgEGFQgCCQoLBBYCAwECHgECF4AWIQTVYG5zyLRicb6tmt+BSuR8
IUhU1gUCYEuZlwUJGzWEvQAKCRCBSuR8IUhU1hGBB/9WGaVftbgiNjFc9ME0ZZzv
9zlv8Z8ooK8PiuHLjuzE6KNLRyW/6i/QgSdnXRuqvhk5xeZKlHvO7ezO60qyHAJC
GTGyZrSGypNI+RLLcmKpRNR876ZrLBqYP/LiQQblm1N+Wn9bmygo1LNfve+JmF5H
y5ktGuofnBu2rVS5sgpSHNn63d6NMxxffhOwWgfh0M0+JYXkAF7/SiPut5LJ2waX
GZ0uOLepotZc1BOufgJtc/tSibqxdkG4+AJCAsyYyWtG12vQ5hbp4z4S2wlNetC6
aWhtzpLMbjTk5BgqP7RKLQzqLWTQWHo1mlzdp6/Vqx+YQ30Ocy2snyjLS0nd90/b
tCpKYW1lcyBCb3R0b21sZXkgPEpCb3R0b21sZXlAUGFyYWxsZWxzLmNvbT6JAR8E
MAECAAkFAlcj4IwCHSAACgkQgUrkfCFIVNbV4gf/Q/TjlPKgQmT8ZMQeqH6dI9KW
2aaUXuogifm7VgYUlEc9uQ0M0DbuRlQUULdVLOr9zzxlNXBFouVi/d+Z8PtYVzyF
Qd8fIRJb3QjtmlOtWzHKRXdd/ABRzByfnpm6Ch25Z4bmOfi9TpQNUJj8OsEKKAqK
9Yddd5WYgWRqzxcY0WG1mFUJlWjOs4ZIhoCJM0MP4Pb+e5wM2LgYRY51R4Jpruvw
dDfM+sQ+bEjwmUo2Ekt/FBvcNfPUvB1a+HoOeI0XiBLyz0WsalRJ7KCpi4rK8sms
NxKamXGAFqF9AJvufAl6t4+Tr6wr28qkCFhRJW2tymv6E+wp03aP0lC/4zzaG7Q3
SmFtZXMgQm90dG9tbGV5IDxKYW1lcy5Cb3R0b21sZXlASGFuc2VuUGFydG5lcnNo
aXAuY29tPokCHAQQAQgABgUCTo3CBgAKCRCAp39glc3kfj+cEACOVCwia3ujTKDt
nIUMVY9gBBkjpaN1jgKwwex9i8n40iXmwOUyqc8Giel2+Zve0sw8XEjL4PDJPwbW
HSmwu72L/N2wTj+eOpMGG01FKyP8+QoaISByUCvxDA9wxuTiKoEG0HiB3ib4CaUy
b/nbmbwqbeYFVn8KCMOuh2kPxA+dFf6H5zkAA8syl1w3wwg0PwcvQXGJA4j5Fv4K
Jvk4HsSehVwZ7RnyUJ1DNpP0MyuGDMf7jfndu5jx/fd7Pj+BnJ4JyzH9eoj9dCSe
pEp/o/iutQoc6JWPmhzB6MyP9XDJ/w87OnuwC5/6WwP/drhbxcCYfhrh5mJ2pgUE
DXAsYpjuwtMscOUBc6ytvJXUpZ1JyUkXJxY84GrKuGQddKfjFTDZXpfgGJKbYmdp
Voqyyd8oxLeFec3zN3tB9CZYHPbHxEJdrFKGS+V9h6ThjV7AaOvA0MNgwjt38tB5
ov0HfGpezwDepM+YnzTYEp29sGfWMNudEHlw1MVv85dltQqOyfbGnmArwu+U+Y1R
bUzaHU8rJKQ8ZeGTzwWndO8E5iSRKy5yb+UtRGtf1QS8hnnYVGO1058WNK7rt+5x
fgLaWGUOKSkxofQJZriF7G4652OWbcPxiwncSyIl27BrqefosyK9IfXH3XKpEZks
UEN3ZkGyI0o1OEtR09hkVWZO5XBXEYkCHAQQAQgABgUCTqaWaAAKCRD301j7KXHg
psioEAC2klMZW4qq0vLNrbXuPV8kQZMk8ntuovU6B6WEvlbZ50jmLrdck5Uq5dfb
74wNE0GmJBzP8kxzp8VmEPrPycjdaNjqIewpOug/CWhtNbEllEirJ+vQo681HbVm
CR0iD6pveJ+WeTGBpmot09Z0DxpYAgT+ZTg/R1uxPmTEHtqYxzqM7joo5l2MpQzR
Mto2Knlvt5IyGmgJzRhJ6xJQ5ilhXGTpBlktHokoYCWWEeddK+9S7XusTs2ELc8U
1zlJIjEOGEBvcZhqPfFUrbCT9yVcty1W17rWinwNqz8+9gW670Dg3/CyivSvMyL1
HAykYL3HAVHC8SrANrtU58TTHWzI0LWdsrMTbid9IuGU+zerxcix5OmktGwURl2z
k/ZGpdb/WLtDcZXbU0VrjpPW/a4GkAM4KCthzhRmKv4uua4ohMZ4cyeOVDqhMBSr
QvzAUiuhOxe78xhI+DtSW3z5Nxy8fJe0h4qMJ03cB3o1ooY4ySmXMEBUnIx0v2y5
7AnT9zy52I1Ry4WD6tFXiM1ykaKwiFAORe2fuSjpOv7gFbRiOm26XE6DOvmUhi+T
Gy4mbhI0tBbkTti2TkdBuh7XumFN/byjG08VvIsMQT17SVOhLDx/2/pzNhPucFGm
NfSBVH5gYT9RiOW92rkbyweFenWv1DBCLuhoOQ7EEwfXymvFKYkCHAQQAQgABgUC
TqbijAAKCRDnv8jslYYRCa53D/9GZI2JgmJK1uQvLziTLrA8gqtKvfMX5gW1wZgw
SRFKssrXrv2bq0Xb/TB0DXSCHB+mk5mxw75wfLMsCoz9b4nB0Vw92U05ooRAW1vD
MO+HTTUAv5Fn48+M9vqiKNKWjF7I8QPIDxstqlVaiwyHnLD95td4sVQ1WiEaqyZP
kJ2qDadvcKDqAwCx6roi1xrxlmDADjX8DKroEVJTgxq6d688KBW9tiNFHpoo5gf+
H43wZPeY/hd9gqNJ6PmYeUA7w0c6eMjunAuEIrirf5168C/4kfIM6o95xGhfXjNT
AM6FyWYNVioty0XfSKdTFw4lmTKwVP+Huppkpodx+CM3NTH+PCqyWW5iOp+K3mxI
HCtFt2LFjKI0wLoDdRwmATsw5RaAsQOSwS6/UkRk5Uf0jy+l5u7AIy3Zsn6Ra/Wl
PNF/neGqotmEDa895JGXgiJsTdSA6bkO0nFMQB33b4MyxytFQ2NvrE+qwDW8atSk
CDLAM1cUKir6jet5MsecDui/w8sQlclRXicrOr4rXQlRW7onGK4bzkeQV+H05qsq
33B73MHk1/XE0/UKxW9dNTYCyRW9d0O4+KhM4QEPgoKA+1pZDZtO9OurmJOOe58H
zoxTQlJ4KHZNtuH8f+mOD/zCaevUhiCa66HBQAAJKV+IM9TihNxfglaU/XjtzuRx
24bJTYkCHAQQAQgABgUCTqhn9wAKCRDg83Pze/kJmsVNEACOn7OVr3VpZrxJ8fE4
8Nb3a78sBtMU+zvShuP3R9IqyLA6mOyrm/hIcr2ErJtucXyLudyXLu+BjWZsSsn+
biF3hWiLfGTvU4W/nJDCcdp7QkJjxobtKGEX0BandOI0zbzq6Um2ynQXi/JREa6f
kSOrTxhnW4hkNGYrpLgEgPr2hcQZWeAE23X1TRZTJ4lWgblRqr6QODl3LX1vai//
M/hHrIs71su0P9r56S39AGSG1TH4E/vrZ1ZWfrpmdGSFyzYbbkqXd/QE3+xikyor
C+jToElZuUO+E3/6AzfKrP8BC+1YpQzyZ3sP+NAapRcHlwnv9R4I6khc/0jS5PQ0
ixLNvKZqRu6vK32G+Yh8vXMEeVMj5PI595QQ8QJrviN2g3H+wgMDUoxO9O3Cvzx/
QgoxrtlahbVLxpob04svqbR2CbHoNAsdtLFtw5tLNEYtoMVRT3mMrAcWc6sGEak+
NrclE6flyQyucCTX41TTMl+dvxhFlEy5BCL3DtRrqlI6a3aWT5ktMYD2L9w3NATy
y+5GznMxLLLfssBpt0AxaK/s+UP2xJcMXPp68WAuWF5x7cUkxCWIzNgfD9sdZPNQ
qjhwr0oO5FW1IuGgG2e9sYjyI+AO7XYO+JEU1oRU3WwGCnggpi2QBi7/haPbtani
3h9D4hpAFeGMhqZiJ1/PzPkIbYkCHAQQAQgABgUCUlsXgQAKCRDvH364dl5DXYzf
D/wPIrvURB9HpyqId+3f0R6rD858gHMO58w7ULemiTBKLoxGCK+E+SJz3p8BAxOm
adQ+c11ey/u956X0/Ov3LPW107PUX8azIo2yVyzvSuyK+SUrlg9//Na0DkihakpX
aFAufo20ZoKkpx9704f+tvfd2nIXn24fI6AweGVUsdobkoIqEd4jSgiTnW1fawlK
qmBpC6GjuVONeYXAXH+fhjhDcohgaGIGV+jD0YOTL373dL8Gjp/KQSzY8zb8Arem
A9K+BALPYcaOO61AM5q7O0k879fkUlsOsx6O5jNjQvvVWtY0DLYL5fqosEWH9tcj
HS0lfZ2Wkt7cXUCUNdC5sVyZqaQBEfeP3ZUaFmJky1udv3sCbAGUtS4zA8hTzhA1
SQSsWdfNB7kp+LYR2HSm99T1EoIeiatXSy8LkGUHXUKyrxQEIb8c6pNmGh9SnXw1
59JUs4lA6u42OIadt5CQI6YH9FcAZRdMSxFlnIj6eDI++TLTuGwox6oi3BDqH0uy
L3c62ocRlVmp7TvQxdUz9q1d7z/RrMvakxeD7H63Fy+UvCLR5l66qeSlnemkRnPB
d3zE1F1nY7vgKrmhFNPKJlhwkWn0tpTEIH+JAZRljkeRelbBYXmDEkOKDnjn+fM6
w7/E3VzyPhvEiOQCkzDXDpOFC39HlPX4yo7i63LJEXMzWYkCHAQQAQoABgUCTo1S
fgAKCRCJcvTf3G3AJtV9EACCYTbYdDtcjfVznypH7ueJmonwmCoOMaQHSE/B+D8R
0WvjGN2BO9VMnUIDGJejqcp/2qpaJHF8513fh43mnyhezeJtaFazV4oK1ehC50ub
kDt23WBtUZeEkXGCE3STtEjt8R4UxtoEf8PhZdX05STkmr+NL5SlvbHTXflT3z2C
6Ih1Uwtjn53VThyoKuiBN4KLK1XCs0xOR0cDamyYeb2gtWiUGBP2u6G4pEZ1jPXm
Rmsxf29JF5UUfG6z1s+CVXuDFmDPE/J7idB00CZLOtKsBtpzyp4TLa1Ems0MLoDg
0RGbGRKz3Uu1RsNQEbEDma5QbzLwjaXUYJMZiQmviEEnJMtJ01G/50z1VEZzaCq3
9o1HWQkk8hl5gyqJX51mqUUrk8xpmGEb63+65JR9TKxBWFrwtYx+vdp//9eY7ZsN
ENH6F3d4PygbR/BMrZOWRZE/Rq8tLCPKmjih6EiIxEiBaxl4wQIFs/6ZID7ved/T
OKFZyHW5v6xtdkB/ru6CJblGL82IGQabk/yR9njCiLxJoxoORUMUOYVy4E0Y/Sgn
bq+l3IXZ+jRYatgZqB2GsevAxfFDTf5ZLlh21UFFBU6y7VIqTKDme+aA9lJTBPZo
ss2lwuuyMTg+toIvrh4T8aLdMTte3pHNk2QZKi+dZJkKPsIoJAI8kcq6PTTTAtfV
WYkCHAQQAQoABgUCTqlExAAKCRAt+/RSPlQv2ZRfEACbp9UyduzPZlwp/X7rRgRT
XY9i3vg1AWeXDn2btwMBqGH+mbervncsiXwcNcyRsih1uzmqWPosGVR1prU5FYcZ
KxY1GrO+rdw8CNXn/qlDDrywlKcNbbxZVXTYFauGvdqCGgeh4eQaSDn0VJSp2VDh
a/V9ySFHbR9/ZGqwbcDHrlMgp5PaTLz5es8Xdmo+FeOy44VfXqUFRlibbNjwvE7X
5qbc3jR8oU5liZA7MWXr3eHd4PPyltukmzXZdyT8IhTUvZiDgsVWepmztSR+s7Ma
QZ5veoQ86zRWvWJqrgQOIFK/goNrD/7Ednl6FpLwZy9Iiy595ymsZb6CntKCjQLj
JO68FgKKSos4UIDclFj5l8LHGfhrKGQK5hVQN1QKwDECMgJ8aW6VREkEZ9lJfums
WInZVvXB99BbfLy/MjYiMfZr5dWLpePgtJ08Qchm77a/5+pygZk8X8DrcFKSI8o/
UfrM4LOQOo3Cnu4fo0JuzlpeKbm/PSiKnOYZ5E1cxVRfRrV/rXJHL8MltBXT3OGn
0UcVQeJj5INTzootWYzRPlYgloqei27bFArEh63qhQmBfXPKEEhkYiv/PtKDRkUh
lBe3JevLeV3+NNgeMqk7cXMRZx6IqLYSpLby6jcXLbthVoyc4b3Tn4SFLaqkm61z
7cLL+uorQIw9B954D3SOQIkCHAQTAQoABgUCTo1NFwAKCRDlb++VWkvtzlQyD/4y
w/B30nOxfKyvIDcvjaaRxQsG55+Nq2vuYSiZf/f9ItbZhtTkE23e7Zo3Jr7ifrNL
9qKWFyCi76xiDb6wRP847rFk50IdRwj0cHFeaaBa+aAaApHfSXZfdES6fF0XnpSz
lMMCWnPkXRGZBJfVF7hpuMqTpXGmuvqcWtP9tVLo5VqH3HprDQMqAnF26WeAGL5M
Ey64iyDmLVWOrUYmWPmJUeNDq7TPEVwPv1wbPTXTe0CBptrcq0zAQtBKWDPaY0ZS
wJM8UZvAM3IK9sOVdANDSfuQFQqVZEL00XiCOHJ+4M2Jl+D5oe1eznCHQ9ZmOwpm
J8v0jteA2qCkeJa1EmoTSiN26II4Vkpk6ham/ewY6emnTFXcppUS6kEfCPlKtR1m
d7QR7NRJkOLXOu+hMqf6SesImj1pyuuuq406Sf88ijrwMqTy/haVoDEmKl5GevFW
7YSrkwSL22k1JyqJJz5+sA8e+9acwTOGyj0rqWe7pAEMPq4UUZhf77G4VqHD7Kch
gs9Iy2DKhIpTijKmRrSUBoqr3SJm2kXnpkFuT4JWk/b91k+pn9oqJmCtk6ypP81k
9AZDZdCzYiE0OPpksDFSHOIv9F2JcLs39qjH6EhT89D3n4AqHcUzpgtdU5pQL4rQ
SiXnvpRLNuM64VEu9RHm4aMgaXRD9ZUW8fCiCeGpNokBWAQTAQgAQgIbAwYLCQgH
AwIGFQgCCQoLBBYCAwECHgECF4ACGQEWIQTVYG5zyLRicb6tmt+BSuR8IUhU1gUC
aXZkEgUJLcZQwgAKCRCBSuR8IUhU1kqNB/915HOVdkKUrFML8R7bIQ+qpLuab8g1
QDj0p1BDmgiFLGRQHLT0niqMwijkXxkWQVOqKQGp4vfksq7s7uufxYRN9fwHG+iz
cdSyXeMejfgMRLgxQUimhA+C2ItEbAtsrRxUIACtHa7aqPgAGZNGuzUjWS92MTDq
Bq065e0R7+Pk7Z+9/NOr0YGvRDefYgCwVeLiEuXHpU8Ty3JZRnwFYkq2KHckB5SJ
cW8BIvcxxXStX1GdTRVuMRASFITs8xiFamcML0DIFvSVcmWVBG8Lc1KRQHwpVCA0
3FE+yzRYT+cGhnh0UDjaNPLNPPyU3KXFmgBZXtYlvdDFWDigKh1FWvHG0dPZ09cB
EAABAQAAAAAAAAAAAAAAAP/Y/+AAEEpGSUYAAQEBAEgASAAA/9sAQwABAQEBAQEB
AQEBAQEBAQEBAQEBAQEBAQEBAQEBAQEBAQEBAQEBAQEBAQEBAgICAgICAgICAgID
AwMDAwMDAwMD/9sAQwEBAQEBAQECAQECAgIBAgIDAwMDAwMDAwMDAwMDAwMDAwMD
AwMDAwMDAwMDAwMDAwMDAwMDAwMDAwMDAwMDAwMD/8AAEQgAWABjAwERAAIRAQMR
Af/EAB8AAAAHAQADAQAAAAAAAAAAAAMFBgcICQoEAQILAP/EAEAQAAEDAwMDAQYB
CAcJAAAAAAECAwQFBhEAByEIEjETCRQVIkFRYSMlMkJxgZGhChZSwdHw8RckM1Vk
c4SSk//EABQBAQAAAAAAAAAAAAAAAAAAAAD/xAAUEQEAAAAAAAAAAAAAAAAAAAAA
/9oADAMBAAIRAxEAPwDXvUKtUxVaikVKeAmoTQAJkgAASXQkJw4EgADjHGg8Iq9T
xk1GdjxzMkHx9clzQVjdd/WPTdrKHItyNdE9moux5caU7Dq81L8WVMYkRI57Ichq
QlbbJceACvKEkjkaDOnB6itxbz3acYRfu5DVE+HxGm3/AOvNWiUN16NCKo6kiRcs
SV73UHP+EcLwls9+M50CAndXd7xd1X6bdVcvpinwmhDg1Bu+rtpsF+bUH2oSnn3Y
tfkwZEhTSweELDJbVjlWNAaMdVW5MqTVKFL3M3Mp1QQ+s0qom5Lpitu0aO/BjGQH
RPnF0Ptu96HVIaBQQODwAcbbbrzuq2Xk02r70XZKmwa5LRT1v3BdrMuT7k4pthT7
C3nWFxnCk+spvvISOUZB0FxHRv1zbrTb0tCyNzLmkV21r0auJti6H6rNdk29Vacy
anAbqk4MsQHafUGfVZbXlKkKbTkfNoLkBclQlNByPWpr7Kx3IcanyHG1hWFdyVpd
KSMeMHQFb9frAzirVJP/AJ0pOPsOHvw0BK/cNbB4rFU+uPzjLHP/ANjoC1dy10HB
rVV8HP5xmefH1ePjQBf1lr3/ADyrjgcCozOOP+8dA8NUUPi9U4OBUZ2ef+pd/HPn
QRJ6vN17j2r2tqFftqU3CmNAlySt9pp1trGElkOBZfKVHKkJAUrgAjOgxvbq79XR
v1vPcFBlO1FkQiK1WLgkFa0QpiZYky1utyQpyO62y20nCFYKFdoAB0CqTGo9q1q4
KH7yg0237ah3dEmuvwHo9ZqdWCI6I77CH5ciIuC2gIDRUFISo+BoFIbSti/LCRCr
dKpFaqdeTHZarKU+jVYUSU8VOSUvHvYK4KcpC+FK/tE6CPEaoWhQ9z6ptFPTHFXc
pyazQ6tLTEW4ssdrUalMyJbjbLbXbHfU96aStTrgA8DQRw3DotSg7pKjUiEurpjz
aI9EqjMF9VKoaC0uGpc6WgvGWtU6d2OFQKj6QV24J0Ew9sL0uCnxY9vMXGmn1duq
V2CmXBkNiPVVyl/MqMxJ9OBFcZkQCgKLfe2l0YGg1udG18pujaOz2U3G1cD8K1aY
ao47KZk1GNUvUe9VmY606tLrwQe1w4wOxJ/WxoJXyHR2k54+gPP1Jz+zGgIZDqec
HPBAGeP9SNATuvYP05+pP0Jzx9s40AHrJ/yT/hoH+qr6fi9V5JHxGaPJxj3p3Hnn
nGgpI9tBu4qxNnLbpbiXWmZ86TUVvszH4S5JgORUM0/1GD3+k86+FOZCvlTkeDoK
WPZZdNdB6g4vUJujcU6bM90qbVoQIsKUXW2aq7C+IVOUZi22lyXkNT2EKOO38kCN
BYxSfZjWdAbfqEFcyfUqnGV79JqKly3vXaS4I6ipaVBLygfmIIyT9tBzK6F51rR4
rciNVU0xuUGm3ovrsLjxHH1LQHPRS73tpJAUEgHBI4B0DI9WXsvrFumhs3zbLlQi
XC2Xn4VcD8iFPhPuMrU+G0lAUqOhQQspJCCc4+ugqVt9+79mp9fsutv/AB2dXPdq
G2aikttmRDVIU7LVIZiqW5HWAFFSlpUFKykk6BKXPRa9btVhX3S7mpjkp5XoO21G
qfxduCmMllUmT6/peky1ElYB4U6ouAc40F23Qfu9Ps97buowb4fnPT65Go92Upb8
ZinLblLhMVSIinFoON+4MyPUbkYb7whOUjnQaQBMblxmpLKwpl5pDravopDiQUkZ
55ToCiS7jJyRnPGRxjjx+zQEjrysnk4/EjHHGdACHl48g/tGgfisSQK1Vk58VSf/
AAEp7+egzg+3jo9z3FB2ocpPvcumUaBcL9QprYUqLKRNUzHUFApQkSmlJQpCu84G
fl0CD9gVZtZoPS/uvMr7TdNRV97a+9CcmOttOSo8W3rYidzQV6alNtvpU2PupJxo
L/aDT2Y7HvyXmXWFKCSpBBCV9w8kEjP2+vGgK7u3Z2lsiOHLvvOiwnXV+jHpy3RL
mLkkKKWG4jAee9X5DgYznjQRh3P3p27u6jy6fFp9yNx/RU63V5VHkxKYpshIUgqf
DS0rUlQwCOdBnJ60Omqr0fcumbkm4pbtuzKjTahBQwhIorsMoU2O9DAD2fygCynK
wrGOQNBXbfVkXJWtyKl8CdqbUV2GlTrTC3JNPgNqYR6y0SvVSt9HrtglKlDIRk6C
wDoApl5Vnc2NZECF8Ydh7h05u56iktuFpbEeQmZS6c246whS/wAk6vlaEt9mCokg
aDZFFaEanxI6cpDUdpPaUpSU4QkYKUqUkEeOCfGg4pCs5wccZ5P93PjQEzqsHGc4
+mRx/DyONAAVH7kfv0Dv1iV+fK0MgfnWop/Z/vbwxoGH362PszqDsOo2Vd0dsofb
dXTqglll2RTpamVNNvNeqhSi2cjuSCnuA88Z0FI87pR3g2Ts24NuqNS3JC4tzyTb
NZbuyfb1t06hmGmQ1X5Xw1UuXKmTpq1D0yjvSrgqASNBILpBV1DMLRZ27V0U+s0Z
5mQ8iZRJ9UmOwJjCmBDhty6lDiuTmlslXqOcBKwAnIJ0HFuf0u7k1i/KlcVLr8uL
BYnvuRZMSBCl1ll5YUI9S94qaJCFuILveA2EA9vaT50Dn7Q7A7yspjt3juxeV/R2
XlKmpvC07Wp9NeZWWyzHhM09Hv7JjICgHPVIVnn7aBWdQOxNs3XS4lKktRUfBxGd
Q28wn3UFpSVGOW0coS4r5h28hQB0EUdtehWjUO7qPeK3/eqdT2qhULmpklAXTW6L
LluGPFS++3h1SVNLwjOUoypWE+Qid7JKzG783o3NvuFUHYkCNe9XqXoU8IaaqLZr
NQksyng1HQ05BktvK7cnuCvKiDoNNMh/tHBwAAOM+Bgfx0BJIkZzz4z9wTj6+dAT
uvEk8+c8eMDz/EaAD1D/AGgP4fu/loHPrkrtr1byocVip/Y+Jr4/HQAtShxnHnz/
AH/Q/TQM/uXMoCZqEVZzteXDZ9OOo9oWyFvdrg4yoB0FJx40DN23ee19CqEyp1yr
sUyLAp0iQhp1t1hwK/LNocS68htqQrtbJQEqIT5Og9LR3ioNckomWvIq9xsyZEp5
/wB6oM6FT1R15LC40+chmPJClJCUqaUQoqyCRoHZh7wQX2PdY9IVTZjXyvsrbUHO
8ZB7QcpUkkZBH8dAy193EzXAySAhTkr1H1JcKSQkqCQtIOSCPp+Gggz12dUO4G1W
wFS292i28r9x39ugK3YtJuWA+lcG2kVahurm1tyC2lUqXLi071W44AwHwFEgJ0Cn
9jx04Xzs9sU/fW5Ub4Zcl+O91NojrTsaoUyhwXnmUGqMKS2Gpk2QgudvJDYTzzoL
dZDqO48jx/D7H78Y0BM+4jn5uRn6/Tj8ToCh11I8EEckc8+D5x+3QAeu39Tg/wCf
2aBd1yQRcFcBPIrVUGecnE5//DQBsyQTn7ceRn6ef9NAz2+VsNXBawrSEvol276s
l5cXiQukOpCaghIS2tbpjlKHwn7NqA86CDMmvMLua3LTu606Qq3p1JW7Cu2r1t1u
gSnG5aWERZPoUuZKhzVMLLoK2y3gEdwPGgWVSvisWbT2IVg0uy69UH4iW4rbFQri
oFPLnvHpxXqq7SosH1EFlKUhtKiQsHHGgUdo/wC0Sk0x+69z12yy7NjylwoFvJmu
MREgj3Zh16d2KkulSAsrShGDkDOdAz907hRYDkRhhXvUuUVkR0KKy88+4fTQAFKW
opUcYHA/doIue04Xd23XRaOoay6/KtTdLp7vXbnc62aoytQYemTrkjW7VKDUoocS
zUqdVKbWH23WHEqSpPaRg4Ogkn0Oe1r6fOrLbePLuq67U2h3SoUSnx7vs667hplF
p78qQ0hHxW1KjU5ERmo0iZJJ7GsiQwSErSf0iFlka46dV4UepUmoQanTpbfrRKhT
5TE2FKaPh2NLjLcYfbI8FKiPx0HG/UCc8k+efAP3/kdAXKlFROT+H2+/PjzoPUvj
6qOfw8fy40DgV6Rm47gyQSK3VQOeR+cHyR+7QFsmrwKRCfqNUnxKbAiNqelTp8pm
HEjNp5U6/JkLbZabSPJUoDQR9vPrW6SbCjSXLw6hNp4DLTTnvTAu2k1V0NEFLiXY
lNenOkKAI7SnnxoIN7IdT3Sp1eXhuRYewu5Xx9W2sqHVIjpgyqNKYgVtT7anKMzV
EtSKjRI09pTIfShKU9yAQCRkJoWhs5GjzDOqt0GpmHlxxl8NIS13EK7EqUsAqJ8l
OM/v0Ee+qPfO2bTcatiFNbqU+OkEQIbgcW2rlIj+m0vAdWe0AngYONA0eydm1+6q
szf12w3UFbnp2/Rm2y4vufWfRbjNABUmU6khIwMJJJOBk6CCv9IV32a2+6S9venr
1Ika694twIVSuBEN3CmbcsdbVbmsL5y6xEqK6ZFzwlTiHCNBjrpVxTYr8lTUpxMd
yKY6wXCkdgQO1zCf1kdoUPsdBZ37P/2kW+XSbeMWlWpXJNz7bTk99e29uKoS5dvy
+0hRk01t11SqHUVE4S/H7Ae7C0rHGg2BdOftF9j+oCBSm335G3tzVFtAVRrlkxVw
DMUUI92jVxhYiKU4pQKA8lgqBx50E6/e0OIS406hxtaUuNrbUlbakqHcFIUCQpJB
4I4OgC98X9x/7aAr333vsLZGDe1+7lXFCt226VWa0VyJCu5+W8ibLcRBp8RAL82a
8GyEtoBJxzgDOgxd9eftK9yOru8q3RoNdq1qbH0mS+zbdkwJr0BqpNsF1LdWuRUV
SXKnUJCPm9NwqaaB7UgYzoKY74v+oyIho8aQ4xTGXHFtxmiUNqcXyXpCgorkOnt4
Kye0cDGgdboitrqre3joN+dMtJ3Jfu2FNFHiTrHpE+oRpHxFt11ylXA+mO/SE0qo
xoyj6EtQRI7B2jIB0GxDpMubqL3i2oL3UBKvPbLcGDfN1WNWqRLob1pT2mYL0E25
UZFNqMYTW2KzHkkJfbIZW4E9uM6CVlpdKVmUGsi4LiXOr1QclIdaVPU5KlTZJGe9
QcKlOLW4eO4kgcnA5ATkoFrR7ap4qqER26vEjLYjtoCQ3bsZ1kKHotZIXPfjqClv
eEpPycc6D58vtjuqB3qQ62r5iwKiZ1j7MKf2wtANPJejPyKVJcduyqpUnhbtQuNb
qSrnLbCOeNBVoJC3vXQ2O0FpYV2k8HsVgfrcHPP46A/pcyZTko+HPPsuJ7FOPtqy
tPYe5KE45SAoZP30DuWtvzf9nzAYdXluNAhKm/eFMrzkEFLiQf0AMjIIOgtZ6Yvb
E7zbNVCk0h+6ZtyW2lTTcu2brU7UqQW1LSXG4bzji5NNc7U9oVHcQkee0+NBoSs/
2xXSvWbYotUuaZctt1+ZCQ7VaJHosqrR4EsKWhbceosJbblR3AgONq7QoIWAodwO
gqD9tv1R3HuN1c7t7Rwam43ZWxr7NtwKew4tDMm77pkSazdNYfCVFtyTFisR4bZw
ChtKwD8x0Gfu4aw8mMWkOrQUkE4WR+OByMgkHQNgH2ZlTZEwLktqU4pDCOEPvIbU
plpzwfTddABwefH10G7n+jk7B7gxOhG69xaHTac/U90d6rkqbMWossphyLdtWjW/
bLDfqPtqZQGp0WYlPGEqBHGDoL7ax08UmrJdpt01BpuuPU8szGIT1NacolOqgefS
I8pZlCSzGcYK2VLYSGXMlGMaBe7V7c21QKPJrDjVKuim0mJOeq14VeqMzpLEaNHW
6th5tYaTSw2y38wLaO79LkEHQV29Z+7B6fumjqw3bM1ovWFSrrk02W28hTEm4ZFM
jUy24MN4KUk99UkMtlKchIyAPGg+YLVKjNn1io1GpSFzZ9Vmy6hMlvErflSpr7km
TJcWcFbjj7ilKJPOdB4pzikOS1kjCGVjIBOVFaEZx5UR3aBU0ZwuNOZGMAdywCfv
4HBHyjPH30HpMWsYKSSMq5PnGQB8pxg/v0BeVrP6KsqGDnBBGMgqBUcgfjoH3oG7
VRpNHg05YkvKiNrb9UHuCkl1xaPmUSo9qFAfu0EyPaC3Yqv9cvXHLUpPps9RV6su
ZOSpiBXKvT4yS4O5XYlUVXA4xoK76hNXMdWlHafny2PlGQohIyTgeDnOgR8ZQbqD
ZSQtwSG+UjuQ0G3U8/QrVhJxjjOg3kf0XzqEpG+HSnvx0X33c1Rps3Y+8HdxbXdh
VV2lTZO224xkrq0IzAU4gUW8IMl1wFQSgVFOcDQWK7xVSmXvdtbtnphr8m3W7dXC
2+uO9qdXZ850sw1MzbhdnqXKfD1UkwyIkMFILLb7rpwVoABxN7t36hsl0f3SmXLF
SuL3imWCktNvmRKtmvVKlIjyqkht51dSXTW3n20kYV6Se0/XQZnvbCb/AO4W2vQT
tv003Hck24qluvf86+pFTq0WJSbkasiPWahc1KolYgwkpXIK3pUF5K3yp9LJbQsn
jQZLn2Q9HUtSUocSkuBzjCVZyBwnPgaAu73mCpjB9R3t9XAJHpq7VpSgDyOBk8Z0
C0ohJiEJSe5KQF4KchJ+QfrZA5I+mg/TQ2lOP18gg5HbzkfpZ5SPA40HCtBjlDai
hTqgHFhQCu0kZSjzjKR5+540HS3Kb7B3BZPOSAkAnJ8DjGg//9mJAhwEEAEIAAYF
AlJbF4EACgkQ7x9+uHZeQ10ZvA/+PCxSq7X9pWOhkfCy69lJBQkpSPrZge6YK0UJ
jnyNSCFpuQ4btBZBItVgMGYhjV9hAgpww23FaaAOaw2DDqAxXu4q8vuvQ9ijcRUI
LTIpXyggp8Lwn1zvZ7AEkzRx5FFZhGhgN4LS59KILH6ENe6UOs3I6yj2J3eqkGKR
1uX7CIRALMQdUyyx+C5wyqDXPXHEFTxC5pofsKxSsrvHH3x/vzOKlO/08KeTGIj/
bz7spb4XbDhPYhKsx6lueD/dAUSoqVd07Yyu95CPVQ6TifmE1DyMY7V+8VmdYWfK
qTA4C8RydicunKxFejkODOJAFKpLilkX22IKYW+zMbDnhWPbP5YmsWmRgWhwb5WH
uw9cahTNXbMCNWobYU0GRYZJjULRf0BMrqSWUwnmlJ66FrqBvjt9kauF4WreJqjN
eLUhB6O+WqCrgeIRFsYUtygI8B8Ni46CyJ0ku1xwWOfwuuOq6DCm0Y9WKL6tJd56
5+QKQ9J5DbttAvYAqyTsGLSD3xHiMQUk3OOQ/wsdToxoSR7TZ76wL0JHTXoeYcnY
XIQtxEccup1gnX6fy/A+s31YkiflFig2FULsO1xe3ZvgC/V2fBJrybhTQVtNdIKT
H7nvxhFkr91Imzxe2MigJJ8OOVbs8pTLTgQOVkNQqp8mJl1KJTtdhC7+69Ci5eeZ
Two1jBeJAhwEEAEKAAYFAk6pRMQACgkQLfv0Uj5UL9k0/BAArOrxeWAVGedJvGim
x53XoFOkyPZoNFNCx3AxnzdWtHmel6dvWejeRyx53PLzsWAzKcMyWw9PMq9p5h6b
crcuIPY7IUAe99F9qZaq0xQqQkwKmiykGH52WR1ZsSlW9td3sgi6+rrI5evynK0x
LDVfiZtx/a3EmbwAWEjSFmXCrMkR0aKe4hb+641y+1ShG8pexCi+ekJvhFsyOMKR
f4wEe73+EgpLeSjy3GPn2xjrGNayKZYiHWzpUUwKTh6gvuTyoatZucdnH/5NDt3K
IBO2xZc/UeDl3h/8anABrCSkKgpm0gkCLirx3WG3KEtLiJ7qsqL9zVjO4CcL/Wut
lVLA4VRRNaNJ6ovaEirnJ5UmTOVxe8DEzwg1S4dTjqDp1ohuV6h0sB897NYdHGIg
OthxXw3TFoj+HXT9CPM8Srig37NkCstUM/3wp4NAHumanmTYYG46YRdVlh0jtJNt
9EB27gPSdZchfKVNnt3dC/idm/OWNZbQ++iZeyoKoOnENrqv40SaTctrQAGKq6Ck
0PbCozL9flaqb3sTLFpbidioR3D/uEPEZhs39FWKzIz4LkMCII88y6lbEeVtV2hK
M0bqQVbyrEeyewAvpr3hQQzrDwIVq3vUHx8xJH+kvm+OY5SYP50xjID2gx/+maDo
1t6f5m941UcAmCWTUPULJcncRPmJAhwEEAEKAAYFAk6NUn4ACgkQiXL039xtwCZw
yw//V9VnsODD90+A5J0iqAQMUNVbcEqMxZIqIiC3iV+gpd3NDrtNOz1uirYZjziC
5YvB4scoCPHcgX1ErhlNunGjknMQ8Y0frZLB8DFGf+uEy1TRR7P/KjnryVhEY8Io
GBDdDt/SUUrSuTDiR4lFqZVxkeuKLwkUMdYqmej0qevdNfgIFnSlBMvfna/TJ/VR
/a9yAcb6qJPKkwbwiGK3pLytaCZx+qerEyodsBgAhBUWlgSpndnCEErePgH8DyYj
A0T2QEaPECga4seZYKRqS7/ovdslzCSopMvKDxa4hek3zSlQ3VK1NHrz1JtNVfyf
kdWMoUSotKOVEmRAgAM1fyHeCvCwRIgYpmgdo97pk/kYLpxqV3hp7qQIkBwXm0Ce
fiHOAwjmJNqLRyAKlQIumi6atLauN9+Cy0yv7BfgZCr3bIY8vvtabs1kqwyYQIlV
9E3cXiBsMWahuHyOB6LK15yDYj1oBU0/P9CmhgJxj47eJikPfULPHzx4wQHb3VGO
rZd2c73mGRdq+Nx/FQ4H2YHlkCcX/KD3HiiImeM5gzifTQmWCbd6He/SrqqI4qx2
AWL0MDvxiB6TwempaiZ/zO2+52/YA+TlQc8V9ojLnrijtfvO35PwyGLW0kkgB6UQ
FRVpMlIRHBEc5vvpr6RFdW5LDLoQeJujOeKVvbEkmS8bCS2JAhwEEAEIAAYFAk6o
Z/cACgkQ4PNz83v5CZoh+A//ZWNO9h+F3jhOSS3r7PQcGiVQrfk/oHtwLEYzaj0Y
PoN664Ft/9bqiNaahfLekWQg4cZqzqSUYurtXHCQ94U+OcB+Ed+ihPo8NcZf2VQd
5wPW9xrOy+m2fzX55PaR4Bl5hsjC1Ab12GZllo8/ROwzQ62n+/7QvwMU3f8ammUB
AAyIT8JzE1XvSAmbEpOMWGinJGQ/zMj0xq6xD6Fexmig+Gj3cze4WtqyEsrtQSr9
sxE9rfUJw8wa3/P6pc3Jd9SNL3csCADOID8bTWxb20yL18gt189Q81UC5UuhLFfc
HsXdwlAH5mvPPYdrxVZIbATaajJ8phLPNRxA4JYmwGkVrzVbUJgm3TV7AN66kV3f
ieubnl7AzoECgcBO90XhjhIob1/wajdfwXzPWKTOIsHkLyJp5PsdSUmVi/VNPv1L
oPVdd4ZEmeIM/yWj9q23WY0pwLLLAMheVjaY+/ujwZ1FYTjizDXEX/R7AQgapAGh
oRDDpZiMrAVCyR6mXq7CM7Q4jrmK4/BQrDpdN2JmZFFg9fij6UTuPjOl2w+d5YIa
Vsb+/MUVwQxOEGrq0hyjJcfSYTmufKDVVB3SHZbaSc+Phzvdx/cFdcIaCJc0qXjH
KMhZXFvBsV5PnDW6a+945qxYl6DESgN7FfECHKuWj2opUTBGHqmXT/0st58tzhny
dJmJAhwEEAEIAAYFAk6m4owACgkQ57/I7JWGEQkFvBAAwrnyI1UD8uTbs9TZkeSe
TDuudmlRDtt26XIZ+jjhUjQgbMDJtjBfk7H9P8hgSfFpZVMWat1jONERUEf3MoYI
Y8nc6Vvvfo21iTkpm7krT2bPMXMWJ3CDECRppM2ysJcYxuuscsI10Th6umF5pPf2
sohMtIlb8a06hgQCn8Xte44vWavbvPjnzJrSGsrkXtfc/PRFI2RcpyEkkLGNPX0h
WHeEq9Fa5JO72y3EmSlB2/GBfYHiFHNuunamIH2OqdwF8ANUY0rZDzMI8aU5gutj
LdemPUgI+R61lwvuMU4SRC9NVLh5YlXq5bCO1WSdgmx0CkdsbxF0uwDJDWIOxNS0
fEK3LCtC+T74csmkwaqnSbEeANbMv6/IQ/c8QEH2RwTmICIrQawlO35zZibfZ9cg
wKnxvKecAMEmT5/QAzD30tmAoXwXl1Ca5RSdzdLIrS6awHfmz/kLX4Ql3DiFQ9JJ
Ye/z4NWfd0iR2Mf9Rd8BiJ+1fE5lH8x0P0B5mmVDRQcChfOrbl3gULuaVZ/YBQg5
wCUYObl7e8+xpXlX4lXPi+dqeRliYiW+w24Sm88293CU/qO4wGJkdA2+EO2wZTY6
shRuw+lLJu2WgotvJWuJz71MsJ5Cj/EOl22c+k37EdFVGa5USc7ecxmJu6vVcZ9R
sfGqI4/BbiU758usQS+g3aeJAhwEEAEIAAYFAk6mlm0ACgkQ99NY+ylx4KZ7WRAA
pEIvPSxJxF0hRKTYS6erXg/dBtwJ8i9GWHnMICAwxX8qQt+zZToEswDdNYMtZF67
qVAfXyr32Q19i3BWPbYSMGChlaCtxIKDQh0GP0AmQ1RglOsmt5D86YXKviE2NP2y
34jmYbKwS0w+vzuDNTf7r486FepjVLiC7TiXJ9uJMtzBumO9rKwUtMhHi775trl4
x/zhknbjpjA37QsXRSzcjVT70KzkzQdGmoLl+VwNKzvMRS09mr2K/Vtt87tHphFG
Th3zNqd/pOrPBT6Gf8Kvjc/0PxOi8o65TN3HgrqLr+QVO6cDLvuGdN6EI5LDKCNc
F8YALpxXR7BbPVRsa5od8inqRPEsJ43P1FGzVsfzsMiH6pa3Wdzz6p3RCLZpxiSU
fAywZUKAuC6Xm6DZyZapsGMAnCAJbeJyRdw+hEcx40mAjS88dW0H9lWTD0QpEOz1
9+LBa4+3t936br2Qowgagah7lbZ9CzhgBkI0Rg1Nlaon5TiHmO1xpyLIiGDgrG0l
DIVjR49a9aqAcFr8KexJds0Z+rkfQCmDqrjoQPtiiuvX3uOdO7FAdSEc96UIK9Z8
6gBodzgJDc0RHcqKkmVDUzvLuidTJPlPWy6KsUKjtfcNdrUrNoJQ31DHy7sgfelZ
sMvkq8rt3U7DCWfufexFG328GJ6SCt/mP9//h5zehiaJAhwEEAEIAAYFAk6NwgYA
CgkQgKd/YJXN5H7ZTA/+Psfx8H3fKU0uVJkYoJ8NEsf9Cg2qTZByS5JfbGNJmpXy
8Ns/IHzlabSZrGp89ebRuw/97jwG136M1OCWZ9IdKNW0M6KkZbbFq3wW0kQ9+bFS
fWq4e6JBx1cAZXX1MsIJc0MNOk9AwGFcGN/HmTTx9KtXMGSClQJAxdxmuVLf4VIv
1cwZw1lkWj9Tuia8WJmMvYIaKbpU8IkuWLwAGlQX6wjIH6KnemHmIrXq5afisEaB
pFNdqZ120xtRW2OVwkjtginB0uBbmSrhEYm6CHUyIHEqXyd2hzkTP/OKw35meu1d
SfY9p7aGkK4p5DHI233DulDZB4mbE6aZjr9heVkzT8BpNQr6AloEYfEFioMecByV
H/vmhbYpPfdBB51vOfdKE4UbBmwQPfj/qgqZM1geOspR6Qbex81Eeo1GtKwwm1ZJ
YfZxYrsuFTTMqEtAlnK3gdt5HJjMKWci0xW7o++uSKH9SNB0VQ19wSSDHKc3hjeM
5bJBL4EDVZat35M3xVfDHuFKMPDEWROe6IHgNbZ+KoQDLq1rGpx/GunJqcYLkpFR
c4c7wVV/SrXR/t79sF7KOYKfPqY/QlbE2B2paB2sXHjbOtqohlmQ0nRAHMwZRTu6
MREi2uZVQWJu0816Z8tiM79z8DFkCs8rvTGrv32Sy2y4UKNxR1jvBOjZ+TfiDvqJ
AVUEEwEIAD8CGwMGCwkIBwMCBhUIAgkKCwQWAgMBAh4BAheAFiEE1WBuc8i0YnG+
rZrfgUrkfCFIVNYFAmBLmZgFCRs1hL0ACgkQgUrkfCFIVNYS2ggAy0CyE4UQqdLt
kr8QL+rQBg1SUBsjN8O1DkJu1EHMxeJj+r53soAhO0KtRWTyYAEifDeO49Yt+pNK
cn2S0jac8Xy0/lUTYsNlDdJVmsm7e5jnZE88QCJPOmcNz9WiUxSirx/dxyfTEEvm
LXG5/y3smLjnyenI0/KfKmZfbB/BfH8Ieb6dYUQPHJ2LcK+xgDBM2aDTgtxbs5RD
pq0eXhHLUJPuCG33Iniw2MIngGuzout+tzx7HYvMNW8tvrlDnHiainz8JGLQ4kGu
bvYvM4qxuHms4NudRcYTGxXCmeliGhfQN3/bPCS2sgrNwmLIUgUo1/eroQ60BR2f
vcaTFZt2+IkCHAQTAQoABgUCTo1NFwAKCRDlb++VWkvtznjUD/wPy5jOBZRT3Fwc
0r8VAmrnV7DPSzDN5ZiBtNkVo/H9ks9ZJQNqK6M81eBc3Kl8MWbXuncawPagD0Io
2KjQ/4J48+RsvPzzNGcHSofeVlUFpXIjQcQEkrQigEWidkU1kDm1/rl/rg8HjLEW
fTnslz1atW2XMSywlrlxvWJZEqzIZtCMq0PmFkAqznQz/A3hNEFN6G4agkBRPnRa
YWuXxXFlpVmZzk8ISREcHv2Y2vZLVxWsPBEoFDWbPPsTM7d3zvtkObD8a4Blcxra
sJDxKI12yuW6hasQjwbGCFH9F2nMNgxKj/1zDelcH1sbLcli4yzG9CWJGiG+pDcs
feyPqjXZRwjNcYQVNEBHE7L8253L/TmiIfum0HXTQ+NVzi4/alpAzRHELAlPFWpJ
bur/YFk8YIm2m5x/m9L8oSdO91DHF5vQDcQsNveFeuHUHJ+DnZbl6fpqQEvRzNPR
zAB1AJ4g+sftQ4dlZJgGkculhWZQT06D1ifcX0gknfdJIjUXhTkoUeseZYJJzwsA
DeEkY8AYbhNOJNeiNJ7uOVeV4I4posyzJCTNSBvMrAidfbV9g+TgHdPw0ncsmASU
PTB7gpHmxfR1auggZK6q3qroqdcwjZaZhp9ti+Y9+xzUAP/UcdXTXrioPV0aK/eu
UNIFqlg+vx0grFjAAUuGzJdepGdfIrQkSmFtZXMgQm90dG9tbGV5IDxqZWpiQGxp
bnV4LmlibS5jb20+iQFUBBMBCAA+AhsDBQsJCAcCBhUKCQgLAgQWAgMBAh4BAheA
FiEE1WBuc8i0YnG+rZrfgUrkfCFIVNYFAmBLmZkFCRs1hL0ACgkQgUrkfCFIVNZM
hwf/VSDpH/EWqTjVHWfuxYBKQ4BEhP8t3KA3nm/I67Scnnn1ggNLFlPBknPSjHDK
ElHrVK3gfn7pHlU3v39jXCfOwZKuY1BFn3+KrG6n+TzzPsJQ/O90rRXOpj/JKMvG
2+0HB92rB/XwxV1M+zs+bmyNLBPPqg/j3ZZOapi2OSImeA/fFdt/Z6yiIQ8pnLi+
1c7cln3RUp21V5rpiKYu/Tsed+j9mjHt/7/tYwLBUDiI04TKP9sZi5EIsmnAdr3j
HAcwZHGoq+Vgu0gYK89mLDAmwt+1+3Kw1pgiN8RLsEQHgzaZsYVQm+4xL4oDX0Vk
OE2EAA3QuCrIpT37lvBHZP/LT7QsSmFtZXMgQm90dG9tbGV5IDxqZWpiQGhhbnNl
bnBhcnRuZXJzaGlwLmNvbT6JAVcEEwEIAEEWIQTVYG5zyLRicb6tmt+BSuR8IUhU
1gUCY4NnkAIbAwUJGzWEvQULCQgHAgIiAgYVCgkICwIEFgIDAQIeBwIXgAAKCRCB
SuR8IUhU1m7QB/9PO8vb812ABzD243fHrQfyNzhBSrXhWnFwUQUQylyPWaiuRf8b
3dX7nocEFpdmP7Irw+HEgD9IjP6xTsL/Ri8q6/NqQ/xlf/tYl7fZI5S2N+v9VNqq
MgHM2Po7Eu9mmY1sHDuzoPCGE2kc5aon/WaX4+0NENXvUgHnzJWpCOnXGU0pWVmm
lwnn3TwQnOwWdEhWOJCINIqimmoHYEKJsFutZyWfsKJYzI4L9xyjpIifq3Af5/v5
qK8nfEZw4TZr2AEoXms2L1MGhf2jI+ayG/9MOaeiGxWsfsBheUZh9lOTXlJYSJE6
HVBfz+4P3CX+Bwi/kQNSlP8UvaPM6wDnrrdvuFIEWme25hMIKoZIzj0DAQcCAwR+
BrCIC9MkIo+UuSEg2ZpUe6g0D3FlMTFces1T7AKCE3YyhY2g5lAE5Evpec5ogq1A
XCejAWrz4mEOJKp+P8cGiQGzBBgBCAAmAhsCFiEE1WBuc8i0YnG+rZrfgUrkfCFI
VNYFAml2ZJ8FCSHasLkAgXYgBBkTCAAdFiEE52BA23bKPRdnCPmq50LJTO6YrIUF
AlpntuYACgkQ50LJTO6YrIXYvQEA8jry2DgZMpQaok5SazJxggrFoBmcD6Sqt3t7
OyUP8QQBAJcdvaT2Oc9ES8iA1LI3/ZrZEjU2nmkOkyIw6xWvvFx/CRCBSuR8IUhU
1seZCACTdaG04LlqNJ9+AMXbm+pmt5Ak8lLQcJGcfG98t7Zacm9KGZp7FjoEXJi0
uZqasFFhx58tlJmSBzydY52UDuSv3gePwYytfmFlAeLrPM3SDe/0H5hNSHVu0Nsh
y49BYqMpSEP0QasfRc2EHydEh5J/BveYMfJDW1x3aWyjkZRpg8ciA7xUqQ0AkfK6
vG7JNgmNCLZPSLrnrMIrwj00GHuCznwFNscyoFEjlDigMuDNeDqjkJRSZmFLs43Z
dvsn63BPoZcb6JGMT64xrvZ+JlrHmXS6kpxhiQ5LaraVJXCDCwYF+3JrgI9bMzCY
Ijc1g8U7Zd0A5U/2i68VBJIrVKbouQENBE6pF+ABCADM3hIzfDmBdcIF9hLklboh
zYUKRD/OAy1NjI7PvLVKFcTadXIebrzYPzCQvrXoYPikkPGc6XwZW5eemrIcII1N
kVREHbibvghQM7pOXyBb9qSHj991VvdCbqwOthwT0ezU/aIvhINI9soxidk9At+J
3tWJtQ7Y11JAnobVOOGBgco4cdnaNS0cwLXid1WHnowsC5khSY0RKP+H0/k1+ral
7ErVjYxpmxn8E/tkw3A5x4vs1Nyng6/PbOEheZmOpGEzgm2NflcATEZL4xGJoOOg
KJIESKke/9q8zWNwTAYwU0zxJyfW0Py+3rSrZyrlR36aVFYGZLgm+NX6VynLDAgP
ABEBAAGJAkQEGAECAA8CGwIFAlZciVgFCQigv3gBKcBdIAQZAQIABgUCTqkX4AAK
CRA3qqlWLFy9DD+gB/91Vu/tPMTWMFm40QRucqW6icTbyZR4kXn/kW3PcuEdQ9J5
HkLFdWPhaJ+b3Ue4JhuXluOUNvc0M80X543bKC72k4DdqAHbSbF/mW6kA2EEWChd
70pD9igPiRLDzk0aIRHr65JQ/K8lai5LRvxIwDRxg0kTFJZNQzybeI0CiB8PxPDv
OfDChjJa0VpfBIcSBtxmtstwJ79OkZR4SFwyFDZbcsBog/U3vU6nlTQ9Khj6Ik9M
hecHTjp7mG6zYB0hWAWiXFhFbb2u2W8Pkbk+9bV5QwFJIdQ5V7lvlF8jRS4LNxpz
FPSNMwCa9GP+fJRnSUS0LtREOefIG2sphQ1Cumz9CRCBSuR8IUhU1t/hCAC+dBb9
WShYSBmDC+oh+62wNCDehW0vEjiCmRdgoEtj80qkSvB5Gvz9QtEjOpNZT89b4QLm
Czt2QX8u/4zbRu8M0kO1by/rLRy6i6YDRYF5PNNAhePqK5xWzyCg5aM6t1r39Oqb
pwnSKQbs0EmxeSET/FZ/KZFiBuT3IiFrm0AKl2iklCWNhv/uNsI3hNH6neTamrwC
53vTf051cTCO5Qp6H7gW2f/Nu7SQG2jksF9VgMpQQ2GZ3kcIdOf2lymgayAon8ZK
47yWXDIG3ghjRsl9oyrzcihX8jq1QI+bxlm03NC8oAIpxeQgI9urixhY1N+j28Pa
fhmx+vZ66gS6mm4PuQINBFR2FpkBEACl4X2Bs1IEG51bzF4xAiIH8JnArhU4Q/uc
YdmfdSxZ6ay8T2W+NsXNupwiRtSnZXoTEzm3ISDOKjYFq8t7VkkYdVoqQvdwosAG
hiL/IEsSeiA8XPNh8rZ92KmbYb4aEtqp8PG0BDtypd6jVMKxktK+MP6QtVXVO8qV
odLy1QKHahTJHt9Nu/pYeLkfwMvJHQ+du30T38ZyzWPXUlf4xYnuOx63YVUOwHlT
UszvQCOFeIOJAK00nMpqop0x6LzNrNZLnSIwop6jib9p1YGMb/yV3d9Dv8dyPo6m
SHzE9oKeaANmi9gZq/DgCba2NGoTobqs9ClLTB7kjqVKwo0E//YWEuYj1+ewGdkL
WXU2sBJFJfUErTF/gtgHZbDd9hCZtsCkBQFtZn/VpChzYQIptIr2JbSB9nysOCB8
zDyfOmYQQTGXSFTrC0kvKbINX5Aag/HkrBgr/qoBQ0lAidRjPzPYREz8c4jT1m7e
OJq4UEO2i5Iitpf/YMO9N/st97X6KEBEVKWnriQQwCyMq600Era7miPgfuFDvMP4
G9YsfEyDKw61hi3CCDB46sz+TdGd2xn/PeewaoXSCBy3VUu4fZ7OcOSwj4qRncGD
RaKFDIntn2iaBpADJEMVy36Ocmy/YjNr7Ei896L5+lsY0DIW+PR75OxmhAZwLfj+
KkbDN7rnVQARAQABiQEfBCgBAgAJBQJVPoFoAh0DAAoJEIFK5HwhSFTWnlAIALum
CM4zXsfHCrP2aUYQuKViqPM09Shm3nGyVxMUbGP9BY3O7QryARA94+dzl1N+6bNY
vTvufGF0pi2irCbYLp86ZeIkFnHqSEF9Gpy1S83YOU4Hp0V/kj7VBP1NEG9x4bPD
TUTgaLTGNYoAHo4ggwB2c9wNUXNpcl2UAAl2N+D+XIm0DLGJ9+Ubw2dcnd6XAaqg
GyjzhcE1ZbNtzlUqZq3OFgs69e1/MOG7iY0+//PtLUdO1GC4jQ2UflFUHNK9/PJu
Kf2HKwTf/6vcLQcnbGI4fO5w0CYbTdrO3NlgMxNspBbhtCp4PkwnFPry8Fi7wy3N
8h7jWVIulv+qXCrWqDSJASUEGAECAA8FAlR2FpkCGwwFCQDtTgAACgkQgUrkfCFI
VNbdiAf8DIkvauUK8auQtxqz3g0P0+afRxSVWs+XvBUZwhX7ojievDq7j1PKo0ya
xhqbZimN6u8kaBu8hszOgcUJESLpH1fJSzDnDsYJGhZ6DDZuVliLkDnbF7nTT79G
u4b/8wp861VSi27c367sVxdpgCD2Bth4Y1kJXvS8j5ycWCrQAQlF2OJ3N8JZUo+N
p9OjuMd4XFftDbaRR9Y6QzPOGgNsWDSM+FVg2IRek3JcLCKvO8oDtu8XBk+VGRt+
KFqJcMTtAohS1DXSLmTDgL2uoMrDHwXQ9pYNEX2AZop3v8gkYclppz85xInfrPGC
Q2AuxVfkZSugnYZplxHtb1WmmPkf4LkCDQRXSxYAARAAwGfLfRgp0Mjdvvjh0AMz
6JFr2fdwPr9ugD+6YCHI7uu4x6x9Ye4rSzmY4WEXR0Kl+8Th2/IjTLbXqThPMlgD
QfD5lNDimjrFuJ+1CL9JWqY9l4bwVc168y2BvxpLUnQ3pJN3odw7R+hEWUVxMNdq
DrsY4DBZ3uJJsmbh2UR4x9C6K/zraDDZq58WjZlHI9jUsUTNZ36oCfOTUMWK/3Gj
Bh3OSIK6eae5kkRUCyTbyL/hWMf2WTCYIJXoF08JdpFYj5i5yzlQ2eI4Pf3tZFtL
4/jCcfkVwrDryM+a0sHk+Hj1YS1BVbcgS+MFa9foKLFaUzHwbpuGC1DewVixfJzM
IgKJvPwKKpjrbUE6pZvbistQS11C2dQvSt4Yv6ZrDwjVRTpUFXDWsgrZYNnQhz3h
/adn7bFPfFtyV5RoQ917VSg6+N/jOaoxwxnwYldSTsirTF9ucrVoC3LpIWuI/0x7
8xtFgXV29a9jzvs2jeX8CQan2Mt2z9Y0eFCyWtC0ap1LEz/0xXab1Fnazx7JEnl0
d72qSPBrgCYtz6n8I/YkymQjPmsav4cdZl8AmR7wNNlNInAFwXFCkshYvkBZ/Vv3
7mg9mFkxQx9OzvPaGqwkc+j/46ImDdNCO85UHTQCUKstLX0Lm8tfzI11byu71Ve3
8A4CTXDaKYbzqlJsUrOsrV0AEQEAAYkDRAQYAQIADwIbAgUCWibOJgUJA8kGJgIp
wV0gBBkBAgAGBQJXSxYAAAoJEAVr7HOZEZN4h/oP/2dEKrL45SwRERN1RepSdPqG
HfGX5tbvZNjfnOm+QhsPcCh67pGmvqMTJmJxoBKwPtP7+W501q8l/IE8i3SSsXhy
hH4ZEU8qMV061/yS3kkXKmXmM1+gHe3Tpv2B3ZEXBapVsv+lk0S7N8Ig1GanTgOw
2PGH+4vbQVCXk+Kn9Xi8PiC3JPJG4xna5B88mwO8U3xqKQgT5auHzqLvsr16NknB
3M80Q4482/3IzB1ZjUU1AgXr0NdrJ5GnuPslREc2gOqe9GtYUQ7JmYiOz7IZXU0X
bcoFc6fSqxEKZwO66wZsm5Gn0oh694tPjipAkHoKbhdAJ+C4z2tatLU2RXatYeb1
9UuZ7YlGCEbwhVtmZZSLk+hnuyssWhFODNV29go8rjMTpznx45jmJnY+uVD7hZtj
DsmYlNZbOBC5JeAE7HREZjYJ/cSdPyp4PzU989nRhUDyI1642tEgqeF9C2w5ZeOs
FziG76isRfrIGF5NSo8hOrY8WgX4fmBs7InqyPxmXJ17t0c4PEuS4bqITCplyQQ4
/3aAQUGok7o6rBcpAZgumLdUlNgRgjdotLANUXs/r3F0EIb0AQgEuLFdCOCqRn0f
TCadDbc44u6U+GwnE60e0uv2j+JJe92Bd6pZpdbLo4xKYpHAL9cJX9k5jVfe0LfP
PqOo3evPk8/rvuA9ZytbCRCBSuR8IUhU1pPtCACiY9WynQOFvjILOHbTbLcRsmSz
r4igt5JlhWEBrHmiGUfjjU2rYDkP+yqpID6RlWSZ2zRqtuJAA1hHFfJPjbMj1q2J
dakYzoMYgZGthhYhIYdb3iC5GyvlrP0endCXKl31BVUFn/4ruhkcvZitPNn+9/aT
bbCvc0WjmYrPBZRbHzRRhyK5muNkG6hc01MNrD8e+cH1TBVIq4+YP/VDnxfehBDF
dPqU2W+Nqv3kBVh/OoWSwS4DNxWlYDivVGHR0RXO3oMrn6qORnvJKoECPvo0fAJp
z5Uta1qdXyFfMKw83NY22c5XvePcJqVIY+OlyCUT/6NmT0bRmi8LVG8bMF0nuFYE
Wme3JRIIKoZIzj0DAQcCAwTH7jLhPjxAmzqGI5A9E3p6O0w23IMSTYD1e2NpUGzQ
Z3sTCzhGOv8Sc0YtV5v6PZjsmflSI/IeBuVf3lkp7TZMAwEIB4kBPAQYAQgAJgIb
DBYhBNVgbnPItGJxvq2a34FK5HwhSFTWBQJpdmQzBQkh2rAOAAoJEIFK5HwhSFTW
l8sH/AuzNPOxXYlhsJgs508XR0Zy/51LHysuLJ2sn+GC/h9xMmBe/jnPM0Iv9Coc
CIqOfFd5JGwUGPId/eBheaFs/l4YJbzV5kc5QPLsKhLJlE/Mg9/UC3wgWJrek9n7
GJtwjPsme0oVZbDjdh21WCGgZkjFrk8zi8RJAHCZEVS/QMXZMUpYcztqatkBqXXr
aSSewfmApCcVF1fW4tkfDnUHN5b4zOyjfFwaLaJvL2FwAK/UvlNlNCnIPrsH7Oeq
PzzhWCPgkp0ic9CDEnXJLtpHR7NEeolgmuMebNHhpJEUgSfDlrNmUf+Wy8oJ57jZ
88ahn3npVxVkJqB/b2aPMMtfEaa4UgRkuRyTEwgqhkjOPQMBBwIDBOySomnsW2Sk
ApXv1zUBaD38dFEj0LQeDEMdSE7bm1fnrdjAYt0f/CtbUUiDaPodQk2qeHzOP6wA
/2K6rrjwNIWJAT0EGAEIACcDGyAEFiEE1WBuc8i0YnG+rZrfgUrkfCFIVNYFAml2
ZIgFCReJSvUACgkQgUrkfCFIVNbegggAhaf1pOec0LtjEAL810nsXAXM0TiUi1Ij
S/IUXo4InbpRkW/5778YLD0JHSsb8YtNixXFNo3hSuU7rkb3m2aMydCwybBAlidA
h1KFszfhWf49CBuKj4Bkg9QyHX8Bn7QBwS6QXZ5fUjnvBE5L+hqm2a11BA/3QG0V
SE+bxz+dc8mAfKwFI6dz588bFxRvHkGmnBMikpdAyg5YCrkPpNvdi1RiYRL2vM+H
MINyXK0Fs26U0bJEET+tuGkO7dCymzX16n2E9d072TUw3Y0GgiUSdxBvLlzrM1Sr
nNILl7p2T5pqusdWN2znzns3BWKMsMC95ynn/mebEK4xt/+TS3rvlg==
=kwgE
-----END PGP PUBLIC KEY BLOCK-----
