pub   rsa4096 2021-03-18 [C]
      CB24240E804A97DA5CE6612982930ECB55BFCAE2
uid                      Nick Terrell <nickrterrell@gmail.com>
uid                      Nick Terrell <terrelln@fb.com>
sub   rsa4096 2021-03-18 [E]
      B3CDBA10FBA323FE9984A59E5F156D49A38BD529
sub   rsa4096 2021-03-18 [S]
      988C00AA5148CDB42874FC32BB3469A9A344A8F5

-----BEGIN PGP PUBLIC KEY BLOCK-----

mQINBGBS72ABEADGTs6juPntdBfmzErLwAXZdwOZYqW620ivfhZKCHxGVA0x3E4u
UpTVcnDea5ViOmZ/nUTkiAQRIDBvaj/49fqQakkYVaMeR+aPeJq/PSVNw6WEiUdU
Z5X9YgtkTB9NbwdgE3yMa8Cs/4CjtMELl26TC6GR9N7BwO32SZ36Tt6s3wC0+TY/
EoziOY8yngCj2us76cFDBvIOaLzs8QoQV/o7epExkHI8ORUXFGohn2NBEF01HjMy
J6p9C5AsJmeetUx7vT7MEwxJtN1ZJQq3bGRZWc0mxVGWUV9Mniv1N0WmCvcOYoIh
VHssJ+GE1PIXrUbjmCvv3fD2yJaByzjL8IqkbaThY+QePIHtmtuDr3YnYROst29I
NENRGHGJ2y0POe1LT1is87OJQyLDytdRp0oFWI5yJ0/7K3rtGmsWJQDoZhXM/Piu
ZT0xGjYGXl3P10/0vBKKu054LDyVdAdxleUbtf5/pkcmjG2P6WssMqRbUCR8HG2X
pCUw9EKA9FeAbii4awSrX9ikOxPmmI7CV2vfbt/M7m72exSDCUAw312rXMd8WDeC
QWYmZRz/RMbd0z5Iu1fnSTKWbKbSV2xBRU2V1ozSvTBUpF2m2iLpOuhbjm+BW0/q
wm08BcNswRm8ebxYI5Ul1KY4/eSNUjMZpRKtxawuzPXVqOTDej+pE9z45wARAQAB
tCVOaWNrIFRlcnJlbGwgPG5pY2tydGVycmVsbEBnbWFpbC5jb20+iQJRBBMBCAA7
AhsBBQsJCAcCBhUKCQgLAgQWAgMBAh4BAheAAhkBFiEEyyQkDoBKl9pc5mEpgpMO
y1W/yuIFAmBTlN4ACgkQgpMOy1W/yuLl9RAAxjnkTk5Vi63SZp90MV4qCVLjsqCh
x44IDyrz9F8sFChoA25rdouVo1livLj8R6pIaj2ew0+20Tzqi1RcTuLp7F/tLOGj
bKIpyNqL/Pvhll2ffMH/mDslNm7j2MOaXQStPftNpsN+rgPRo4cAqD9dS7r9Klff
hRQa5N0R0AeJPEOPiOxkvkf2Qhf1lHIbutP77bGClw/0Jm+MX++UuGz0YeCuo85i
51aLIjpmm3wIqjOTy/JtmuoQBRFPuqbh8QNNWLx6b+4PKbe84XDC2F6VrT5BrJBc
SaSKAfZnWkLCW+XAE298xZwmqvlEVsNDLQCONWEd2f2h3qeGRAViRg61wK2+XKQU
kTgmya7M+f9OMoe26Csa/BcFOlnzscCjSJgIjFFdhEoFPeVRv8UsPk/cKBIa09JR
kZ3T1LxPSniKOFfKe4I8BnpH9s5P+KcQJPNQs6sjz3lMgZjx5lcRqcza0NC0g0md
rsj32ia6szg3qxnWeE4hhXpTV02sbooOp53zn6OnciulrPqDXlgrttxCAgx9ii9a
ApPtJ6D/OV8TzH1jzBy4JNfcY5lMiahWQVcXCBrkFyFgeaWaAwrB2subL1kDJ7Xa
DPzM/dpkZho5wS2k96tTM27xVyAigF2+Ax9x6N+y4uOZaLKKTykn62qR8A/FR5lr
3K2gdzQEUyZ9bRyJAjMEEAEIAB0WIQTA/Dktyt4m2XX6Xkr301j7KXHgpgUCYY2F
fwAKCRD301j7KXHgpvrKEAC5fsuwxj+ECtxQKStGDeg/ooQ37Tm7Txus70HVdu+h
MoMb3YuMgaigMZicAZqvGCwdDahOOVdJfDmtwGU24JntSWjTh4lo555gXW8pDfs3
h3n3AGXAa2lu1Dpgr5GmEUoQfbNjQimJRICRJOBwOTF571qe7nSg7aLbBnftjRjq
l7v0Nv47REUOCdMERzoyafztSUEdM0qPiUW474q3V7V/rzKeHQzs9huJ9F/GopoO
M6YIwdPKwuagoAFI4102SmS2Ot9gwqs5JZJolwUvY9+DlLQd2Q1UacpAoU0/SbIi
UxRkt2N3Wjwm9Ll9USQH4JlZdEavgamD+oPaghBPoHePjGAY0p/S+b/sE/F84qFC
hps4oF1C7x8ddQWQ4GkwdS8SInnizrvFIRtlP5+rB2uKyRqV1+amgyordvPEosut
6ojBYfndMPrRS6AxMOiDrThm0rY6bXc/zN8uiryPFYoZsm8hMZw+Nz3ph+EM8w06
ee847RF3ZOSo68A8iZ3CXUTrXFenw6RORWpMUM2Cd5MJfSQrQOyP4GM7rRy+5eb9
iWglrJuk53t0+kjY6IjVINFK20giGeYtgh4h6mV1IdmVizAsCdpeGOcX68O4Wi9F
WVNch++vqgYOPaTjWj4uL6/jodKGtrgEiqZJeiSscFgfDVm6wZwRSR2L9J/k+JAZ
qIkCMwQQAQoAHRYhBBVdP8UAyDRIbR7qZ3/Z/MsAC+7uBQJhjcyCAAoJEH/Z/MsA
C+7uRuAP+gNg2BUbXt5zK8SN7/0OoyykuWRnJHETAOhKjAnk8PO8yIYWu6XeVD5E
/uI8OHWkULSbBwZ8X54fnWyZc/pKlGRmBnG3TAN4RiLyDcc3IEBf1p8lmC+NoC+J
tLsDAwyHlGjJ0fnD1SGUww9vZqMINX+cy1WcsRiqFH5K+x/iiCMTr/jVTI2UwsSW
I6aXuzotvQUczFXCGj3uXPbnAiG07/vqX4CrwisRV34YLRjJMTbyWkl5G4fuLrNG
FM16gSI/G7FUMrBvI5XhPwZtwYTqa4AevueVAhKlw6wdVgbHY36N/XoGRHSr3eWN
RP/6e7lJ6avzdIT8IBMm6uFRB7UPMPw5OPEi1fuwaBwjy3b3D2un/gO9TlyfA3n1
MfNs+2zeU5UE41ZehwtI31Y2o8sd3HkIqLCAAv5kM5dCtcISWDoEbENVtlN78tu7
MM2J0Tti+HKnSXgqYwFPWr/KuSO5Oj+V5iI3O/U2qTnEioLGOQX5M0coNL80qKuB
+YhisNYKETsNLyMrUhLMk6UOvMWlZ5BFb0tGHCJmuhjdB07dII1cJaSMPolBbe4t
oHaNOfNx/fQ+xQjfVUGpZUazjzmEgrfLg/uOmA68wfqLckJh+sYA/HnHOqmuGrMb
qHL0FcluHnzPukx3Q4oaoP3LXryM5D00gMr0M2+R7gGhfMQKQdzmiQJXBBMBCABB
AhsBBQkDwmcABQsJCAcCBhUKCQgLAgQWAgMBAh4BAheAFiEEyyQkDoBKl9pc5mEp
gpMOy1W/yuIFAmBS8PYCGQEACgkQgpMOy1W/yuLHhA//Z2E0Xm0YEUkCN24PIXir
MW8YRwsTvXgWIuuU6MhqAWIllPx5wkAhWFa0oCsyz+pOCvJpOsuFoN6SUhCR5yky
7L9MLwOqUpCL3tuM/p179vBNmTb2qlxQu4B97dm7ldm7VGaZDwNPr735BNSNx9ER
Re9El2kTXGNeFF7fG1cVORHXX9cQ/pNAuBY4l35NRKCiNQpE7aArLq623NoYXVD7
t4RW6Et+Xf0wq9wfjD3B2nMhZKu3iMfvfZ00ZHgauUH7SHj/Swa+Rs8cidUa5VUv
wGxSw6afZHTIMwrEjGMT4QESCPHe2uF3XXbh4puhTXP4MsuU40dvLb8HG0l1cZrs
20SKlyKHSh9w0kdTcprJe6hwosnic5kFt0HvowM4tTFHsrENEOftcUIJE6RWi6JP
e8pvuCRC3ndTxc4XRPrRXyGvo7DvGyc+s9g9XwnyC33CB7CJ7theTTZtStXm0b0X
uGakknQUZ8wNIYOnTRkP668k4i08TvO9W8MYfbztqXfOOctDlHjeGEJrISBF/09P
ajhVJv0gVuUTB31Y+iRoobGdRzLo2/9cz5jbOEEsHmsi7dLc09b2VoDPffPopO3r
YZseb5+8YuuqEVlr4MNRHuCM7MNOe00jwmkAr6lTHJY53EbPVDDXNMpULe/3aES3
8Tl7JslyWy17PcfzFBF863i0Hk5pY2sgVGVycmVsbCA8dGVycmVsbG5AZmIuY29t
PokCTgQTAQgAOAIbAQULCQgHAgYVCgkICwIEFgIDAQIeAQIXgBYhBMskJA6ASpfa
XOZhKYKTDstVv8riBQJgU5TeAAoJEIKTDstVv8rikkoQAJygXnc9y1DZHXzyNAPK
z5Z6TBOarzx9NlKR5raLDw6OImhV/478BfO966ZKjO5BkDMM/8jp9nm2MtekZ9SV
lR3kMX4+5hwNjgcRF+NOH9lPP+wAOoZYMwvB7kM9SbLi11IJnG7b5X3umHPnLToA
TK0uCe/+U6Uo0EdoyFaANuXLMkERMYtowNRQNRQscTcty6KxMHfj8v7jtFgbWdg0
LHcQXMrNF+lD7qvYbotvDmpIemx2hvI5fznkqKJUoVey0snENCo5dsj1zigrFmO7
khzjjLptsovjrk2tmxkpCsBEtAkzOajIW14VRgQB2Q0YjxyuU5GechS6gwU1Wv0D
/ly0waHbXBExJW5LDtK0gtcGa00ELUTfoIoGYFB8JLoTd9xuk7C/GtsIA/nmMXOd
jpuo4/8rbpBGiFCTSl2p1bHUP5axqk49fOOV3DDZZLm9SmnC8hA7y5CaD9Sq6DUy
+6QznY9x2aZytpSUwx87cvAR0HrRoIz1kp0jFVZnBYZ0nknFTjjlkTCSMsg0i9q/
B0J4K6wSUgyxKYdf7gSP+mGR9CuH5gXtXyyeW0wkitZPMEtuNfF4jklOK7Loslyp
sZ9lqF/55TqUNLDM+i6HImHaMbIJ/Uu0CVDMXNvkJO2XZPi4znMB+fO2O9R6Dgol
31B0HulONyvryOb4u9qREZ4riQIzBBABCAAdFiEEwPw5LcreJtl1+l5K99NY+ylx
4KYFAmGNhYMACgkQ99NY+ylx4KbB9A//eCJt76w+A6+lJH678SGjKUHQY/86rolR
xJxlpAhZce9Dofuff5xNmvSW5NU0w/XC4aWftHUx6U3+ulSlmhUnqz7vsSd1Qqf3
Q/FBcJq8ThF31npOpfbgJt7S0df1OBtpOYhvXWVJnMLa4wblJjhUH96uaHFFN5mw
Yh0FrO2H/Pc/QtGxDa+AUVDQ+N8X7lgs4z8ZtlwS5jXx+Hy4fzgvohMyPJLy9qV+
6W3eNzNEqDRsB5nnxGAlKa45yxNIoOusk2Vl6gzfI6JSBasLcaR0c/F+rSo/B6d/
wsw8emhrMAnjNlvV7e1//vI5LfGIDUUbT3OOLKSW0IXIzCA6Jd8eEX56r1jtXeEa
AqD6hIcVkSvFKP7hWJg3snicTXLkKjmC4H5QyqXDerEARbMcPeD5JEEpT7UmW6Di
LxVGlBCJo9cJYmFJTZkL8FVxQGwfm64B7ljhSpYe5QbobzZ6ZRq6wM+5gvu6yjXq
X5Lw3Am18TatezTqozIp3JQqVIQ1ulS+ww9O8/0gJDn1tSpmSN738ODpNS8MD0oH
KkUiIjF6Gsd/EdaUcUJWzUjjG64RFehYsvExbsIwTCd9AZlIHq9FEtgJYAMEyUq+
5F0dUE6R+KwQ5uBZIZFuLF0yIYdjuK8J9REe/xSKjfYCIyE4FqpXDoTJ2rQK8and
CdJMkj1wIVmJAjMEEAEKAB0WIQQVXT/FAMg0SG0e6md/2fzLAAvu7gUCYY3MmQAK
CRB/2fzLAAvu7gJ5EACwci8pEaSan521csUzg9mfCZlrxqyzwyPOT/cthYveGdQ+
sMaDqtYWhYbPUgz2baM3q2LNesJuaibQV6f4iJVX5lZzjU0mtIh2IeWSuf8BpMGy
1xcXaZLoEsbwXu7H1toHKKMWSy9EfnooKCQZ8tWP9b+CuRMvXh9MfcpxoKsWCphf
q9jmzCpPpcP2AAv/ogZG6vZigegNdTVo/E9Bg8pNjvE6OWTJX9cAfuLQyjsF3O4k
So+EuFkoVNJZPNgvPrmfIryjDZAQyznuRoSkIMp6tiVFsGmcMyo3wkqPRlHfC+ZY
hIZ7YP+GnJ5HBN6wkadfTxg+NccFUNAF8smddKHlJzTZEANUNfQkGnIDM8hweGZv
4YiPuj1MURoZhRDVaygImTqh6VD+Hw2Gu/uOeGCmIkZ3Vww+ecQLTZV2WZfU4Ru9
3ioW5Pll1laSKRbeJBI14L5rSzdNWozaZ2aTIhB0fFY/eSh38ZfmthwWfgqx3NET
Pw3bw+mC/VWO1g5g7lUiugtgOS5UnVjrXxD6NmuVQnY9wrgzNeBcff2dYHwh6Vwp
p5Fg2CEwuiwR8ExRocHlg/1WwS43bQPkstgi24onu0i+eIgsrc0ZnBX2zrNIR3Fi
nMCRPDraYWRgof+GbJboaJqMfUJNNnwDvMNb+pScYnTKXYHRlohEVcq+hGtpLIkC
VAQTAQgAPhYhBMskJA6ASpfaXOZhKYKTDstVv8riBQJgUvDKAhsBBQkDwmcABQsJ
CAcCBhUKCQgLAgQWAgMBAh4BAheAAAoJEIKTDstVv8rilR4P/0N2IlEajnOd2wdq
KJpow+HveN6ps1EYYYeXCuOTFHHdzoaMCxMW0TydS2aVYsKJ6yZ4Hq1qT5q7SFuP
5l1RblZB53YAYpljbZE//2VJZP+Zs63+ZpKBKjumP+ggS3NwVOUgGvGIa9SgBAeM
jw2A6g1lGG0yTNN3Q5V4O8P/5v9jSIcJV4ABfwuuBQvBjA1OlSip60Mjtz04JL83
Kg39CAYMUYQzdAo05b0XXtROG1QqHg1HfDCP0hvIvqRYK10zZwqPiqU6aSy4Y7J7
n+IiHlDfSQte0wMtObWBDunnfkjJZzlNdOcIRPMz0f13oSA8n0nlUuOuO4yuLE/j
scvZcUUAJNPHBoJr1OPgnfjCsQK8knlvSIwuM4DsrBQY3PV8UYMMxXgDe45En/RC
/GNj/lvQgOOy5m4dRkhFUBBuILFzT4sOcdGOVtY7yx12sItmQfNjZMjcvyBlSEaJ
hPm5DSZzCYL0YRoOpGLZ2dc8swaHuy035Y0EJU5unrQli6HOBPD4W9ZZmM97v4iM
7NnKkhas2x+elZAU0E7KHGWhZypS5h/nYb0ZLUCw9sHBMNLulE0PaarLL2je4m3D
ES8AZ9EGKA0/WSBlk2yd3FuhewvTewG5wRjPDqfeysP40P2qkuQ78vtzFScytVCd
J8rxjYQNSxiFEEx3rvoTxGIDSoqEuQINBGBS88sBEADZ+HSEe4pk5k/lGX002krS
1d0nPC7W3Fb+bfE2TucvB4sgYIVe5kmWDLnOuzKB76704HTKmxv1mRppxbzZFJvP
/hyPkbYkrqSnnGBQwzIQgbel4UvpzjDX22i0Z4GgECWx/v5CEN/iFCpH8AJe+NL9
mHTMPn903Eo24qZHpPpSfR3ZBq8SZyGG54b0i2tcpgq21lr4kB0w12bJta+2V6gX
S9Q/dEGKFxWtEHGf2Phahd0nN1EZbiwunzieGAzWtR7jbyhOibg2LgTuQnqLRSb3
IFN4RfJgSvpmuUjl2uchMut5aegDLamJQmidVVRhcKcq+oqiqWNpaNDjj9lfdGSb
DoaaLmbHf1yDuxLOIh6BvswZby1oWmRXEG+4fq6ZsNarx+vxUKqsevbY5TvSQF5E
/3/x41EBrqj85AmVCnoQ0tMpJjqUNP/8zrApjW8YgmHv3RPGfqD9DiRjpwY6XDar
uNQ2l+beWxTwIAjmgQLwlTDYBqantSvYknbrMHreNS53CgpbCK8SOKfPOIAq01Qb
f3ZLLiC6uFBoccAse7kVE8POOudsX0zSf/VyAJYeQaHT7A30rPKJTLJBMW3MLrQP
2IU6qjgaVCphpzVzx7s2Ab9RpnMsxWd5lutk8c2qEdeUsrWJ2NEJt1Q/Fq5fq7Gv
FtAqzevAYEZpAkQRQ40NMQARAQABiQI2BBgBCAAgFiEEyyQkDoBKl9pc5mEpgpMO
y1W/yuIFAmBS88sCGwwACgkQgpMOy1W/yuLiCQ/6Al9xk3jG8C1VMzGOTH5W32kG
AD3DlwVgDQ816DsTp/R+ajMq51D2qKRINMNOh7J6HZ3usaQYanhZKiYwJgUUqd5s
J8pNdis7M+1RERbhEteQpamGTYwVce2MBFmw9b+raemiN7p6RiUO/O9kkhtS+Q11
2kb89TwbSvy35RLiIuPLPFxh31fmukDeJCZjIvAAUwtX/C7m9j6WWJ8BAYOcx54v
FvZ0ItenLbqmAnFFAwJY/41lX/lXa/ulPrtFL/YlH8mg4a760nL99pblkqm17HPb
ykoeBVngfFuJ7fOClMBFKDBEqqdlnDZcphcZxpzV/hpETr0Tz+Ziql9dxG8m+5de
lgRkkhEPBYWSSBHycNlFFYZojHuf1fWtHKPxXQJ6XdeMagUT+vo+pT/vFJUoJ1Qu
SUoyoX+S+fYLRqVwWKGKKnHTWdkyUVKFctpKxvJy6/5VkDR1UzrodLsWQDvWHsia
OPk+Qv+3/pgq0HVbFtWl8YpH3y1YZvjMsXS0gi0S48pR/VoBeM+J7YNveKMaaGws
ABusDLes4HwrDXpF9JjWFQlNifK0yofrXZdwQwAACnsUTXUsMOkyOR7CPbTWcxrC
MC79O8GzYWfu1N8hmhMnwPPtlPGrna0wlHsgdsxq04UmRZ34MjFSjLjVNteij9ao
r4iEoNRLlOfhJKL46Lm5Ag0EYFLz4QEQAKXpSDIZ72iKQx2ld/2KtlsCa4Sjrkww
4OtzWJlum1172M6GZNQ5MKqTodKxJV/ft8M936IawnEeL0LvfjYRU2wIl7lC/I6W
yudBkPDldivfShRbtiRDA2TcxKwRJVpEWhyC0UoPP8I0cdeOOXJoa55hhOejvr+g
dWZKUrBU6H/fK8jRn2ptSPkMhHNs0O2paIBpZgVFlZyecWoXNznZMSt709kGuBdF
IigZfTWyASfmlEmPVfJgwE+ur9AbrFHtfA5PNbqPEQ/ukOIvUgrUX3ma53QeT28q
5GCSD9fz3yBhV+i02SylyMdDkogAnHFr/qdgOEeGEjjeB2HlbZJrNGwwdpOIiei/
d5dnZ2UVgsDU6kXaPuA73JZgrpsrMLcUpjek0tN/2qkc6OqOliAYw2bkSmDoPAl9
Hzvr8yJikgnDHgjhEY7UsHzhXiD/K9NzuYLqVsqprsbFMbqn9jC9Piu41QjGT5Ij
qLoNOqc+WMC1QNBaZQU0C7sriM4+vpSrWA3EDSFqlyj6/81rZ2AoSOf+3q1Ig8Fj
mNcs9CpuA0rQdOU2alMs502TDvt6oD2GLJ8SA7zZFeG2jqBUuP6nhfKmxjhUQcyL
CwRc0CHbWFI0JjNmpZ2YBLMVdBFJfZ10Jp5lToXnqW7f+TeKJ9Ho3gEsbEDdayw8
kpC4MOGiXzlNABEBAAGJBGwEGAEIACAWIQTLJCQOgEqX2lzmYSmCkw7LVb/K4gUC
YFLz4QIbAgJACRCCkw7LVb/K4sF0IAQZAQgAHRYhBJiMAKpRSM20KHT8Mrs0aamj
RKj1BQJgUvPhAAoJELs0aamjRKj167kP/R3io1CCG7RDQtBUCZA3uE9P5MAAYQN8
YMduqeGFYQ++xX7msiGWRPCgcEtUft7VU/EpPgavSsz3/RCvwdL1PlXQwHbiaCn6
/P2pM8eIwse/KpMrqyfA6nkVYNn9FJF62iniKRe50RFtAFjS0sT1FFeHv1lC/dTO
RnO6zLX11yQEWQlzrst9+sIWX+BWhYDGo/iazRLhhYn9DTgwbif+wgJLcd8QWBPf
sB1dAKFI0Cbddvtj+JSzmuT93QTfj6OJVKI7ixfVAVw9nIDfvd/Pp/ozf0qYoSbc
1Iwx6Ty7eWCdXD1DiWaxqPDDPgxNfhX3/MmtDFQF5VKJadeQDE5lF9+dUFjJgOIu
TMHqtRquhtIGFDb/ANYGXfTDFadtVbcLS16DpXn9Ob8mQRzbh7XVshwln1kyVfk2
kHqnDzI9jNvzWtNZIFZUlraPaCN+o9feJCA16LGzb7zqKuBaLWf9C37vtCv+sscD
vzdNbeB58NrVmX0bB+OQ7DXw4T/En2d7OjkAxbzsoNeIVRz+VVme6m02cPn6BVju
+wfyToRsADb9SWCz/70GQCszCdtLPV8Hcgj0h71ma3Fu37ksyk56xxENniJ/Vfo5
4dEaTYR1RnicaTeVHQLGpiDx7BgpluIvfat1u5+pYzHbBLE8aYarIESyPIRYZsBM
OBNQJo0DAAQ6oLUP/jQyCJ8wwZUPCYM615RdHUFMvq/lmm3+xa2cGKg+s6WuHHl2
ZdelQoySoaMzcxSXzwvm6ffEDpmQd92SG0OgulSXYdr0KohPeisoAR2hJS6uH3Gn
o4pGMivffy8QN5WAdcSH53FrvQuZSNMMv6tbM5F6TA1Covv8L9xDgqPfF9QR3phi
GOPltR0jm4HrJ+nvuDyv+PxEc3FwiBHfW94bGgF1yUcJrlpGrx18Ec+oDdC35nXV
Ax/hX56kSEX2lY7LYKWptLZIlvWZQ5XnkptlkqOeuNzgEmEMxPClNhpZXleQfxQT
726TzDDaxDRmhoIkZfFTE87YdzI5+lzlJ90zwAMlIWiRuAYZO5lATZxqj9C2KIg0
IXvZ3fvGK3tjelTxmUx6YI7WlKHONBUGhR4miqva67C/flPZnmlkcnNLgtZmO7OS
X4IJNc1iTGzn13orvShBKJ3fEXSV1owfO5TfTViP0LHAShkMWe7i+vPOsXJwuMKH
toliBNw4XH1XyLiRRgWa9h+4F0z7MAypn0PUWmLrP9MrgenUlpJvAUz4kYLJnNqa
DYknexPEeynsBsUb6xMGuFsw9CnhWTbNXVQ3Hn1pyRlJ/weKPrBTD0tO7RGVYp3g
n5RA/iXfvgk65ipVxUuJl9aHDfPfeIWa3INb4dhDXyWFZvEYvBzLgPRv2NSx
=+mlq
-----END PGP PUBLIC KEY BLOCK-----
