pub   rsa4096 2018-11-29 [C] [expires: 2025-12-02]
      24D626F253BE9E87E6CE5BF48FF4B8D271675527
uid                      Daniel Lezcano <daniel.lezcano@linaro.org>
uid                      Daniel Lezcano <daniel.lezcano@@free.fr>
uid                      Daniel Lezcano <daniel.lezcano@linexp.org>
uid                      Daniel Lezcano <daniel.lezcano@free.fr>
sub   rsa2048 2018-11-29 [E]
      688938711E8980BE92DD0CC9A9E9715A9D117FF3
sub   rsa2048 2018-11-29 [S]
      1A7DCDE18573D16355C87B24A832238A2A4FE84F
sub   rsa2048 2018-11-29 [A]
      2E441F4A78AF3FB9ED986A6818B7C01F95D81467
sub   ed25519 2019-10-01 [S]
      6E29D7F833DD868BDBEA8A1BDEE6AB4E2F7F7AA6

-----BEGIN PGP PUBLIC KEY BLOCK-----

mQINBFv/yykBEADDdW8RZu7iZILSf3zxq5y8YdaeyZjI/MaqgnvG/c3WjFaunoTM
speusiFEsXvtg3ehTOoyD0oFjKkHaia1Zpa1m/gnNdT/WvTveLfGA1gH+yGes2Sr
53Ht8hWYZFYMZc8V2pbSKh8wepq4g8r5YI1XUy9YbcTdj5mVrTklyGWA49NOeJz2
QbfytMT3DJmk40LqwK6CCSU09Ed8n0a+vevmQoRZJEd3Y1qXn2XHys0F6OHCC+VL
ENqNNZXdZE9E+b3FFW0lk49oLTzLRNIq0wHeR1H54RffhLQAor2+4kSSu8mW5qB0
n5Eb/zXJZZ/bRiXmT8kNg85UdYhvf03ZAsp3qxcrxMfMsC7m3+ADOtW90rNNLZnR
vjhsYNrGIKH8Ub0UKXFXibHbafSuq7RqyRQzt01Ud8CAtq+wP9EftUysLtovGpLS
pGDO5zQ++4ZGVygdYFr318aGDqCljKAKZ9hYgRimPBToDedho1S1uE6F6YiBFnI3
ry9+/KUnEP6L8Sfezwy7fp2JUNkUr41QF76nz43tl7oersrLxHzj2dYfWUAZWXva
wW4IKF5sOPFMMgxoOJovSWqwh1b7hqI+nDlD3mmVMd20VyE9W7AgTIsvDxWUnMPv
ww5iExlYeIC0Wj9K4UqSYBOHcUPrVOKTcsBVPQA6SAMJlt82/v5l4J0pSQARAQAB
tChEYW5pZWwgTGV6Y2FubyA8ZGFuaWVsLmxlemNhbm9AQGZyZWUuZnI+iQEzBBAB
CgAdFiEEzhytjshd5fnYDgi+yG9iniOCxeIFAlzHEfYACgkQyG9iniOCxeLKzAf7
BUMKikypPuxirY9EEbM03LyvYnxBpLPR/jR44BnAlgJyvCwaLPQbECTpqxkoXtPj
B48DNwJ9mct2R+Lkib6yW2cQ5KAs1EJECU+/fguBraArqy/t+bRoH4xVF41VUj+f
K25R0YV8Dl99PdeUNMPlTbagEwUAejyEbZMgFOVYnl8L8zYwOcIfCNe6gAcXE9D/
lXaqZkC9hjKsu3UanH5zNHIk2ALS7whutFrEuYQNQ4ouz6nFbp0gjvu2h5yZADw4
MRVWcedG+yAKDALvnPHUuV5CYtRKOP/4wrEfKH5z7fKPtxV54aipz4bb5zFyzsEW
xjSgh7anhO7L3SQ8pZafr4kCMwQQAQgAHRYhBD8laKrCaZj56BOhxcP0Nsow9djr
BQJcre0+AAoJEMP0Nsow9djrFagP/jCoJ0b3Kvp7oNpNZBXNYVaayY4VJln9dWVv
RaAY7xXxAaLDA7bXP1ryAIZYWLjwz6s4Mba1VN7s5gxkLC0SW6OFKyVmEOVkGI+9
e6k291qYa6OsOOG99E7ukePfYN8qU406XakEtSvcEMtn78BL3S8a/7lmRa/+CxR9
bnFpfRTwOciNGmiERXQmH4dMCTECDgxaJGAN6bwmmwQJ8viQaOJwfqdDo/XTDksF
OJmc7y2B9d59rE9B/hyDgBahowB2wto+66JOheDt/b5K9MU5ZChCWIw6Adwwl9wl
AIx8tUogGDBCTjB9YeGkkwkecwH14MKP/D4n1WgRnesKZmEX/7uDv2Kyer1a6da0
RGRM3PHepmn9Fp0XnUtrIjUCq1wgZ9qcfyufVQXAq/07xaYo/tNHt+Ehg+/C0ErA
By9Hf7JSqhv6VJoiT2CeJpKKd29lHS98o/roucbR9I3THG1u5t0drpnUdduXAnS7
+EUPkCA/glBw7ocbbj+WxG1rhMudiGDhxDVak47onytWye0vTGoFbsPJEI8c4Fdw
xef6ZYJiEYWmbrWQ5soKBpiYzHc3qbnqblUwjRfDo3iFbaEAWBtfJr7uP9h9zC5m
X+zzg+zo2HwxDSmw7+UAbe+wasOzDiLj2E7UdJ3Xz8bmRpbIRpnYx5uljQNmFBMB
0GzlFTbNiQIzBBABCgAdFiEEugLDXPmKSktSkQsV/iaEJXNYjCkFAlyl3JsACgkQ
/iaEJXNYjCkjzRAAxrDHnI3376YvrGUzCmuZM6EPD822M+Sqkz7hSOe7if0COdi6
uhSHpJ4b1+s8c9ecoPQPwpTU+4lNYhYOu1AXgooObv+Am+5j7HBQHeODxh2s9Pf/
wOOMBrQ5AzXNhBy7ZbYlNMrbRgsKe/kuMv7idOGZy1RWehO/p1sZdhoVMhYS7bKS
5/QCZCcOwO7VhNr/WDCAULgXi6/lHcbUtspD4cBin5Ngocn7GiPTsH8C5E7RePrw
SuNRTE+I3O9pxPetpIPTu73IEYQ+ixoQUkW9xOaplvwIkzmEWsQRsuNyJCcybH/G
d4HYzem9VdAsev4Ak2OPrs+P3iSiB3TTUoQmnok80gYbrIXKW6buSnT+YaPZqaQi
AF4H3Ytv8Ig/MRcBYS1oWMFMYUjI3aBCcN6Xt4e2qMoWbg9/uQMoxB6YdmHH816J
Ha0z828vHLkwBRFvFxlIWNGtyFaQqFHOEEjdY3WKYTEq65XodtXxbv970ZqTfeVe
TvT8lPm31I8PzXHID+O6Z89l0URS15+pCXQWbIUjUNgKjdhXusOiYg6X6UPdawVy
chr7GQw6SPHnzYiHNbbwj5XLQVJfyTuMKUjMrni/lNacohplgxnRXEq0NsGLCDLX
ZMaAnLIVGgrNgcpwQHvBmLlqq57zDUSAShbJgXbfuj6HsVj5eLDGwKe9leWJAjME
EAEKAB0WIQS/c5Tf9vIxoDQupYl2R+GkS8DkugUCXQdH+QAKCRB2R+GkS8Dkuiaw
EACGIhq8ccedRczhvPtU0UehXrpldZ7qZSkIkS9ob5bGPu6fiM7RnvaKuu4DPZ6Q
uJIy7UqqaTkYNR45PQE8dpzEBKYX/lGAjfFQwYB47KtSLH1JSUOWVW/UK6n2aK2V
ra7KNw5JVrvBHp3the+REa8TgPTDMOZygsjEsIZZToGEu+YE3e/U72Ie2ob7b2ft
hVyFxvZbOcEU5zwu3YZhD+w76jJVc5epqce2pkqthGTAvMZgChse12qiBGCU97+C
qocCshF9S8LNkOmBT7ZmmJwprVCm4i7OhVl1KSC915pmMxmlE65zLoRJF2Z1n6Nh
nX2P7PsPheHdsoFjPQXdJHeyD/5PvqK6/aSJlvKQfpzy5x1wwbj1/Q8lCv+yRWid
AY6hLuP3sCy4krYZuBuo0AfQnD0nCkbbaksF06CJocyECRR0sfggDSSKSf9mIheE
t817Sg6nDKLx51cLqW1dkSdQH2TJ6I67pkVQvrvbAKyUB5TI+00Qf10iRG+9nJNB
og+azGS7ID2/Qc5eQQbEA657F9oadwe6GtbzScMyKGyoBoIWQ9aScIisJb2TsT6c
y2uTV/SPmIp71uO09jXUvVRDx0HetYpI4V0IivqHN949B0up/QF4vq+OVqCaQuay
kclrmfL3SYGmMs4SCfjo+mnriZQaqToSuo6SdvDZBGoM/YkCVAQTAQgAPgIbAQUL
CQgHAgYVCgkICwIEFgIDAQIeAQIXgBYhBCTWJvJTvp6H5s5b9I/0uNJxZ1UnBQJf
yTcKBQkNL21YAAoJEI/0uNJxZ1Un1PIP/3jzZvu0kTJyAdFzJIXtQtB5yDhri/kb
xUKpFeTpFtCDYc0LGsL+DZPEUTEjUDE9YweaVrTuQ5za9equqg1yg1sh9161HT1p
22/Tz1uZ8boy3L1y2rdd+X4fsFb02gOI08B0op1pZT6muiLbS//+jvZ9W/hD2vRm
9dSZ2N8hu3hFAEZgZhk9Dns0VTGK6KZqV++tJxB23kvH0WGRTX2adt4AjIuCECQm
uZTgyh+budYNVjw4hKMF04N9zVkOBn/MQTFUF2LSomWPkNrgxMJgfcrjrtW0DUZw
C+XmwUx2aWi+hu860LErswUWbISDjoPJSYCD3Gh6jXu7qO7x3q8x9ZAA8VuvX1mV
Oja5qBSYf4T9L/reM5+RkxRmG7PC+fxsc9YWm/7TLqSQXA9ktHFmUHpDWthDansQ
oUUZutnpR7t48eggQj63AX6iyd4ZDl9ulSGXUq0WV+9gNnkarY57vcQaaRda2hYI
GYQ3NoPLz9jTSxZy1DVBMku5z9Scf0EMVqc5SDo1g9uhvL2h5qDrT3GgBIeTDIRK
OfeSG94BNYh8jLxvHLrpK3alO9ZPSzBkVcDgVmkxz9oZ/SO2jqzesEbbmeiDitfc
uq8lpfvGNSMAij56zwwcolCyMSGjVvwMKQL1Yv7PxtWwvdf1UiSwo/W4PWWg3k5H
dtt/fFp4nknNiQIcBBABAgAGBQJcozoSAAoJEIDQzArG2BZjILIP/RIwzZ4pcoR/
KflQc7N4lWusfYC+vShEIk5igZzrOSzZ4FpMEW02omb4qs00nkwYM+ywB+TFZlqq
LFABHfNny92RGvmq3HsOMxr68OBHRagKMV9i7qAlywPatLWWYtIhtX3mx+UC3QOV
uQk/b9BVTSenPkaomjeH4RoXX1HRv0ZKOyzM2zZ6NEN8dGMMh7JacEIPhNNOJUWu
1wn7vYEVAbRlhai9NJCWrimgvCrQhcx9JvyK+A/ezq4ySYQb7Etsn/1ehtFlhQ9U
T8LfqydKUIGOSyaLjdKVTZz4ExV0p/5gzQObtUNih/4bDnVJj2O+lX3PWj91uEYx
UVT1LhlTpI3HIEeHdOVBfozfOzd0v5Q6JD+Xd3s/bUQ5mI2/190Ucci7oZv92miL
uqZOsa+lZkWbUNxgsQqW8u97RDDLcjb6IMvPq2tn6Gel5YKC2qFKg8h7GGk1yagT
ZyolG3dR0vYicu1PlMjSBMa1qtLTXouoQO/ie2BWA3UFYFnI8T8DEZky2G0HovfQ
ID/5AXKvXWxLqzLKA3TqM6ejiLvIGKcFdQKpYL/08TvUKLRJaQx62w1ep624sEQp
HZebH/9OvIafLJkR/NcU6vMr3bON9gTQXT4MB2rm7t+YjXDAD8IqfoxpYRx8qxv5
4ZJ8KnI3t+vfCk8nG19tkN+cA2rvYsCniQIcBBABAgAGBQJcpcwlAAoJEK+1I2w0
cQ3Tq+0P/1bR7nRugBfv49jxEZwhU9Q21CmYxpS6IjG7nrgFHdZVXnsFiasMOoQj
IiSr4Pc16jLNzaYZdqDP6yUdYXaM5u6GkL3Dd9iRV4N6z5zUyfS+OcgisHvM9D9B
B2I/wM554zUEkrmsB7Um/9GSHz9tLokY3wUbiezuYkzy7KKwpBCg8qrGZqaPz1h/
AVEChMXirsCagx9V73j2UDQsQxrG0gjD8vCeI14K25IGh5R5QEnHd5vQ1cvIKrOQ
m1Dnbckrc+nmFPYLloLrJhKFc4A/PFemQmmaCuiq9c+N2xmbp2mDOypP0375RMF1
VducSqr263htKUB87vJDniGsOrCKbVXhoLZ4/tv8y4CGwPshp13rG4xjoCAkqLdk
CT8raoCuK3lZY7zL69+8fxNK3BTFK/rdxNfEjovwx5Rq29mZtA8iSlql2pV9/Guo
D+fanrsNkvQ5h9eMYUknXG2eDwocjHIR8XYAeP0HHKYEB7oQ56VcfWXj/PpOjYj5
R2vWzUV13fXciHMNlMpLd4q1Uq3qz6FxqN2cr8KZML31DUshoOI0MONKs4drzStF
yuo+Okus1nd78AWe8GwiwVoE8fwLSJZus36W5N3D2id8kTE9TwJulHVnLkkLsJaO
xH2eqNtvoyxOhKPfoWHllnsrfY5/DQncfInDFwfh0Cs36rG/rgzetCpEYW5pZWwg
TGV6Y2FubyA8ZGFuaWVsLmxlemNhbm9AbGluYXJvLm9yZz6JATMEEAEKAB0WIQTO
HK2OyF3l+dgOCL7Ib2KeI4LF4gUCXMcR9gAKCRDIb2KeI4LF4ohLB/wJbWbQKtxM
anSbyc4Aii/p14V0aE18G+pSaHDJ0OTkHPzFs1R2Hd1wJ1ZG3BY/1lLtmd9IFHQy
28JqOZe+YJUQ8EiOOlBFabRTEy2Q8ROEqHOElLsoU/a/QKE9STHjC4iTQ4fbBbQZ
BykdeJL0QBgXNy2pyLBqQZqkYjhyYNjZazJY/g1GIIM3xhQMO3ui+ooJ//JGJDPT
BNQ+zw8C+tTTGR5yH+RRxg60t5kJQqw+9ie6VpcPTE31BvJZZ7KiwD3SLePzhal0
LwySRwzYO1JK0QUf25N5ubTU+ng0sE++2wRqYdS6ji2cJQWy+hRFplXatIV1LVrq
MTAub0+xvWfHiQIzBBABCAAdFiEEPyVoqsJpmPnoE6HFw/Q2yjD12OsFAlyt7T4A
CgkQw/Q2yjD12Os98w//Sy0MMk+qEhV8yoX6iL/tJe6vNsXIRGZRU8ETlsK3Q+Hr
k2k+SRRPZJzDQz0wQ1TFf0lwqbLOvWtOWSyl1QmtCunV9L1LlXNefcC+o77S+ZHs
iQtQJbmO64rYPLp1bj3E5I7nuCtu+Aw8MFho8xhkd0KDVm9wpN/SQBqwf7w9OoIO
cuWTlbGAmkm/h8Awm3wBn+URbnb1SjoCJI5NSv4NOFAOJU7yFYJDXDJaNaINAbHR
jFSGFLeAwTPUgDkw5CvAKV1TR0WrZREtKuURJkvMOwHs5++oRPwcQK4t2JQxi4UW
CKOszyF3L0fN74w1+FrbVBVdW/YgEQuK+5Nh+98txUzu+r3R2qUO7Tov940aIILf
dm9iuX4Wj8H/135xxBeKVKp7SXmM6MI8/L56M0E49vb2zBRYjMpN67Wl8qMtKq0c
U7Y3EDLnIreNDMa7OgRnfva5s/sWzf3DOui9y0WF0P5q9hBdEeoi/Plbk+psupjC
/S4jmJvbVyFyMk1hwnZkFEB70bvFXUsZltvEUZUasXFifBJGhKYV3xqtHNnPtR8n
XhbqFgALSGPpnLHbKu5pxapA5OlZVNaO238VhL42CCsqI2srihluFOS2fiCxKZwO
xiTpzilW0KaccmvN0a/fThM9xl8cbucPuRJNX6GflbLxsytq05lu4TGYRB6ZncCJ
AjMEEAEKAB0WIQS6AsNc+YpKS1KRCxX+JoQlc1iMKQUCXKXcmwAKCRD+JoQlc1iM
KUEGD/9WzFw9g2P8WVnAs4wxM1QijOYgOCSjFcXUIArWH3AxuQ9AirGxAXlwpJXw
cjp7WIN3GsFqLKSQ1YSsu6WhuAwifTion8+yrsILNUxoLeOAab7liOXh1wyWacGj
ZQs7NvC3lyilG8LxqhodEk+qKwwCfv18/TAQTpVXfU2AZLeoiIJeA0Hu0rW4PcIm
Frs+qwO0glF7dAn+HhJ9JendD7z6y29wJPGJbXioqG/2bbog0iAx0wErerY5qXP6
wpP6KSxrus23xAO0zYW8m1AaB6Q37Ti8K1dlVEnm2abK1P/eNw+gZ5G35MH9BE+v
M1yq2LVTglHzrB7BzKsstbl9gALrw3d6nTR8cM7utXRwZholVGdWowJ3VTQyJAHz
fmbEBFzJXG76jpZYzW4+8+Ug8K98VhmxYHYJVoeyJU+1kRHGskfY3r2lxbRlubA2
XZs7VPa2pxSuT99q6hH5LZChQu2gzGURG2hvpNQ+JiUjcYKAt8FGufcdw3yzwQCo
rWvV1xlsrL4tGTT4Ejcy7DSHWQqmQP9PijNG4A0PRgLpuAeIOa5A8bpQPTKp9EOZ
zwW5Fws0W1JJamU5YHVse2Bb6eDpKEO0+7wXr2dxHMsI37b2Y4m3jfJtO7XSXokV
7zbF/oToV1a8XKtYXuCvDtpPPGKs+25awNd2gfePUA2Tk49cpIkCMwQQAQoAHRYh
BL9zlN/28jGgNC6liXZH4aRLwOS6BQJdB0fzAAoJEHZH4aRLwOS6nMgP+gLfnLUd
w+0iab/r8WLuTMG0E8miTTsWlv0fEyOYDkVsIH1bNew5vi+zMYWUHSUjBbOXeXre
Ea0XfePuruuTPukP75vZgcCPVzCZZVt5XaH1U+iq+1quwhc/uIe+l2ayscnz1kFC
+BPFEWyPVV1izqyYrCdMj6bFnmhtuYcE84dp1gYWdQW9B1QVQBa+wfYNkjp0JFUX
1eO1m6UxCed2UzOFWpl1aEw6k5O7Ctmgme7umm+JwXlnPWhmSLRZIDp7BrU2NL2J
hu/LTRmlUVUMnHK2Oo66dnNuTgKGZ28c0EgiBZnhvP02xNCHZnbJEH8sgkGSCSuo
beopdNfr4QMWI7POyFhm7dvP7k+OgJBWQlGQSxCjmMQqnNBGC06pEQheDZb/BPLO
pHWeVephtfjF5Drp+Cnbo3wxAMhI52RSMPKanOwDmdLLmJDH4FywPvCrBvEJoZFo
CgvYwceHIkksShoL0Jn9+MwH/9FYjtLgbF/oOOr6fpRzhOVtUttDBC1S3prad/gu
0QiKfY85wCa8Uz97rv2jbilC/Fs4Vj0fYuoWLwiCqgf8vJWRRcI1F9G1fyQr8GGj
Q6DjOY074bGZQEG6Jy3/ybddVhj3KlRN2vh8ugBmzmo2i3Wzs+OvfU8gpgDLpyeu
xJcsl8CRwyfJsDO+ikGiDVM1Y6LyJCFqBAWsiQJXBBMBCABBAhsBBQsJCAcCBhUK
CQgLAgQWAgMBAh4BAheAAhkBFiEEJNYm8lO+nofmzlv0j/S40nFnVScFAl/JNwEF
CQ0vbVgACgkQj/S40nFnVSfsRg//QWjE2YZB/VaQ7OEDoB5NzUHqiOavXcmz9dts
KShmgPQ1iPtHZcJ1XRq6GAlnH+X7SjRkVKc6dVdDPVIvCG7+lTYW1eoj7vld8Xqq
3XiSxVxqs3WAPf2rdycJrt655zda4Ro/qnTaCNluQXWwgVGe/7jObpGS9QPT+Neb
W73vZ2r6beLqcf83mWFmeUzDujGhNjouhbpEicCOsKDXMQSVkX35GlSavEyZPcBY
IjJhRnwaZ5ouZnQR+ttyKOCxzoDShlpnW4gMULB1Vev3j+ZYppV2uRTHveYxr3CL
UwQIxuspKq9g1DylXPketBe+IfULGkryMDnrvTdDQ/FNoJ522l7PYwg9ccj8oR8r
DAwA87zfUtd+MNc6BqBLxUl+VGooq9tTtvJZXyoqYLFtQHEn0YphV8C4/pOsQ8Gh
IVrUM+v6LPRpPWactVdRvSB43wcFHf57dau8kM10SCeBNq/YOndVEg4ZmtIkr6GV
wJp4O0OXtgnEHBrClVrTpt3IxQ8tcF0WLnOQq6vCNFA+OzJAFg4wedKSYy2t1q2B
IWnguKdMrWTdWKHXc1aPZJuwuXecV/YSz7ed8Qk2IRXTNAR9CW+A+ZsjTCyhRX4X
As7xdtzFesXjOUTZ51gWoYsK5QZLBP7JiMuV0MokZmtNvQOTJHiPzcWsh5NiH5++
38uwrCyJAhwEEAECAAYFAlyjOf8ACgkQgNDMCsbYFmO2LxAAplwskG5vS2/KT2w/
OLgywj7iPUIE39c7B2/U0aBmAzlPwSU8QliDBu3iJRQZqsPs7pKjT5BAA0XE5L23
h2URKmRRWemMjssYrG5esTECTYSfmJFmDNXAVbOhHMERZjm9kYmjfjenf01EpVfA
E0xoiYvQRJeCB3SMBmhKa7Mk4bUzmUyaYt0tzoy8bsghkH85cjHhown2LXPHRvqj
9klefffhpMpNf3+JQpcgLXNm3Yj5KaDMQ4rRH/7UwkLyyx53dU+uPSPz9R79s3wF
42Z8BGn8V0FiPme/qh7if1Go6ldCBISd+i7vctTuxEwlhtrkqSWQbiBCb2ztlORA
4Q5nRyV0iyN1yewFunar3xvzeNmHJzoMiVseLxDR9t4d2pjoM+DlrHXPt5e4lnC3
H4UaJi8FoNJdayf/9SRSXmuJrbsWMDkZkM5eyyfVEs6CmpXOiic9CVdXPUIk7zQS
YoS6oiVUWsgcj+9em/nE+ZUzlFY14y/QsgotLmi5zpXR6uf+wdBa7IjGmwGJi1Eu
MclGm/kUm2fWA+/wyI98F/cIQl1Y0DT0t8rDcYgYHR4bgOryLEUhb1ypiort3eFf
ziTFFjdkafuzXbkpC0yxhdjA7c7OEMj0qXNR9AM6YQB7yJv79FJDrIBvHYRO4DXB
cxngggQjRSGx5DdA76MVQWRZVgGJAhwEEAECAAYFAlylzCQACgkQr7UjbDRxDdPy
MA/+KiEHH3sWxvFHJThyGDZe3JxyJbQpFIM910qxeqGFIWUzyc7bkDo5iy/yRPjO
mfmztLXdkIZNMRy/V5RwNaNXC6vyqCWQ6K86C7V8GEXhr0WzERWCEfLuves1LSH9
eVx7ekRnYGU5AZFMBcQXo79d2kL0XZLs7g1FNSUF6wdxqlCf+Rok7PTKJYX0K5Zm
6273JLXUIULpms8p4Sq4BlGUlR30qdKgq5Hsmn3cVUct/26eHSUeQreIAvFj5dVF
k1bCiwTx7MHxAFm6PkHz9RGzg8wKcIywTqyZy8/F2BLeUBiBO4vkx5F/s5OgtDFn
2Qwz0kOR7hsRkCIpwO5I1yLCWWg7BUWw4kLOpjtEhksCRlBYO4oMUfR5xk9hPQsi
aBPnb7AY+J4NUEnuSk/Jmf3C/17k3EgCwTKCZM6lP68k40UVtZNJxUEmkV65649W
gZfmZHI5ARfYbLvNBce/bLQ4kBKiOfUxf+36wkbdl5ftaYo4GSjDNLJPdKXjo2Rt
dxgBABmAbFReJCYGzHUecI0ZHi/mUK2xIwFTQ8/NNaMRO9WHMyvI9FEY+DjUiEso
TwMHRJYwJxvHzmEJHl7oj9e1pU2bcaoaOpuuK3blZhbFdiHLnc9yVxIdB5Yuyol/
cnEokYGZSjStCXBLT2zXhwariupNGi541BsAmsjUhhH3P3G0KkRhbmllbCBMZXpj
YW5vIDxkYW5pZWwubGV6Y2Fub0BsaW5leHAub3JnPokBMwQQAQoAHRYhBM4crY7I
XeX52A4IvshvYp4jgsXiBQJcxxH2AAoJEMhvYp4jgsXiWXIH/1bWmYKI3n8j6Y5R
iPAdAeILkijrDbHb4XzpY+b6qpWY0UaLRCZYkyVT/6Ft6pkWqm7tvJfGU4bkreVq
S1QQYYu3dRcCW0rcM2Cx6aNA/i5ovfchIld98XGsY3Ya1YanZl+jsc5QFxLr9UCW
nBNnT68pwbqEvD55uP0c2xcBmffQJkOXeuh4VAstioQIl8DD4/WPUhkJTTmpiWIQ
l4esBZR5wuWWf8msJRbLjafX0fCOiiijLC5hZGcbRMC2YVYlVKRjNDoK13ijXjhT
ZhD3Iw7SNbz+yqCR2Gn2sOEOySrJmIhSkBQZNO3o2CEncF8oSF0iKKe7rQUrGJ64
9gCRtmOJAjMEEAEIAB0WIQQ/JWiqwmmY+egTocXD9DbKMPXY6wUCXK3tPgAKCRDD
9DbKMPXY6xzJD/9AwS1FDecC+VeN4mDiX/5l64f5hqOsol75gLV7iLOxqkN0sHlq
xnTiWeRjq4s6NsaR/YWQIFB2asH3cT9hKIzC5BxIlIvUfht2PYTcpMSuhUndi/V4
OwFD91NWKf5XNH0ZtlEgjWm/ooOI2Fi+BBzKnJOn9NQLcROjEJ0MsijNvVLv7dW7
9yujOe2lLuws0y2axePmXD+gZrypblc2953o7phYRCq4IXiGRBmxaiRYmxqlzwe8
BDJIJn0jhufyaT/TmosJ7v1w5kQXmlDk9i/n+cn7+l1iM6SGoZ1ao0J9azdvGn9a
Mxt7EeJHhUGAp8Z5tKjq+VqV0z1y0M02XLmEsFxRitehOH2TBLd4MsJQ4lqM7xhB
o5mOVcmRFxpkh9QdmfxtKyrD7rwaSQoJg/01lvMCt2ltM2uPM1vkeUq3vgHYCu8/
+l4c4ujdq+/NiQYhFRQoaBFF7rGmCm7fPEzswPhKFo69ZkGEHFyp0N9TFMRkNyrz
DsCMSpldAjSA9OByGBYVMvo2JGtqFiJV/isz9DNS9NZgEfem5uhDpjLIeOUZcKDp
j6/3SwjUtvDW4nkPe+mwa/1laTAp15XBvNKZxZIRTLJkG8WgntyFXwbt6UG5V5Sg
hUqwhn3zofBTx2K1e6iA7QQ8N+XnFq2j764XddcaxmgfzdUwacLTZRbvmYkCMwQQ
AQoAHRYhBLoCw1z5ikpLUpELFf4mhCVzWIwpBQJcpdycAAoJEP4mhCVzWIwpzlcP
/ilWCRfZIQ4W3yEfwkTOnLvbin0chOotqHizQX7OJbvYu0ThUwdcObR7h7I8KvRv
Y/yCjw/w2WD1h9iEpCBe9SHFE7OZDiIFZ7DYT5l/Q/iLLEp5GtIsvhez1Rjy+NFP
dL8/ROFe65G4r+7n7AQgIadUJHV58mOh3Hs3njOHe8ddODeaCkMjlhwTHzLvv90W
Beshq3AopdsDRlJN0F5AtEn6HypXpAMNxRUqsbvlqKDQhPumiCS8/HA92voAywJ5
0HD9q/fNvDgcqa48WFVLnyEhnKLOq6zZjWeSS2VjvGhf6lVTYZVv+J18HFeKax8C
p5zmEBLUnoRLqUA0nmG14Uken9tpCyhaEn8ZqYOCPW60W+xINoyiFAQEdDrvqOaA
eEzh7ftTzlemD2j2G+DfYE8bLSUvZLZy9yFZ20Bgaj1aPVWbOAX59glmEsjVtoNh
B1bOXEIsBrlGZeC+SUFGwOYemAlLqTPKoYvFYjj4lX2x/aL8dQlO7K6BGcMNZ2WI
4JYgvAEFE33blAlJWo0uICQ9lIja5Zo63PwQp3b9360ShUhLhJ8rl7EobfS9BwUg
U9qmH/kAyAzkrX/I/X4Yh5u2EO0tHkY4j7sWJJXUgZjq5xkd0SLarpnU3drgfnOP
/mgmv+10BkuB9Bf7ZzZNEKdOaOOpvQN7oKB5K9aeyJVFiQIzBBABCgAdFiEEv3OU
3/byMaA0LqWJdkfhpEvA5LoFAl0HR/kACgkQdkfhpEvA5LqvHA/8CM2VOow1mhhr
S4H2nRFsbfqbAiPLMjWOWdfL+niOJF/YlVLPKGXGRvHOpr2II8aHFje25EZh+2O9
Xa8mzHsB4YGx0UDu0jpclmu+NVddOmayFhQWxL3UtlniwLDQy5hMnpAMqwZiohL9
zlwu4P7gnLp2qW3yEFyRE8FjtPRPoZsBb/rxXF2J+26WV/kIhsl72/3A06hzHFxZ
VuT4Vc7Cw25bYe1pwkaqcLyv6h6j4pCS49hqlJXyCpIj3xTqcUIWF1BD7ExqnT0v
/epDPNuPTOXi5MXRCG7Jlz2afGIgt/fP6Vbh6dBQSMyY1YWnl7uwepHNQ422Gzbu
SeLC+ghUJ/akhua0jxI9OMkaVsJoU5zWxS7V7spuhZrvcoOobtCCZjjvnEc15vHZ
MJsua+GnL8SKYEUSMzx1z1JwWhbyY6aToMUNPXGuWbvuwqEV+dzlhZja13AtC7ot
vhPq79VK3FGS5Ask7MNftmLHWF1TTfv48c5A6bfRkYtofHTp4Zae/mEpBfdl8Jh2
qxF1RZIZUTxuynAxBINxAtrS9IYWkrKPXCnn0uATY2uBcO+I4PnNM1WsXtj+JLeo
HUnNsfPN478/vbpXPX+MHjrCe0HtDv4ezQWGCAfxz5I4mTPZ03emKhJo/xajGkLN
qr6Qgt7n7JvdfjRmu8YhuJbLQDocxNOJAlQEEwEIAD4CGwEFCwkIBwIGFQoJCAsC
BBYCAwECHgECF4AWIQQk1ibyU76eh+bOW/SP9LjScWdVJwUCX8k3CQUJDS9tWAAK
CRCP9LjScWdVJ7NuEACSlS1wS3iB0STI5C0vWHxE7F/VrgjLw4BM1f7iwUVeXt6q
T8Q/sLqCOJy8FluOn2kr+oLAQcJDPlQq49da8VeYW7z/45T1A2ZpSoTxQm2OTEHj
MSWxRuqdqBZPRtM7cYkZcCzcKnBnlxEyWGYNsDLeiHxsEEvjkAE0bCedj4dob8Cl
G4EKqFhTwJaw9cnQYzMbGOnIq0gWE2Xi4B+7O+OQjiRdUwSaq8c52BENS/xeTAp9
z4Jz7h4zkJ/2ioG6LfjLPdCuFamsfPqh049S+L4+69H56ks4L18/6y+PSoWW19G0
gxB98NJ24Qa8SQXXd/pPzKc+gRyde6ki4nYnxsnPVPTEdxYcAWlBvocD8ecZS3Wo
O3VIoO6fzWMVi6Ok0tTP/fUcI6iPM/pFvOEvqmLslNJArTWLC73uTee8iiqIFW8T
qiDGdzutCUnqHwX2lt2v97MG2HqKYKCrI3NSFdLBg7y4s6SgsME9CM1RiE0jJ+3Q
6jfg8Uck2VH45mZx1Oq9lmbmtN6F7WYVsMPLqRmMgxGb2wSWhDbcsmYG16zfk+BJ
yWp2c3miPUuGnKC5UepwYkjwI9z0UpuP57mFwdlqG8mr58Ci9bcxhlxl//VUWnQu
mEw1yh6IO6vLINKrXO4vUVIFg4OybmCfj/XDigHrSYhINJilsNcXc14Kdtp4AIkC
HAQQAQIABgUCXKM6EgAKCRCA0MwKxtgWYz2pEACaNjvoODLgT7VJWy7R5i5N0Nu6
FPxWEFqs1HIRGFF6YyeQRHhTCuJIgrYKKP7pjf39/LUGNhlkCxLph8Rr/UvnJWam
NOaWj1tBhdLx4IEWJlOXLvkuNXGvo2WcdStbB3vKbzrlFrYMtZcSacBFeZxWnKrI
QD+q6IRhf2SuCfvARO1yQQcjtNGtrVF99RoOUvojoRhg73p6e/KTnvE8Uv1iZ1u+
C51gNoKJZpqjLnawMXcrSJc7hy3Sgc020THKZztgiBrDmeBF5DMgMZ1/vrXYmUE5
E6Uz3DMvmjfKQjN4ZsNnWVepHG2Jc+0nrYyqBkDrM1h6WwlA1U5PD3SY/Mcixh1s
liDzqYBMY6o+rJowMg+cYgsmET0pIx99RV4w9SieqnKTukIACO9corgtA5HHvbo5
8OJXKRG2snYHKsjpO9nWcR3UncA092+9b5jgqBWLDbMgzNNS/Xu+KfWk5ZrWapPV
oNm7crqh6SVIfOklVupQf1ZehFOVv48eFQljEMSpNOzRGpFPOL4mUF4oufkp4mnN
Yi0n4auX6e/yqDXO1/DXUHNwu6pyo9k8GgxhvOuEw07PG+6h7m7o9AYQYbnSCi1h
nl7pMW5NrhzTspFJhCxtllQwDxGcQb6AeEMvtvgJioHrU8AeJbYoZlEQOEjuiDLe
257LBM5gIagazMfxfIkCHAQQAQIABgUCXKXMJQAKCRCvtSNsNHEN06EQD/0WuXdO
U7ZKfwRfAIQLM1FT+YunCTGafyoYoJRNjKl1i/o1K0tAKDaf0e/k/OCGJR7b5HQb
109k6E/Sj4VZ4EKBX4BshL/y3WAAY98F6HbyRPWWilpEJUeDUbX6Ivjiyp6Vj1qR
GjSz6aNK03O2eqUj2Tl9nUu6SQTbJPBxEcdhHOqqyCvDunwFtaZO/px+40nEtFEF
3Ruvf1t3xXKBox7Xd/kXz6YgfE30syH0PyDVMcF7ZANBZNKyKkAQeEvcEWe+EqRK
A6QnLgF14UhZw1ZgloqHg5IGAq+tYKP7j6lcBCkfjsB4lh6YIsfCxYLffglWYrP9
OBlxPJvYcI67V819I9eE0HKt2Cu2lYfWKN/K6xN+7KGjYmX+IQOEga/iCydD2kdc
Nte4YAOQhEA1dwtudYgDkaek1NSzbdKGatnn8BlMdbdq9JaUkLVG+v3ZuzZrdEZy
PXvjnFLjklxNLpaggqFsQB6+97Cg3CZfHwXR1PvZeEoKohfwD9HL+HHyACeT5/Kk
6hKIfc8C4q8QRHTlVkwKjZqWO8bp59mnovR8ewdyIYFsgRuQEROrYnMJHuvytUX5
SYagpKAEXAE1ZvZgSJBHTa3tQ6jRQMXmHnlUtPQvkTa4jo2UjWuXXHKwuwNrtJx7
XeevxSL+e4G9WZsx7glDZ8MpBS9DG/mrveZasLQnRGFuaWVsIExlemNhbm8gPGRh
bmllbC5sZXpjYW5vQGZyZWUuZnI+iQJUBBMBCAA+FiEEJNYm8lO+nofmzlv0j/S4
0nFnVScFAlwjly8CGwEFCQPCZwAFCwkIBwIGFQoJCAsCBBYCAwECHgECF4AACgkQ
j/S40nFnVSdhpQ//W+EXF9P2ZN29pflxp1Rp3CV23ZthHFC2/EDXTftlkVCnp8on
A9xiHTRE4AOWdDOeMA0rvC/eaIK2VklHZX2WJwzk4cVCNLg/BS5ouWZck20Romw9
qLmcQS0t7nMRDzIsDyOaNe8sstlAmkPOdaO4/AbGHjiN/2jtHQJIva2kEfTqYNzj
zZmcnJzzNtWORm3rZAjgWrbj0Bxj9PMM3Z/gJI9G9dLiZ79ksVfDLCQfFF/bk7xT
SzO5/hMy4ADRkM0kCrfWVULOoEpHwQca30Obe/bcUvKqmQ+z1vFQMJtisH4IJJ0h
2zCA9dsY1aRyVT2uryd/9IW9LOM/rr30Kh5Et7kWav9yBKm5EpPk2PH/pwnG5Olo
25bBUE9Ikyp3CAM6ZHQRAITV7YqRALgnOgKjsjDjCMPWrooHDJqm++ZIxAzIEDQR
08YEBdNTgMJNC7L3UX7XPKeDrv+2ZCbMwEqPKjBdCT5QOxaDfOy3nSv3eE6jhK4S
FHnrrmorUPWY/jinCWV8kSpmtIuWt69hdl2DXoySEJKmJ6VQ7xRM8FbBm0LOMfpk
eizFbv/tKadWc5Sdn7Nmo4bi77o0b4o4NOUYTGqJ5NOSN3rxCE8sRuIgNAsRYCaS
+mshs+60o5ikvgO++XjngZuGAmfYEjNSW3zpMphyo8/kt0+/XTT6uA7wGW25AQ0E
W//M+gEIAL0pIOcO3VQkm6T+p13PovDgc+fWqvJLi92KcU/UVxP8uOSBVFbknNpL
lI+vN6xBIMg+1wn+ECszsPl4JyXChUIgAqWAKMIRf1zZDD0BbKTzTNQoZyC+SliX
U6dA4VvlgXgp8gkNqc3gs0JUv6n7N3TC885vagg66w4f2hHoDDGRTvq3iID2ZyJw
HGx498VIc/KdnZBMUTE5y68vF15IjLvVqXIR8l11mMV2zJx5Ekbk9NJVH2QJGKTD
+y2tlLnQv1MPVqhrgEM06obxNZEkHtHtdVHPj6nHi0RwNm6v8M9HBq4lK3Aq55M0
Zs2C6Bl0B6kbmWszGZ9v6UiDGXQ8S28AEQEAAYkCNgQYAQgAIBYhBCTWJvJTvp6H
5s5b9I/0uNJxZ1UnBQJb/8z6AhsMAAoJEI/0uNJxZ1Un+DoQAIViT44FLulX0ple
dwFBiMqqTspz70mjKBic4TbA3jVA31eXRGTfCuKo7s9gkzbxiMreAxPyCW7WrL4u
XVuMFhZfOWxesXizNKqQmmbVwLFOYM6d7k+7rfvp0z2FvgqX2CJSKcjiM1QJsO62
W34LCHdi4+4NcEAo7xh8NfZqvOf8IhImWTR3iUNxrgK/7jKImkQZ3+sFXHaVExTF
5ZBPP7WBz1m1tGCnChcCd7iLDcWVHunKDc2Jy9HfRitn5A6KinymxYzYVvU8oH3i
9kIZPePYzBkLnRUt85cLzfcMFWgtIigvw99Nw4k5wdFhT0/ApbTAGUm0NVhFn8Ks
YWNunYt5PaY/l9wXzpgy/RgZZ0U0oMI6o6s6RlWbFqLrk313fWTz872HVAa5UyoK
I5NQvL+H4Uqm/mq3fm2XMDafE85fxCPcoMOpWBAExglGCFnKPn43oQoBtRVr1mrz
FPoyzbPP/LsI9bvgbUaVhY+LoP1WgwyLogKSj8JdRnvs6Au0yzLcm3NNFuf/BHJI
5jYCwyCDRLDrInTB+tWTpcAygsaNpW1fiI9O/ChwSGO+s7h5cKJxEGhywgHaploi
PeaWGTa7gCRKmQqb1w3QpZgVTGUQ0Xj80pYwr6B8Z+wKxLdxdeJmm59kUav4agfC
IQup8sQBD0CGWscYIpyBWBM4jo0euQENBFv/zQgBCAC3CakpkHZLdOLyAQ9dna8h
elnFVmL1cIbKbUZWW2fzWep82q8xGDxXF2mDmQjgr/l7ZuoQfH4eVx3e2PAlrmTQ
1ad6M7qsE5M0Lrsf2lXTWxXuFTXihjdhStWjZYLgFyTQgzUQqVoER7lN61sBlDIH
p7SaIAEb8X3sdv0Vf+Zs2BvzdQySrRe4NcxHEA9ybSuljsGV3fjQ8pHt7XRu77DU
RYzA5FeNOOmzjodQSm1mLvJy91LVgcYVisdz7tVTgVFcC9jCSlurppPlqlDYGHNm
43pYHE0nc+AOmYScbLVDuCFH472EY6KpXvnUHMdbvppgp/BHSiZWwKEeDVBWcu1l
ABEBAAGJA2wEGAEIACAWIQQk1ibyU76eh+bOW/SP9LjScWdVJwUCW//NCAIbAgFA
CRCP9LjScWdVJ8B0IAQZAQgAHRYhBBp9zeGFc9FjVch7JKgyI4oqT+hPBQJb/80I
AAoJEKgyI4oqT+hPhboIAJepZDuwYU5K0WxYa3IwptGxKGFpwpELV/WBbxJUHgOz
Icc5zgWP69atlH+iH692BhJC5zBP7UEM1MM58nTPeArUSfCg0mtQsTrHhLCqugd/
MSbY4GEsTXYEGxCHws1ByBn5PeABSj3VeqaqklOVaT1GoBficYgJKBDznRYkAlCx
TUSzLDrRu8qfLksiUaek83EPtPtUMl9ZK3BwVJTZb33Zi/QzPrpj7W0vReqEaYde
ZrylWIjzmyNc/Mph6HOvEXlo4VLh3CA0LOMPayVQMi8qUNKfskg3E3PgJjz+jxlG
siB2F+t0NCoSRYKa9cB9KRyqQu/Az7V9WuxxjOzKs0ODWw/+KCyisAcqyKddsC6U
nt4A0D8S6XxoLCbOgQbgBlXZK3XyMdnuhDZ8A6BdFXno4gRq1Zo1YC1FlfZ1D/ds
6cgcs3fB5EUjzWTZYrFOIJ89bSoUJfo+hv5dpQ2LKinkRueU127vTC6iWHHDyfOQ
dD13Mut3y/VOQ08rJsSkOUYGsXMSGQjOdvFCxULN3XxMeXrlk1p54e6Td9ES4Gvt
AI0hnfPOgYdJE9Q8564rXtHc2JUx5WnGyE2RvOMkZP4Euw5GEHYy/M4Ba/6cR+Qm
2CQ5NLWFIYrExEnnrG71kjzubjaqstXQBcPnakXBeYFyIdzSl9IKogAPOzTO5y+c
pvwjaSe8+50QvKnjzl7m4KLsbpouUULNfnKwZgg2vwMiRynRtpqgrfX8eRD2w6cO
mc8e4YFEYeIpB6Eu/7S4yoqlo7mrfPx1nNNchHfK7ZBrlHDKmwotV4XAJpGjp1/B
WLHDEaMsjK1gpUWREEaJKmSI+/fj0WnZA17a+DHi/AWgeyI9qMkVY11MIRUDSouW
eUb3tGt87xpJKsPDM9tATpLI0lowBeoPW8rpJQlFYwtNz3TErnzSytOseYT3P3OL
RUeCfXC61fl8XQl+69MxqLPUs0zxjbiJNSyvvktxCYSxY+HqFrTYTFnNbok3/RDc
2tJ7ah/VwVhEOiANYLmwp4hhvl65AQ0EW//NFQEIAPEBy/ERF29Asu/RCoNpZhZf
1adeJG9sjbLLq4A24v/pbJQIn2wT/LsKpDmfUAKvwyrhenX6F6HHlo0BW5vmMdFS
Ami3bAnZvkE42QqakxPxU4Od1K+hhwypTLq8Wk/iLRQtrkRobqIPq6C0hgcxAn0R
tFYD8+SsYsA5dpV7cxOAEDj86IfJ1u4m71idd6+x/IdVZGiUS2xovoViddD2JuOG
q/aMwi3vf733c/rfWdTGMrxwp83mno+RtjtNIzRrlz45koM+p2oBVTukWMbdyekb
t138+09xRpQibhrb3o6OCn0G+Q0TUbGad5sv6hNIsYdpYqO/YIlk0enVEXWF1hsA
EQEAAYkCNgQYAQgAIBYhBCTWJvJTvp6H5s5b9I/0uNJxZ1UnBQJb/80VAhsgAAoJ
EI/0uNJxZ1UnUtIP/2uWoY2iLeoWwym/4JgRzhbgfTPyCFPxHvrV06FsNYoMX13T
/ghkuQRkfpsgsg3ozYpWMqZuLUEcj2KTb148BxZc774TXFZFiXk0ce+/HsmXMeON
Q4H20KR91PTmEoPXKG3IZ+zj4stYEETQETm9NOJtI8JOMpXWwplkuqL5iZEbHQXM
kZqUROOuOG2xTFCxnz5AfZjdzhz04lCLpS5cl7eTz1+vMAOFFY0d7yjwKCXpMbpV
tON7b3mjZLSITnjm8GiSCmqjL6+hLgfYfWpKhAHIwGf+GNtcGsG+WgAfXssdOznb
EWUZ1cq37g7sHZ/MgzRMi3VUD3Bwtk9HhroiRA6TxojrQulzovrvAFsoMNTWpbVc
o1tc2beH7uM+UrkXHDI3/OMLGwvSvb6ZTSZoDNnNqr74J9fS36H8OEiF9ATIaZ5C
q0TMdfcABtD8K0YktCVbCKKeyaWTxlTagpwIBro4fWYL0iXISdkRV2N4yQqvwvxN
73p1Rpag6a1OtTrdZqGgQ9UOYoJpUxmWntl5RVgRFn6l94W/HyWxBiFk0Vs9Lkdl
q6A4O7xt5Poi5KkH6eta7FcyTc3hf5xha9QGIA+dxLNmhicqwHh1gp5Pb87DyaCO
ZOT9cjY4IwPlurZzo/CnaaP/7ijGF1eoV5BALcmqeoILMDwErFmXNznpZ1jduDME
XZLIEhYJKwYBBAHaRw8BAQdAGdRDglTydmxI03SYiVg95SoLOKT5zZW17Kpt/5zc
vt2JAq0EGAEIACAWIQQk1ibyU76eh+bOW/SP9LjScWdVJwUCXZLIEgIbAgCBCRCP
9LjScWdVJ3YgBBkWCAAdFiEEbinX+DPdhovb6oob3uarTi9/eqYFAl2SyBIACgkQ
3uarTi9/eqZ2RgD9HN1UWo90QRDlBisR83Lte2VJyKCS46R3ZDXwZ1lPflIA/28E
8ROelnfJEGdntlE8uATPPdOxbCYAECy+LQ9mGYIMkJoP/RhDJ9TOOlHUacJKRtot
hMRSzJoe5Y8j+5KkpO1xu22li/5CZiwjAP3wJ4ffPBjReX/V8T0fLn3PpXG/1hVq
kvHSc8M4DXMNU2rYye63Edvy34iaPPgRELHKyq19iu+BqjcT+HRzxIR6H5uHkySP
CZTwLBnd2hbKJV1QsoRJ7v8azk66EXNoNU8KlZ2wp0IAbJS4//6pFbAoZWlY/RGu
3oxMrbght67fERk7xzdc4Rcfl32d/phGoEQiLMB5ygKvTQT1z7oGVFLQCpE5ALf8
ybuta1yjf5Y6uJ2pVeSSj0BxnwCIzme7QXwCpgYqDTLu+QvYs4/y6zzkvSnnsyoh
HW6AOchOVNjTHhFhFYn36TuV53laydaXK/zgo3NsOpATFObyK3N5lhb1G9tNLrev
/4WVxNr0LPXl9bdCbQGzIQK+kAPcg8u9f2MMhHQiQX8FAjhP3wtACRhfUz9RaQyk
xiwvy0s5uI05ZSXhqFs9iLlh3zNU1i6J1cdzA8BReoa3cKz4UiGKEffT857iMvT/
ZmgSdYY57EgVUWm57SN2ok2Ii8AXlanH5SJPkbwJZhiB7kO0cjebmoA/1SA+5yTc
3zEKKFuxcpfiXxt0d/OJom6jCJ5/uKB5Cz9bJj0WdlvS2Xb11Jrs90MoVa74H5me
4jOw7m9Yyg3qExOFOXUPFL6N
=R+hx
-----END PGP PUBLIC KEY BLOCK-----
