pub   rsa4096 2022-04-11 [SC]
      23AC97D7FF85864F380DBCC194D6CF91FAF6B4CC
uid                      Zirong Lang (alias Zorro) <zlang@kernel.org>
uid                      Zorro Lang <zorro.lang@gmail.com>
sub   rsa4096 2022-04-11 [E]
      D91A4DAFA54CA3AE7343D9D68A649C9F8B0FDC8B

-----BEGIN PGP PUBLIC KEY BLOCK-----

mQINBGJTpHoBEADNqDHC4dieL8I6bCJcCGD3YtvNECTLbxVG8+HSzKSYpcecXyPs
hv+cwj4YZtMe07Tnmgb5Q1U2FKV3PepTpJbfZPcDkgUSSRoETYENrmYfb9hAKg5T
qenlell++8rrNcI1CkHS25mNAzWJkBm+02Zf43bpwxUmohqHl/oGEk7Ehs23GiG7
5p1f3JmmHQLe2ZBoz/Bd/9u/1F5IAq033K4UIPd2+F6nJWOZrHWfV/XpDQggQ+M7
E1SLIP4wMgWmFxMW8FJDM6BM+R+hNWLa6vSjKuo0Z+ReYr28WsgJEoUZ1evi5Mzn
T0wOcI/fK2n6OgnJogRou3IQRJzywU7p6QbYLgFP6EhBqNJfvJnmMPwwu5UPNYuo
LfbHBr/EiuvvYuxdWO2HYwTelkueYO8KMO7p0hnD746iZXPvwsZfcWGzfzQnPW0+
cn6AVqNaNrOZArcZgGrtwB22/fe6wYHzkyzwRBDUaPAC5SXM5pWtUc0HwnTa5LkU
ZSWT7X7X2ZQ7szro8frVToyY6MLtDvg6dgAR39qZz6n2C++5c6ScRL7i+K1Ps1rr
H/1ZKBMTVND6+cwldlkYRJlkZy7PRW7RMwtO0FyMDU6BbagyXSXxtY9X3LfYvc+v
9hDn+qMyqnv99dd3bZLg25WdiBrCQSVi2aQlIGdhDsnH1O8Tb2npMBO1rwARAQAB
tB1ab3JybyBMYW5nIDx6bGFuZ0ByZWRoYXQuY29tPokCRAQwAQoALhYhBCOsl9f/
hYZPOA28wZTWz5H69rTMBQJp9+ozEB0gUmVkIEhhdCBsYXlvZmYACgkQlNbPkfr2
tMyqPA/8D3eoAt850W/rTyrYxCN2Frwsgk9XrBrZBZ4P7at+4BQ/Tbepcz13iThz
uHQ9dYqd1/5VZk2dgKD3AqzZL4pAYgk7ShMhzJAVXIa0xyrAdfyBg0V/8NcVXVru
HQDPLJM5fdR0DHeJPIiE1XpFLFBiYwKVTbrhUmDRD652OmRgJqEvZiL4Zj9ahQuj
nd3INNEiuUvf182qOc2SxsHT15lFxcOAg8oK9b9OZ+sjnDWJv0TGFbbHnAgGs8M9
8S5Q0eV+cZkCyydTciRiKJsFB3LiNDkOc47pX3p2/9tdfhqgOheU4u2rnqGBSfHF
UBXVrdmyeekh0hV7wDXbMzdRDBctA19lV6HLq+XbhZDzIxZEEFlWAgYxJDfMpW3X
yGax3vsZzDQBHJ+qRLMyssH03AU8shllpPX5EnjPCLCrrHJPAB4lcpn16jlAivoi
qH02P5LiV3oaImjQf1uAHWi1EO52K6W+c8D8C8uK9ShxmKITbZxEEs6v+KVXTxrQ
7XZJI7efWVT4U9cuCvsk/wAYkvMbxIH/2BJqYP+LBJGKQKxCu4nKL9ObK5XJOm4k
AjVo9d00OjjacDJETuD/ALjEmUJ9htFCMFaFzDhLsv8L71qDDqdCN/mdwx6l3x93
eKAw/Vip/xAorF2neogbbr9z1hjiec17b9oHzPbjNZZFauwn0sq0IVpvcnJvIExh
bmcgPHpvcnJvLmxhbmdAZ21haWwuY29tPokCTgQTAQgAOBYhBCOsl9f/hYZPOA28
wZTWz5H69rTMBQJiVDlaAhsDBQsJCAcCBhUKCQgLAgQWAgMBAh4BAheAAAoJEJTW
z5H69rTMajwP/1wCnGOUEjPduhn48bVCeIjUvZK5/PTrhypceNgxE6tnpYKv6UJb
EP/CBtFK03cJva+X8EN2cuVsbxT4DMnW5RvfwuIwvbR4uTkMa5N76IgpU3QBh2WS
tI2NgKAbZFampnj1FoXvknDO9opsIBAuQ9wMfqgJzlEIxZkb6StmgOdkNfJhRzQS
iSbY3eDHMK20iYF0N9BxsfC4fv+f30ZfZvIkeA0j7VFpU4QElGkSLjM8kSZZU6q1
RX8tVbivvorBQNjLsWVuisnAoT2+yRbRHIwaDDuV7AmNzVBK0Trft92mOwwZoCw4
mdT/CywvrnDQoI+I2hv/+irSWBRGO2HMzkzR6Riqki/4QyTnaccJChtF5vByrS0p
Gjho98f0rihpqsfZ3kdYOMQx/XlDCgjB3jMJkFWbAibM/a1MV3Eoch0F8Oc4h783
Rzq8MNAW5001Jih9FhazB8RF82rycJkGQ2bobSBM1y+WdeRacajdkZY2mdrLahUj
M2wXUrfUcRnGc/i90RbcbvvWVg3VBcTLXsQQ+bDJd3clmdPlBnOcH/xSaOhywO2H
eTT+4Rz8skE5FP3x09obfn3mAvTHxbwisG06SWADPdFkmsR0bmSu27XrgJE3CIYW
Z9PQwooTs0x9WZD+q6kthXR/YhPHXMCF4AFDu7zp1730aKXR6e/w84cSiQIzBBAB
CgAdFiEEUzaAxoMeQq6m2jMV+H93GTRKtOsFAmJVpq8ACgkQ+H93GTRKtOumuw/+
KiSGdvtG6iden8wNv+d3i+VbGlXiFGtIe08SHBMWZUJfYnlsKDV17BO2Oz15Euef
D/klICYWstiZwE8KkrKjbHSTAZfzeKJUoI/8MtSQm9oG+yxL6EKfCQD8Lem+Md5t
VPa4awEoKxWja0Ng1dzK9SIn6ZVb6Nl+kWmvQXF/pFJIc1cIZXMUBFevdoTyoZDW
M0y1fFKfWgxH17hdtpTtdbg/JL5vCEHtY2DyKIz1apnRmabWrOfWlxQDj7LfYC70
oOKcESpda/PYFhqDnk0zS+juwnsYPdEzoVnZCrgQfRmctYqywv7lpYnm9HNY9iUx
IzW86YyOGAgMBOw012Ib2wUexAQHSkat16MrbsUU3XccPOFpnAQNp+stnWhM6DgN
UqxD3klkOR30/RRf+qWO7lYI19UwEvZ3ztsuuKpVUJy99DuHycdY3URFLfI2Yj06
Rxtc2ktn6NjGvvEpSByqQAgyul1ApTzYyUaCaGVT3PF3EE8VvjSps8ROB3/WAsUP
GeGYGb4VXyOMSBwHc0nNpF4BNsHixI0VpT0Ps6YaVnUyfpcWi57kcFRnvFokkAXK
S2DkIiKxdafntnlu9tDYoHSHVGqNyYVWEo72I1sZw8D/mZ8Pi0sOyyLGnykrFo2i
yZjZnfWcM754gql9cSDkNOpH5bSl777G24L9izSgkP+JAjMEEAEIAB0WIQQrgYWR
no0kiYGGne0grhaS4T3e4AUCYlWXqgAKCRAgrhaS4T3e4BCBEACKtsY7F3W5lk1Z
0F9vgd3eFqVo8znlaAVziaETbYRlSM4lew+R/9OZ8oDafSr0mv2pyaIUp7+Zonkl
BCp7KC35MauRCFmJlU0cTmPT5k6Q59loXn4r0+cr7nXSLwtCfGtdrtg7CAOxzdmU
j3NI5jlnS0FJweRVtull9DEs8/iIuAsWB/SQr9lFsgQpNR8wAQKlRFFPIGk5osEh
WHkrR+XdwPylcLewnrOXlMH4EEi7NfAabHWD95xlP+d3xmqZIsYEH4W4swm6y9hH
NIGZHmmJwyniPbDrP8b77iUrI/06jd3R5QR/RAGabkg2pOuKclioJkzlr64kCcel
1zmYKabH+IKeMCxgcmkKv3rbyDaobhk/Vz2RCqKJiIZNzTtwwEAKOe97cE43uIxu
99YQqE2hLzVJVin/1dUZVbI5SI2PYMfjc9Fmz4+luhJCAVLcDaEeYb0Ga2aDwYN6
KeK0t2IVNefkn2ZmuTvei+Ah82GCKzgQLXNBPQMWgbfZKL2+dSz/TVcYRuDKQ1WF
MrNuWL58gRvvbcG4u4t03ziEkaw3x7GbzGRgbfsyO9vMs80yVdxf3U6IrQnKpfCS
rEvwMURcQlsbipmCn/fyDLnXtpuyFfxZ1e/rTBp5SLDF6W+Hpu3pinKIzUHqySyh
a5TOsO89LCNABAAQ1QYmUBWALqhvMIkCMwQQAQgAHRYhBNwvHYdpImlAmd07EyZS
qilcj+djBQJiVl6HAAoJECZSqilcj+djo9wQANuipjMomys2GWyb43ohgM/AWn7o
b4KG79u3bm74vSn5ze9cP/dahSdJRZeINt1rK8+XE0cAPv1dQXEvhj35837hKuok
hWXsqrobLTKJ8wi9QSdldUzwThqY0yWBghxhlayAqgdMMeu/7mf0pN9JzM2bCQRF
ClKd76UBfBJ6N/iWKwRG+6N6y0hJIs+SMkqj0dq+Y5i0Q163Wbsz3RwyZbNNXuFY
UGlCJunZ+fz1ljTBCYKrpDtO5Tq9Zax2dfq81JLcYzTqXbNWkBLiR3TPOF/6J/b9
v00r6wE/Ag4ZJdfZyGWpM9OG2N/wajodxR1NTghlxDK3Gl50q6Radf8Jlu7K6ZjE
jQ/vDTUV6uUc7FhJEaIRL/b4MhJBPP8s+36omccwfOMSYq5O8u9SCIGz1HmJa9wp
GNbeD7d0fP5v3EEQsyWtXpbttgO810DdR064LHmoc+SnQgqG74W4Fcch8VdMNwIe
uxpYw9BFBD3sz6PicMgltjqL7ToBEBjqvBLLS+XpmNZvGv6ZQseI/vy71PRM+4pr
/h6zu+klFwgIgAMq5SbbHQEUSTUuh+g4mBItpKR3iTkl44+vs8+EHGUWIDun6F0E
86LEPm5V8KPzv1kc0XxrKHsY2AmXEwWvy8qoaJDj/pnwvceOdT51NQoqQglHm8V9
ixbtspUAgihuqdBetCxaaXJvbmcgTGFuZyAoYWxpYXMgWm9ycm8pIDx6bGFuZ0Br
ZXJuZWwub3JnPokCTgQTAQgAOBYhBCOsl9f/hYZPOA28wZTWz5H69rTMBQJiYvRZ
AhsDBQsJCAcCBhUKCQgLAgQWAgMBAh4BAheAAAoJEJTWz5H69rTMJe4P/RkzFjuL
8ED62Gnx0zwVbKdjGOfJtB/ZceoaMfy2Jslm7wrGRh+klVGDuK4wrSg+TUG+1Mpg
8c6BrnioXj2sapQ3SNbnCIJRPM34QHsd495w3x1015qYw8eyrW9OmsjTIXe/+tax
hh6uWBMXgpPYSX4zEIXLn+imaaS55iyf+0WBWHSzmVOsqV79u3g0GY5h9vVLvKX7
Ycu7rihoo3xeZK1ps63C+n6SZgvUUhD8bvDPwz4Fg4YOchEY1YW/D6c42Mf8wryP
n/Bxzew3bCKWuqPhYChGOmaG1WayWLRpPRiBZ3E+Rid8F1yXE2xVZCa43C6d4Opl
fx9A14jE23YoIbgLN9pOMlhUqq0O0mvwD6BhEzIT2uq2/P0AOIXDPty/hy3aPDMU
Qe/Df+l1c1s1LULRm5FLCa2pvUF6ipfLyByJzE97dZVAKmct9y6EI5Tl8KQ4ew6w
PB+gnTuoDtjjNfG1E2LL6riknQd+ElCyPPsA0a1uv2b08X3ZT45nVccMEdhoNl8X
3IC5HKyPsz1b1NQ+ui/eDGNInQHDPRuXtRZsK4okT2A95X6jP0SGwEmZHbyBavsx
3iy7oO4q9DOQCtcvsGa2odxz8Ra8nmceQZiWdU5zRKkVbvi0JRfSEm/uVThG+O1s
reIeBT4CfXpijNpl6vuj5sR7YpbzeEfNHunLuQINBGJTpHoBEACgjq47zmxjxBF6
CITsvMEMdGRPAn2s7ve/XrtLjlcFRs+RX/OwIeTGd8B7YvY55NwGUmIhXR4ddpXT
qOUdO0/jVV3hoVHQ0l2B16e3tByv5A+jKZ1Qlebm1lkEKYvQ9bCiqRetxuIpbqLE
cQpb5W3qaizyPEZIipj6H65OPButvkvgPtmv9GzQkFUizOEXDKi6SPLo0mewJDoA
W/dmSY0H6uloGti4h4bICmADlWzADgg+gjZEPPK6OeOgc9NMb2hpLivQ4fLFy1rT
c8ZG3DwMjdCYnqrCcoCjjEdaMHnxWiw/Rjc6fmAadLllXpB+b2IjFvbLcdV3mJqD
ai+wbKTsL05A6RZbxjd1KysibACJSy4MV+Igs8e2Ro6LUowER5L9EPZgdq9NdnaD
Jtfrfss6imJoT0BdkGao/L/HK7SWOICFsGqfic4SK61IJTWcYIa3+ka1fMLx/FeQ
QRQ0G0c2Ma67Nh1n8JCjaifd+hM1or0GrAIKv9wJif9yBhn6fBKpGgD1Pv4Mm/sr
pAOPWsTflDaK7xjSX3sYojnzpyrrR8L1SIQB54u77mSWQko1clhokmW8Oy5WCeIC
iOpTJgAqIvkHKES0WFF/amFkiLd4YxqeDYFJqNLHsnaMHwCx3b5N/sL6A0VL7b7r
FYjwn23fQdULddySUtxbZmwfMVsgMQARAQABiQI2BBgBCAAgFiEEI6yX1/+Fhk84
DbzBlNbPkfr2tMwFAmJTpHoCGwwACgkQlNbPkfr2tMx4vA//VqeO8pi52zN4JxJD
C4ddhcfvpH4Q5q5ZmH4IhEVC62f51E1uj+8nZ86U7T6U5O42MUOs/OdBCVzzF9OM
d7NXMPr3nhFfctlwCG2xzLEwBa/IdJ22rZW8jdfoy3eK2rJM/Yaam+xB8KPdCuei
q+L6rJJrm/RFvZSoC8ejfikgj7sVbWg40g/k+PYnCoU6hrqnsXgKR7WEUIZIcYVn
GyFQw/vYwDV6VPJvQfV2W6KEyJi/RIeC7c5a3obdIaOqPU5B6TB80dS1ffla9q/l
pm+87WK84tnsi4UF57JieDwQNoIhjtKEOhr+v0j0yHUBSJ3cqItjTGjrbZY0rzjP
qg+uFnPPLRpWO6pWLdZy7UDjNfc45zUsVpDPKS2IB0OOXRx0fJkV2VpGEkuGSvyF
KATP21f/BH+W/EDVtjT20f6XNaxdbt0XPvXWRwaHeTJ3IlbDRK9tq5bGXdt5AkhV
MuqgbzN2ckuB8Unpx2IrSS3G7Cl6tJTTkA0dclnlrdKtugSTy1c3t6xPXg843evi
bXGqLec272WXbEyuyufO11kX0KPVsbm4uokUKohJ6VrV0j4gNZbI3gH9Zkka4mjJ
KgJ5yJoHAREy6o4IhK2tYZos4zb7N0EKdX1ZsCnCZAqfr7yb3QitftBW3FiDUNe+
1ysnFbf9NjC0U+zk5mW1APqmDlc=
=HrAP
-----END PGP PUBLIC KEY BLOCK-----
