pub   rsa4096 2011-10-24 [SC]
      C47646EF3A5FBDA473733A799509E0158D3967C9
uid                      Marek Vasut <marek.vasut@gmail.com>
sub   rsa4096 2011-10-24 [E]
      57F1A6E2A7DB1836353BC8FC6C93C750070F660A

-----BEGIN PGP PUBLIC KEY BLOCK-----

mQINBE6lTakBEADRJSodbzbvict/R7SzOZZmlxUdAGoEArZvEcS8Ywjba7e+F5Ro
9uvcHiAd4fbKSgyG4R3FqRUhGXeBhtZYUMwTx9LNHCHxnIvme2LLTVXkvm/j8cnp
C4xpXP+jxs11DtmWbXzLYtU+/XARksOQRGWoEfyU3MxCm7FV2c2wvUosUzaO79iv
O2bgFi8tuPs7AcTVFMTmlMJ8KEkbRXav28dm1+7WXjvFwMktFsG1VGxbxZKXRbli
ITi/U8osQrCHbmiDdD6sRKAHzoVYieicLdjFJzhcUvSQ+cW0n8Bz7LPuCp/P4DDf
QgwOhPqrVgCZraJeah5Y0gsr1WB/qBcxpd1sbSmea3y5CesZ/h8Rb9GLzwImxiBl
iRxYAPXZ6SELYNIxkq3ch19G9SE+/dY2Sq+NzydYXKJg9eIjLnJvDnRGwN1g8+YC
NgC33h4i6mrshJKb0YLBdkSOIB0dFYblXo4z8RuHgcGyR04nx/eL+bKvim+ftKmi
kW417FAg/dh7FtJjJITkk5oR3vQgiklarZCtxvOSWcbaowpqsHwhe+Jpu/QY6EWs
j/eAaVvUAugAOG/J9ak0mylI461i47tF/esIOVqZKLARS3xwrDZW2FpHUlSIkfDC
AEZkjvf0l6If3dGg9900LKDANTTtoyd5aRnL9v4u/vS1igxRXTEier34GQARAQAB
tCNNYXJlayBWYXN1dCA8bWFyZWsudmFzdXRAZ21haWwuY29tPokCNwQTAQgAIQUC
TqVNqQIbAwULCQgHAwUVCgkICwUWAgMBAAIeAQIXgAAKCRCVCeAVjTlnyeYTD/4q
/alXaWEqj92tnd1eo76zeYiUhCfECB0rfv9G5R5ifoAmv0fYAIaCUtNxVRhBHWPa
H7+q//1S4i9gJzEHFUddUckDuNufFo5YL5scEhYHko3Yqettd8khlARlL+0b+hJR
v+fCDEp5TTNm2BCrcmm1+GC7EAWxZuWq2A1lFxY37FJWAZ16PIgoeHomoMt+nWYF
GbMZaJrVdgLYmMwelaumlSRXxKfPXOORV4EMKrf5P5ucf4lHOFgHMrWv0KAEO99K
JmQ1+Rw7Ug9i8XFfneIduhKhGE2OHBfmydoMuX/2ge3aUCwhU6vVdzlI9HkHc1xR
mWIchT7XsQOK49RTrYjir9Ptc5BosqjKKvKAs3pzuWBa47CMvgKL4yf5ubdCx1DL
72q66jm/oXDMtI/UOS2qASz5vLuMFUnqQnT8ReV6jNk57h5xd0bO7b2c5e5+shfx
XzrpjUYMMk2OZ+SESJWobfkBRt+TAAxrpDXGz40fyuzfR9dOYgt67uaD4A3b/Dz8
T5xee2vnNtkOX17B+kwO5NTLijYudFpiMTe9qvuJqwAfHQCb3YZyze+E6oL83uFj
Gw9fFow56a3X7/EqS0c3xFoJRD5thphg4ejA5xC7Fc8928DtrPex/Z0jK0wEU+2b
ihSkYEZ+8p/V6uYgrCKn0NIRbVMC7t80OcAWURh5k4kCMwQQAQoAHRYhBHuHRg4W
kn+p9b/xDFk3GJrT+8ZlBQJp/lQeAAoJEFk3GJrT+8Zll+MP/RTxItt8dbrAqKpv
VILhSYwAbFK7GrLtZjCzQpOQcDcHA8uSodFd3Oplq5bsQBN9wf5ZA+6NwdM7jTFC
FJCzB83NHGGi72h/DiZsLekchZQZtrKtvHd1YqPIzO9aiFyQQIkhe8N0j+mH4hPg
RZzy6YD3omcXaHnZFdYqDscP9909hjvGzcVrc0CW2G5UuqndpWsqyg4sArGo0MTK
oBkfc5lGjAuhk1hs5s7oD1ZQay8XrYvgs62oauaO7Y9e8Myc3Y16XpMuSgCm2h8C
qx6vpErmqNaKfFTpZMjCQCtYGlNLqna5IKcUsZRPJS99yicGfV2mL4WtZyE3rcsf
2Ql4v9mtWTAppTRZ1oT7uG2W2ep/CVgb2gCMILRqWYidk32OSPGhSz+LJgl2awDH
opqSLbEv57datY4ETgO6AF9Y17GbZ8MO+C2hlHZwkAntSb0b2z9D6BB5DW26CCfA
WwjDNjtTrivFUH83yvT+hBeRNuns2sUPn0Cb04m7p7cSeqr/ElYn45DaecHAAfDr
8qylg06GhUCF7kP9K4wn2q4fdcGldIZ0fMzn7JXha2QTCx1qdgmlUfknSc7lkP8Z
qfVbQDm2HMLJiYOZUp8WIca8ZfiGf57y61fEjkHXrLn12hs9WRdH9r6R6QN9ecDV
MxxFHaZZTUDyPe5eCaAZfsETy/YXiQIzBBABCgAdFiEEVGFBbIGYLA+X12LBLqdr
nCtGbZ0FAmn/1I8ACgkQLqdrnCtGbZ1V5g/9F9bQzw8aMoYuCWX/xpa80TVSIC9D
C1IGcZhYRQd645nt+l2eAMiOHTVzITMJkGkVI5pKMwER//6tzFFqjAhbhfpSLgGR
mG3wbBk7+9Ktno0mfLanZ6oqpETXGvkg9Ob5f4R9e0/O/IXRiiAwqmYhQ++xJfJS
6o6LMPbsgT+v8QmtPrbtAtu0wRUiS8GW693bXi3FSSm+WuTsa9bxLiC3v76HpLRn
cBHCfXiAuQKTAdfa7114Ih3DK6zTfzBsvRIUcJ9qTL/9E9I1P/FxQ3sWz/yp6zYf
dCyehfYsS5Sv/Tw0FQiMSRa/XKZ9gHU3ejqrGWp+fiuM1Vf51yCJgExUT2iPV07d
iZrqpZyLLWzxRzkqx3UwgjFt0rOXHh/u+JjmctGyuJLP4FALptpz8JiQoWcKcJN8
HKa9Ydh2Tiy2hiYmYBDpRkRuU6Tp5fGCr07PopMZQc23tbSblqlWxKA9ArM0+s3v
uCExT+bOGUynykhk7ml/gJJKipbb3bM9l+V8RuhcdbG/XjJyH5mLeEGJS21PXwDd
B7s+vkHcfDoS6rn82lH5LSp4O8Xls2SVB7hi/5dvRh1UgVbBObEKZnwrCtKt6+52
mTF9SInKLBJmM1vo7Pqd7tSQRqJwkb03BsZo90H7j4OkqpIMTgbR+oRX3dpxitHR
yiXqrycwlaMVkuKJAjMEEAEKAB0WIQSTxgmaFCJ2oou+NdgVvIM0QwONjAUCagHT
YwAKCRAVvIM0QwONjGr8D/9cL4cifrJhPdtoAUh3khbLzyiint1gI/xKHFFq6Bdl
FmiglFnJWoW/C/m013gC9+FcZ2FjXLovy4EVt8vY1xKIRrlrmGhvU7zBU6lIvhHF
0AAAqfprScp2Sdgp1ELOcd3wb6W4aC49zyJWrdGmoBnqsRgtyw1Y5PLWVyIY2EEf
VFFJHtHIunikT1p4Baoq76KMc+pQsiI4JIRhC3dhceciA4PBKc+80nEVFLJEeWNf
+6h6lpV+qKpMP34QqRz/oe7CNmhUcb377jH3ZZt0xasXrQtJ4e5ceNIHyeRerP8d
wP3+L2VUVjVjnQKs0M2IOwCVaPZ2OwoUXxd6tnKdmJAsiTxEQ3s0MEhwBtu0171o
0U87mXUMqUPwOOqw1Vx0x+CG+AmlYc2C8Deykeb1xpvBEpx9kXGCf2/Y0kqKcLuZ
3QSvi6TusaQ/c11QRCMY65RDx8TNve9H/soTGurIEHclIwVsIUmaPda6zYZKaaVX
RGlQD0vX9hNNYVE9bjuM9KAi2jyMTB9x2lMrI4pApoDvR75b4U5L7XYB2rA+q19F
ImqpQgXWIeDtyaCINkPN58IvxcC+t1Yi6l6Z5bDoqtYediA6GmIAEpqVTjo60rHw
w5ajOE3y0HW65pJSaevdsAnODMZImH+kA1cUadt4jNV02ha9m4IOHIOfi5I/Mf7z
cbkCDQROpU2pARAA6tWwTxzaGlLqDyXvRAsx97izGZQxzaRCCpAmQexIVTS9CfPr
3rff06+qlbPK2OdiqZuApA6w/Bq+UKeA2hs8Jud9up677+eL6ntNPyV1qypn4Zrt
MmH/E9DUyxiquvZVaOWCfihxH84ZstywDA2dcaju2fTfI0+fqaxX583fS6wzyEB/
5KiRIq4IslwxDbbNnHgvQf5QP3MWk56Za5jE2qGzSjW6hBhBpmIZevsFXP0kXt8d
DAsqmDYUfRk+NsQHmq1mV1a7+7pKgYOINbFxYb7+UUlbZp7hJeSHEHYdZBvCRacW
YdnuKqDRWO2dPXjhS+yhSYMTu7El0mBkfMML2OBPVsbomlyLs1VBLQvuuu+jYdkt
iVntCdTGuls2LhrlNNNIPrIkqj/hDxfknoZKs151/d9SQdXsn1cVWGnyHmewCxte
bw4DxHl4CIkFNoCDW7XVZLyobXAGdGKq/gvZrIfBb7OW9lcst8c/Kxl+Z7Hbe9gv
/ckCVsOzA0d7bbGmWAX3nt2ZnU4Si9njM9UTALJxg6wZeGGCWZnSyJzHKC5ON0hI
oxtU+AfE8A0kawcBET8edXE2WP6mtj3Y6HQimjwqEVFHfEy2Du8y62CmL+ZP4nc5
tvztHXKthn+uQQC1OKe/t562AAL5I6TLG1CG/GZfuPZjgpe7jfCSNKXkUfUAEQEA
AYkCHwQYAQgACQUCTqVNqQIbDAAKCRCVCeAVjTlnyVa9D/9+e05RO8ENGVepWNmn
hSMoMaNf4ZlkyAlZAzMh+NnYcoOwxbi43/ErrLfZqKZfxLXYmSPvs1Wlm+OMxvAw
fhB3mJkupFKcU4cQJ9Y2FgEK/jzE2U+cn8jG2ViLd+eiK45z591Un5n5jTTOPR43
gopBiXZHZbx78GFIlODxeidd4IA6+tAi510B4PCGNfgRrSoJmaNaqRBSjki1SGI/
23AByaYbWo8vkGi5Khjx7n2Yn9vq+OKjqkaU6fDUx5ZPsDJSy+NbpXFtNvKL3Ccw
iFVV23orsRidv1zCI7cyF5L2o0bomWZbvGq4I7HT+as3lqakErG5pt0bY3c2DUDD
7zSf863IVAwEftq7gS+2HnTlb0pHz1Q24RnU3PujFSJwz2eG97iBQdpv26PxPElY
Vkcb3lRo9zSvs+Bp2ZE78bgC/l48Y9IVW5Z74PS8ubcNvyNrQa2wYLvfIQqaS9Xh
I1hGNs3+wz4JArJyXZqV+RpfOeVcpnpM827exjx5taQWyjr7NsfJ/rkPh8Zk++VL
mHGS9oekiPDCtVC146rcEp4HWwuP07PsEDOXtWe1u9RARJho9h0pWEY+SYL9ZnrY
ytXd0ebHibA5g+O7RwQrVR9TBVRBo7XIUU7K4LshqYSB2T1Fm32ohR662/Q+HWVh
2vWSxx2LZnfCqRnmW22bxEeSjg==
=K9np
-----END PGP PUBLIC KEY BLOCK-----
