pub   rsa2048 2024-10-22 [C] [expires: 2029-10-21]
      7C1C31994F6F4B1213E07F4A96E81C893A77E6CC
uid                      Flippant Fireant <flippant-fireant@kernel.org>
sub   rsa2048 2024-10-22 [E]
      E22CB0DFF6DB31FF147103464D9EBA61C21CB0F6
sub   rsa2048 2024-10-22 [S]
      88E7B184C721DC83677F03D8B6909E058C49E22D

-----BEGIN PGP PUBLIC KEY BLOCK-----

mQENBGcYC9sBCACxDcTTzGFmbWi1nK1swjRj+jnuKvekShJiVGT7VSKN7e+HYT+W
XQXAKfgD90yda6ySSjvCgRnl6M5ldvtgWMDzVrbKFrumc6HBBmryeoyBNjjC5syB
/Rz2IRvT7YSM+4nnr25yGwi3iOQgYt3x7obcjCqPVfZ7AqjGU+OD6RsKO37wUMBs
TNeZ2+IA+1DXPm/D+3/N7263uPxgJRliv5SWzbmA//Z9bcm4JBgyxsvAOT4CLlPB
weu6WBbm5aeyVRs/2tT/GuMyB7T7oYpQf1tKB1y/n1jmwqtrTbYwlKmNcrAfVXHy
6iNYC+o9ZsYwmpXmBPAPY7hEMmxIavgeUyqXABEBAAG0LkZsaXBwYW50IEZpcmVh
bnQgPGZsaXBwYW50LWZpcmVhbnRAa2VybmVsLm9yZz6JAVcEEwEIAEECGwEFCwkI
BwICIgIGFQoJCAsCBBYCAwECHgcCF4AWIQR8HDGZT29LEhPgf0qW6ByJOnfmzAUC
ZxgMwwUJCWYCaAAKCRCW6ByJOnfmzJNICACmhpS1C43f+ZZRld+7wQrglhTnRjYb
9eMmvUkpxe9d3dJCvcErUqHWH89O1G9YCEzvO2e2ggbsov3L6JvInv1F8T00c3P4
qKIM8VI1kFiNBdyZwoKB5rXzHywCfM1ndGc4F3cdWR3UZ4U4vl2t5Wixc2pIjrtd
khTtQDS7uSGzQDE3HQceoijLKB68PiUmMQ66GnQz8rQUXY7Ek1j0+YBvleo1CZsn
JtYlKeYbSKAPJ2Mu3G16qHuURmT0QNjCx0qd8nHC/ZTPuOV1iYHi4j2cbhAVEHQk
vNKiNUgLW+TBCrar7lbkRGVKw0gfsJYCsRpUu3nxDuYhOz/qi9J6jSSLiQIzBBAB
CAAdFiEE3g5m4y8f3QkCZmuW5j7cqTKd0H4FAmcYDuIACgkQ5j7cqTKd0H5ejQ//
colAKhD6R0YKwEuBxUynAyBBG0+h8fIYM5ox9ulVepSIdf/S4kInn6Ksq9Bd8ggQ
huzooZmlAvTW+r58LsE87tvpPxh0iwTVbw5RaqG7OkXNSLmRPG5ZPvAYIdtEVxEI
MPnMc71wbMPVXok16Y6uRMJ8zjGr6uwMvN+lW04gXqjHpuW4ykNh3xtsbq6NxWL8
Y62jBRZhPneGwcBdXaUiIUFYL4+Q8+EsYKIaHWm8s0pRUb7UKD27PrFwCs0iqqTB
IxtJ19uWAY/1IJzhmFgGyBZ2iGHgKK48ZRKj6uZhKcGy3sNl9G88J8w49ieZufdU
0GN4kNSpNfrUsPsN5K5mKwNZm6x0WgWIOuWGf3fuF+Fjb0dk7dClw4oO9YBDvlgt
orHnKdcgsG/EEAYTm3Dd/HppxUz0RSxa74+cQTwr7DXKNnm0TScDCer8oiU0Svfd
zI8ZHZzd5wL2OQaRi8QQ6SHlIe3aseOh1AwMRDnsFhFVI25bp+5SheJTL2bT9iAK
Xr8hosEqjYTt7wv8AghA1UsNqndUt2b32D/FIopZYNWNys65St61ae/5ZuSTpceZ
FS7DxXOZGjUsj0TGwDcJkw/c3gq/HIOg2YL0aWPOaX0AtvSE17tF5tDwu0g1KTFb
S0untrPk/b98FAx3/K/YcwTAeXBQSjRU0pwilpJoK3m5AQ0EZxgMwwEIAK+qXBHh
uy26a5xt04IbnKLQy65cmFLSEHoXas+aY2Zya21UpVM3NW4hd+6EVtWEEgC1GF9S
4ytsMlqlqJJFkuueoEIeaMvvVFczx2LHq0jbaRSiyZ1AVGRVsnW5eY5B0G/vYosD
mCDbjc5Kk6syYRBrj9N6KzRPEXwQKuF/YA2FHsxW8RN/M+1+5Gkot75VVYoOCCkw
Ec3tTea2EQCBLT4Npiwu9satPjfj0Yu1miBRCS8oq2TaeHQNfZE7J58DRo0UuxBC
CWXgjj1dn2w4QUNEqanCOrpSIgXgA1sNENRY0wVa+OEWcOiCgf1eSULN97Q6slt9
14mBEgxiUdPzSwsAEQEAAYkBNgQYAQgAIBYhBHwcMZlPb0sSE+B/SpboHIk6d+bM
BQJnGAzDAhsMAAoJEJboHIk6d+bM/ZcH/316ed48um7b4qAu1uAKnGrAt5V1O+V5
QduvJ/ag9manU+TGs5qWJ2HmeYv0s0oKJ/z4TXqGmLt7U+4KESumttYU8l54moh1
6QVJV3G90h7FiJcCg5v9ulJsuI8NWlioDtRU00C2V+h6LYrQFwUzoKkOh+BZKcyo
JOI7PB97U5aS1wZQTScw7v6jeBUwIrJffYFMGUc4QZzWFN0Y1CkeodBZWqnfLwpi
MC2a3iKecma1mqJq+tIjwwkyqjqI2UeLB3J6Ibsbd39ZiV1XQnxuYHSdChkk4bfD
GsUm52lRfaf3VYDhggDis291bt+Ig9D53+LiLF5LsllTvYgTLaaxgvm5AQ0EZxgM
xAEIALP2B71vv+ocxanDWOf8/8o6sa5oXQi9MIdmZcABaPQW90GBrOLj/wO9hCDO
7a6/Hvv4jZV0682xnqg2SNeRKW8UuNkHHbQpeyAOU822RVHq8usGv4aOPgN3gJZg
q+dbOnF94Y5vRxMeScV/lvamIb8lBsEKakZtG/03+dbYyg4mLNEF9j+sma+eGZCS
+oDNMdDdfJDoqfpjv9WJrvNfCQndQcflLjry2vF4T0iQ3kXPmXIYGWP7QWzBetRz
s3DoNklXfpMzDNEgb3/4xgRPlZayhPFnZBerphtFpMzXTwgblBQzjDU67sWcrxU1
N59e+Rd9bhK9hRPwyUV7ZHpK2+sAEQEAAYkCbAQYAQgAIBYhBHwcMZlPb0sSE+B/
SpboHIk6d+bMBQJnGAzEAhsCAUAJEJboHIk6d+bMwHQgBBkBCAAdFiEEiOexhMch
3INnfwPYtpCeBYxJ4i0FAmcYDMQACgkQtpCeBYxJ4i0N9wf9FfiVkpY302OV+lBI
chckecPsPr9hSm+3Q3Nuy8s4ltJQ26qTj01w7P/dKVe4fxQqxz8sQ0f0Y2SbkQBC
0I6rp4q1D60quvo0ChOahMMNyb57oYkACP+S0MMOY0ExvBPQBidafKvqikZ2W1Ea
EvLbTfcf6qKABGTixl2qpKDmYig2PcYSVu/SegA/VrhTswzv6w5T568KezJQdmPe
miJ1JtgPhcmc/6c8STKK5XK4VEdx1NWL63+qTEV5OUOMoKCXB6hFdO7TWoP63u64
GG5tQDeA6Ax+hjqHbLreL4Wq7E0nrpXiPzlY8MumtX9sM/xeRc1PmHqDp4H2zbvj
5VygelUHCACoJWWuUMdSM+kYBS08Z4GPlxE7dhkBw9zfwYuFS78mX8MJAdc57RE4
Hg1pHrgM/raDMn7dw2XbgDMeuLq+MYOGZDGmoGKcY3WuUeYQB/PZfcQdAniVSjer
Xztzqk++94hzetqI3wc0cCPqDmhL8nDDxpQn4+FXXU8Vpm2D4bzKkZaqddMZcgOo
9paquGi89pKBeTUU5Lx5GNpfFjfhK8OWpVoDtUwtskTOUMIJ5kgeibBqQb267UzX
UiT6NpN8jCfNKRnlOP+AsX0i4OY/a5BZYIID6VUrrFtuhtlQ+2V+Xnmh3rW11+n+
+tzI0nqm8xFPheGC2LAZhpMMeFybrjZo
=qg1z
-----END PGP PUBLIC KEY BLOCK-----
