pub   ed25519 2025-05-08 [C]
      E25A77AED6FDB55D05B304A09D8C6F14E3E60652
uid                      Gary Guo <gary@kernel.org>
uid                      Gary Guo <gary@garyguo.net>
sub   ed25519 2025-05-08 [S]
      488B0166B2019B1DD32A77E90FA1017B7FD013B6
sub   cv25519 2025-05-08 [E]
      853B2F557EE7A68FA654A4D6A4C4C035950C32A2
sub   ed25519 2025-05-08 [A]
      057F8338485C4A9761BCF2DC6DA3441F8FC6BF30

-----BEGIN PGP PUBLIC KEY BLOCK-----

mDMEaB0WwBYJKwYBBAHaRw8BAQdApSD6bR1QT/SMUGAazQKgjM0bOusg0Hg5DIV7
lTirb/S0G0dhcnkgR3VvIDxnYXJ5QGdhcnlndW8ubmV0PoiTBBMWCgA7AhsBBQsJ
CAcCAiICBhUKCQgLAgQWAgMBAh4HAheAFiEE4lp3rtb9tV0FswSgnYxvFOPmBlIF
AmgdIEUACgkQnYxvFOPmBlJLVAD/UWT7Y+9lYr181DUSIuieVDBakbLXA3SIGdMZ
1bhD0UYBAMUdUbn78M9iOqPv5VoUIESGaH+K/tn9sAnEzHxB5TEEiQIzBBABCgAd
FiEESfbB+qdJYPQ6W4ah7no5L96WIJ8FAmgofyQACgkQ7no5L96WIJ/3/w//UH/l
penZM+qPE8lmNzSoQVAcmemMldJCqZGzERvGOl5VDE2uxxgmZiIx+I5R+ERlU8cy
ls2vgsWLS/vYPcSiLby2s33MEqnMINivJ9scYlEeNUac41koomeEXiVZjL+retxK
S5NdfWOf1e770MgytWUfjscbTD0mkyRhMqBdFsSFr+pER7hROIZVen7LS9d0c9R2
yPZrIyyc+qrei9N+Flza4LlAu/EZdDqAPVVNce+2eDkhEtht9E9YEsRXqSVzSR+V
S4Ekd3UR/AsFmfUqlCdt1xMIxrkoDH9UdymejT/NDLQHYWr2lboWYmXzKLMnVw1f
Qo9al791IiQHUps9k5Kp2kPStGBwCfXnCia4yXPz2jYilPzvplnzA3hbuJzr2v4V
3nz6R/LWpBgu10UUhfWP28TUfoV2lbW4beWMyQXJCq8jHBwpCBJG2ufRHVCnHO67
Nl09+y7Lnd2tx6BLrb+0JddBQ5AV0/jcR0/G+9nzAHOxt//KAfn4bH0+hCHh89bQ
blTzb79zFR7UfTISDPJJkk7khLnpbtyOqudvlxjGIyBsOXaz7acN6X/dKgeUfyC8
6cZ4EYb//0IpAeQvKq4FzkFDDDHJC0AtNtAYzSCwmCR7UCU2uAbXuyzrQwyoI6V2
NcLTAf79rOcwgqwO3wvfg7MlBuve4uAJFuYyL+qIdQQQFgoAHRYhBB1TTEjB13F3
rcMJy2MpGumKhnwjBQJoLFITAAoJEGMpGumKhnwjGuQBAPHO2MNYSaFtSl2euAwd
rQfDEzceLI7io3zI3Iqws59vAQChuYNRxsjvDv0tph7QWEwO3wvcO6MdZJ0f+IJX
YxFhDIkCMwQQAQgAHRYhBBtT7WsFqItF/gKuYYbMQwPYcId+BQJoLe0ZAAoJEIbM
QwPYcId+3uYP+wWkEZzO94bKvThF947yKvnUex2RZywjatqduJj85YCG3oQBO9BJ
IDyYnfilQPu6sDyLXNyUTR8Vf70YjpAsB/P36cYmrzioV/gWxr+CP+HPALDwEUyo
hbo0xmsYVxx0ryAg5/y1q1v70/0ObvKhHYTdI9gjcG9b1/l4s6V6iDhPlmPTg2Dm
3XkHDL9ew6687dw51XFyFV0kWN9De77i20e5VqMcYZRXJxs3QcqLjrAGJF0v5V5o
XHvJNvQRQCAlJATyxNaTbJZNLs2To4k8h9IsAuIGpYeJYSQNONFs40yGumNToJAI
NHubWg5kwbtDuHfZ//Kli8wF3E55Cg95zs0dWVrv4Xmc5yDQxBDTS42IPlT9mxp4
dFxlGjDt0P9MRsACeqMla+5MAhsJpEuvYViwznCmDugVs4eSNnrLUZM8MImj6M30
OZ259lKNbeXmHvxf+YqiFmJ7vkKD2XNboMsyj7YLwhPx+m4JfPy3KGhuw+fj2NkN
uCMZxusDE5muIy62QDhV5b43xhVacIO4CMjdiPsh/ySuWNrLdXOjVJepM5GHHp1e
kMuyUGKR85x5R3cMbuUINu1caSydNKD9IQmu5/qa12+LviH9ogLbyOxolQWSZ+bl
AO2MSbGz+IF8SHem3Cd0LT+upQGSjghg/bZi4TxbEKlvCJlujz9iNfMeiQIzBBAB
CgAdFiEEPjU5OPd5QIZ9jqqOGXyLc2htIW0FAmgvVgYACgkQGXyLc2htIW2uWhAA
kXqLRUJnDCq/gR99CPsshcxrhcCEmfP8EYfZpl5G2KA0WM8vfzK3QusfBlRXTHqg
gvk7Dr5IwxPhEN8tAcuAqgv0gKh3FGBHpkPhyJgMjhCBWvvzZ+6tnYIePeXIfsu/
9kTf80ElCy2z5p54OAifBNph5hVJbKRpSdGFXwk1CGVlrGXNr9Dvm0CgbTKxV5uj
0kEG7oINuqQVAmez1Tc8kQ5BQQ3gr6M2aHdJU9rSCpGpFNN/4WLNo8NI0rN3xfsv
b1Iq0TzraMAiVym8WoSRMykgqIgudBDLWMyYae7+WbC85yDTp4ZVdyyiJpVLYutC
U9o/8g4YULc/7dYVgN9yYowVqX3NNTYKm5pAjuiYIJWQT/pHtEj7vVDG+oLzvtbE
Lle4IFRMI0V1CX6cHmMKOdSPKbTyvWuXRKTwG24VZ0GW+X19gPOMa+TafOEln3Cf
dwFw7/kj1Gq+8XWjjTie+lQunvaBh8Sjbtr/Ywqj/kk6OzLO4YTgd9VF7yRCkKqG
IiLsJDc3eXSXPmcY9lliLrSU+RuWInW9j5VSejGYKLqPQ/ofoHIbnDRoBZTekfmG
/YdAgdswqES8i7mcXZrnsXVh0VZQ8z0cG6oQWCRSBrrQp0ursk0YmK3W8gOO/4kj
PCLa6vfz4czkW3eSF365XGC+obbgDwYP5oE/9HdLlve0GkdhcnkgR3VvIDxnYXJ5
QGtlcm5lbC5vcmc+iI4EExYKADYWIQTiWneu1v21XQWzBKCdjG8U4+YGUgUCaE3a
2AIbAQQLCQgHBBUKCQgFFgIDAQACHgUCF4AACgkQnYxvFOPmBlKH3QEA0C3Cedfu
xVaEYaonTHKIXCq4U7rlfDnHjSnlHZe6a00A+wfr/rpMhb7Im7j8TZFplS7Vg7jP
so1GDGHA9MU2hMoAuDMEaB0crxYJKwYBBAHaRw8BAQdA0rjyaAucaAnpxo+TWFKs
reKW212tnYyk0OBFx1a+hiuI7wQYFgoAIBYhBOJad67W/bVdBbMEoJ2MbxTj5gZS
BQJoHRyvAhsCAIEJEJ2MbxTj5gZSdiAEGRYKAB0WIQRIiwFmsgGbHdMqd+kPoQF7
f9ATtgUCaB0crwAKCRAPoQF7f9ATtrjmAQDl8zRtGUubzOoACABoe2Xw9Jf599An
3TaiHi4p5r2kvQD9FWs7lsEyyAmODODuZ9FZcM0I5t/I5tKYZLS2+We5DgbN+QD/
Yqm4RI9IKNYcms1B+nwJyqVVK3ZOh9WNBFM+B1kAC0kA/0n9flZo8VOnlX61QX+1
ZIJY4xHifI0RSxQ22OgFI2sFuDgEaB0c1BIKKwYBBAGXVQEFAQEHQDUlRaYhCtSF
VGmvX9VUrEUqC/XAKyIgjLH7NfGyS415AwEIB4h4BBgWCgAgFiEE4lp3rtb9tV0F
swSgnYxvFOPmBlIFAmgdHNQCGwwACgkQnYxvFOPmBlL6BgD8DpGzivpXubMc+U6X
K/da1eLtvRkDR34bSGe1lane4pcA/RV/Abqvy4xoW6hiQTlvmJMwoyFSYlCRc9B7
8j+UVwAPuDMEaB0c6hYJKwYBBAHaRw8BAQdAA8q4jVM3Yhh9trE+2ITtNjh7QJ1Q
tRBY8P/TvoJ3LAKIeAQYFgoAIBYhBOJad67W/bVdBbMEoJ2MbxTj5gZSBQJoHRzq
AhsgAAoJEJ2MbxTj5gZSf1cBAKsBeJRrTbmwzC2yjKErvsIhMB7I8uWDSNfy/2iA
Kd9KAPwPHdKhQJDWqpmVNsosPSRQgi5KrWubUIiG/z5Av7TiCg==
=pwq/
-----END PGP PUBLIC KEY BLOCK-----
