pub   rsa4096 2011-10-12 [SC]
      631E179E370CD727A7F2A33A9E4295D605F66CE9
uid                      Paul Mackerras (Signing key) <paulus@samba.org>

-----BEGIN PGP PUBLIC KEY BLOCK-----

mQINBE6U85gBEACYU+BDUOcO7uG3S2JilDFgHjr0i9bpoHjvEiFp63i6SDXPtWl4
QtOVXM+f3uahAHyzfrJ0xe9Jx0hDDVNZqsk3jnEj5siAMAm80atoST5h4bk5TE9w
5fIOqUuKWh4i7bJOnUzmGoIF9N0xVCfcSaU4+kzRtnBnTPon+q+brDc79Tyk7PVj
P/2YTa5Vjzx1zqrHTOFBwXRk1RyVSATDAvqkA8vVw1odhmCP7EhKKT7nLBh8swz4
DVk8ylVCkB+6UFlAXlq8c0cbFMB8Zjr9gYJaQ4nxJVQcSFizS67EalathxeHOjjg
QUK9kCWExOfkcf3zAfKxFUM6oq/iH+A1O0ieVYKxbGHYDZLmMAgkJweDhbyWzSoZ
WeWneuIIxaPvxH3wHDf5NLlsHaiTxoR08zq2PN5IHEmYgR6nvYxAd3ZXLEojWXZB
AbOIZxPUvbB+DHF+7WYMKPdBLWvY6W8w0t4EYOt5N0W+/+AL2ZTCYJjZCHvhZxhC
ki8grkIcShPf6BQLe3UJc/maJGu0Co1mhiCYx2a3AAkq8E1NZ0nzEP9+eoGohjvF
ht5P/omDpU/VrZOBrgCFBDHUymvBsKw9ofaLUIplH4gJRHB47pLLFob3LDzbXyb4
GB3LrOuioqLaVgrjz6lymzxXVTzHlQkAYayN4jvve6jauFQF/QAZg1gotwARAQAB
tC9QYXVsIE1hY2tlcnJhcyAoU2lnbmluZyBrZXkpIDxwYXVsdXNAc2FtYmEub3Jn
PokCHAQQAQIABgUCTpztgQAKCRDZIA5s0a248WecD/9h89Tsu5CfKmhAL/mS33bW
rreWg9w2ZvUQJ8yquPjVAgdrno7D/oOUhoC8wEoM7wwTJ4gv2HDNsNGeyB58ajiH
yrAKEWFVpkr27DlTTw52F4MPZAn6IG0GXzETaZa00MOc7YivWA7PbQGwhs7wiTvx
zjEQxN6zZzA/eB8XWC452Qsn5pc7xPFlFaPq3yeIScgcDQmO3YQiS/lfwCEoPoL9
zgVhVfFu9coVVQylnGaJV4ibArNkU1nJ+RgMn/UmQtFWyjAUBi9Ogq3l1KQ22Ryb
DkQtQVxCXfh7xWGdhiJw5mqePSr3QlwYVpIO/7tovMGOELihPW00Pm5XC2Jav+Fl
joMZkNU4qdVZa8du85eSiV33yyF5RxWqbpdtKqMpvwlAIUfYuW+p2VaeoNw34U9y
hagWRSSy5jGiW0vo+nGc6PEjeg1u9GZUDt7BrcfALgVPZyQLWAe2qKJgtKL01GVB
fhanHjYiUnCeA4qOeEG8vCQc+gmNhM89JCUV+f5D/5FzDxCGxCZKQRvhgSWeBGw0
uzfBBGDmKDtlwJlzpuS+6Pec1/nuWBhaKb0RXO0BFnGypzPfGSq5sjekjbh/oUL5
oZ163vvTfDsvC2l2CDHgidvio4fyfQIDOFwBayCZhrcfcjf29qaRKAe8i6k2CUiF
hbFz6c/BzCPg1YOaOS062YkCIAQTAQgACgUCTpT68QMFATwACgkQXkQgiO1jLocp
ag/6A/iy4uYseGKfbCU9+n2pSt4MX3qjm+JJWSq5meg+Xu2/hPw1AD8MrsRCQZid
2c8GHdUHu/D3SwDUEHd/tVc9D+kmd6xazgHg4TaZm7ZfPQenqPu/O00PBy6ZRZ3Y
/N84mW7K9ON7WmzHVMK8M6mMe8ak/hjVktcWPeVPn0pPvohsnqCtbYQp9Dqb+LPB
WEGcOaeY4+pc+u6VL+yFKb9z+sd9TtP42/hdJvxTjQvprcM3pnqSXLccbAf0i+cq
UGvoauGBKu8NF7STlhL9w3TiLv6yp9NItJKRfnaxB3grxLQMcPRFXcaZJn5SsF/Y
PEKMFnZN23amUWuI8ZZheAiSMwEJlLAn6Pvpd7cy/KmMmmXvf3mkHAgG0rZE7e7g
dqpIvaTOgHT9ltP2K+yOxBSrCADQAcJxF8T8VvsGMnF7wn4VHZnqnLrrt8v+i1wX
dljBXH6gf2IPCJaMiTta2VnNfpdPMcN3i35EsWWhdFzw6h0EVfbNH2O5iulP+PnU
VaZ6bfEaqKPi6IuAwwMmmY4UmTvHxwuq8D3Pej992ai1osUzhzHbmvAD06xUGq/n
HqQXGivEK/kvUPQV3cXhv3lJ0Y6huvYxvmXZcdmQOMzmjyHZBPQoJCB8Vc/rNFjL
9Wy7mtOmlF3thXPmu13g+k5kpnXDG8a+1wpB3TkQM1HnCRqJAiAEEwEIAAoFAk6V
Bt8DBQE8AAoJEFrSQhHAYNHIpIUQAJblXR9BsxshImF+3EZqj2+cDn4obW53cPyO
T3mFAGM07B2gnbGYuZq8oDdMzUvFnQxOLJfuBBnvVosIB/2TCKyLbKvn1xWpBcwO
bRYi2LufHYO6dpagmcl+vT0bdruOtrbnh6nRW/W6EVtxsrIgqQds/tMijC4vskTa
++bvs5bQ79LKPv881JHDdbDOYILk4TbOC9SwLEEugn/pV8/achlHqp0VB0KxED7C
JaJ953onSday9oWiovaYvaS85N+SxXJoe7xcmkYYAarOZWz1GOJE96bJuXgc6+W8
rSeCMG35aO/CH9jGzk+jakYc7ZU1dDFHHuQKGKasoMIV+TjtAENcYYdZhYX8xcTI
fwnRbElPZVJ5f4xPQkxpzg/3tj4IKAWevR3xtV45WEIeNpr7OdSwIvoyHgQ+ZZV+
SZYh7TNZp5XAdWTXLk8X5SB6Q++t3i+7fMN8YVZRNR/qUkEFy9h5uwrmO5dkYZEI
3B6PYHTU049idQ2dzAc2RKHjIqgiVAdJLPxY2MW4jv3bA9OLvXPMOyDi5o+6YyHr
5t2oqnOz3syP3NlwQiABYC+nZfP9hVqylV2xiXZjfaydEtnQmFjM/feHwqtA9olC
Dn6GGdQ2+0yDITszKtq06gut8KvNiYwVuKKGqayeyzvEyqbFeULndwOcx1NgvSrR
Oo1q8ZZLiQI4BBMBAgAiBQJOlPOYAhsDBgsJCAcDAgYVCAIJCgsEFgIDAQIeAQIX
gAAKCRCeQpXWBfZs6Y84D/0SibkRs8w9iOPt6MHekebdJvP8X3c1h+8pwJr/AaOu
/Bd6Asbsc43O0DIPZ+2vzUt+JJMT72I9xsSaNy8mtZo74h3cu5NVO817s3LO79Kk
zYNRUMiy6ooOlWtc7kVSMBTclHFPI+xxoLsEkkWiSxvBcS43IK1nyMLFv5nufGdU
mvGHinpnkO5yKyJBuBW4xwzYsG1nPwJN4A4jBSCY1W4qdEnO/I8SILvEw3yKWRr8
DlccNtwnwwS5ZJvZwrcRMDg5TaH/FhLqErZ4eKPYo5KVZvAFu2kADLvf7CS7W/Yo
S6WwLVhpFgIkTWXJn1aS+DQStbFiaXscOW4DuzBYPG74ng/LF9aih37x4QCziRvx
YJjUpNcSGigihftejoIK7gXFQfVBrSN22oT/B70vQ01e6X4B+E9RMPKRYBdgaU2A
WcPMniVawaVErbUq7prhEWsr07Vu+XcHfAAfnuRYpxhWAN7WL8L+gcsNpYpD57+D
aDTuihP2DMkjIVtPwMd8VgA/lrmgIsqdHa0B+a2pbG5KgZfTYhwFjZuaNnWoR6JY
6/P5ZBswDH/WXR7jY04O9Q4crZIifP4Q8vKuhD+5pJJOeVHfI2DKGavQKWWWXmCo
UjBWxyxNPMMuhHc1hvkg9FvJ71ovwEM7qj/5MVpZDthgYB1BQAEiqKKsRZTrC7rb
GQ==
=qEVC
-----END PGP PUBLIC KEY BLOCK-----
