pub   rsa4096 2016-10-19 [SC]
      72392EDC88144A65C701EA9BA5826A2587AD026B
uid                      Jacopo Mondi <jacopo@jmondi.org>
sub   rsa4096 2016-10-19 [E]
      24D5FFEFB37AAF087506FEE56FA0B814C1AD544A
sub   rsa4096 2016-10-20 [S]
      B5C43D48809A208A8F5838C07234068F16A1563C

-----BEGIN PGP PUBLIC KEY BLOCK-----

mQINBFgHiCkBEADYrH/xzuOaUJoY6XNhA3NLFGqlSrbsZNvpZWSSLrGNMzz/cbfX
Ss/rkfOJ6TkZUrWoGmKDgKGm8wXb7cdw5CbTnXdoVt92dIyM+3YfcTmBQJIBV2h7
LhvWsdFWQWmRAiD6E90BDJ9xEZhx5ahXWyp/TrDOinTA6ReZbksADcyOR418TCr8
NE/rmbtjcAuhwbM9bhMWx3w1dTcKQTKBm1g58C6YTcgbff7Pn2Rz2djLzn251/ck
TCM4mH1gpCy759AIyXfOmqc5TPRQ/rO1SOlrvavfshifnM17srgVKxVaMWKsFfk5
PcE+oqghObX4ouh/uXdy80an1T4Xnlba1X6KiR/75AyLXxAURE0WfH9pXfDMylPo
vGhOMbpp9/nH2iOP+XZ86WanLzAvm0d3wyhaf2yuveRqZ8qExQbJpgnCiSd25akX
HgmTXbRMIqfjNMchwyURDsxiKL2nvxzprne06642wCHRjHdegPxa57M5x8tqY7wa
tWJnjYUMmrNylmJ0KmTzOwoo+6Ilq/L1hosBrDt/ZwNjim1IfYf8nIZDeC/9cgnc
aaD/O+kRcEYj5H8DFUq61WNm6NcETESTUB4I1J1lImmpNynhsvlHO7+1Bwh5OOu5
ScRy/IV0WTERMyXcc3H8FcfFsHapeuOZUqkvRAusJkuHEV9xpo4aRWNcVwARAQAB
tCBKYWNvcG8gTW9uZGkgPGphY29wb0BqbW9uZGkub3JnPokCOAQTAQIAIgUCWAk/
QwIbAwYLCQgHAwIGFQgCCQoLBBYCAwECHgECF4AACgkQpYJqJYetAmsFHhAAo6xe
Bg+2EgoyF+wCvhpAiecbSuqntU45bn4lYlHwRgJ/YksEgj74qv+6fMRuSrI7wqxb
aOceeadSBHuG/BLHDsC4RcQwuHIJlbaezf+/w4AvBazI1QqTf97wb9co6IpWS9p/
KQ7Sg9hgo8KPsB01aHMI0TuZryl3NSYAu/yBMtFn/zxoJmZwhBzorKZNcVljkxM4
Kog1jhpV0h8pen6oNnOhkm6wcZz/hOVcuKRqz4eF3EYgFJJv83WtgzrXHemnu4D4
gQOhtM7arUJdRoTWAp16KZ6K11UeJU92ObWknYjOAGsvI0PUfwESVyPR/o/TZoYG
8bLgWjcxELC/07DDje3YAI5O/FJbT4tY7wDFgHvjiMlUQhDSxo9Ah5CVOxzRDDxO
pDMjiwSWw1f8VmkHs+F9rxhzJvEXVMsD6MYBt9ZlU9cUiznWXV8pNk1eICxdehNf
rQ7iv/TyFyfGlZmYCm8GGBG1lDrG/if/1pj92mn63f7anlOcYZHmSccyKlL9rafq
4uIqQLlAvLG3MaJsHxmF2DMLEA8ygoxpd/pNIpdTcMtoXpDgcW9PzAfk28KoaomW
21plsE0Ph7Z33GNKqOWIbcUx7YTMmn/3jWkMEuslvyDAyQQIn77UMQZgGH/bt+AI
MPO1dGDQvV1nb4H5MZAw6sDbETZjmUXzWR1awHCJAjMEEAEIAB0WIQSUIxuYAQDs
YZrBDhDwRcK5aZElbgUCW+9yUwAKCRDwRcK5aZElbjYkD/0St5RxxccuPXocSFJD
Vl1ORdU6YSjpEqKyYRy3uNxQdCXTYPHffXSxFoo/4QZ8PN6h2ZjcX9M+Prskxr17
atP/cPf/LjoHjMZCbkIG8aycgM9pfVLZ7kqs3qzPKCDh5eDVC9jmMPZNk4bYPy5r
8B/YOHOZ4qCsINs2l9eCZPEpBx8kgx2BOMQPj26NjyIn96CcoDs/UmAQvbjQqVev
A6erBhwgII4ag29XDisOtOL0ZKaZdAg06Mpdibz+tfE96WFam45eNKknTisPG67e
/DcgixDzS5/gr3iWJzvS6oDhmf55EvaBr42mI2cndti/uz+09y4tb3zGqOrzotBW
OX+0vQnXwyW0yinA9PP7M7v6i9QNSWEcOqFdCPeQutWralej+L9s+Rse3br3Viv2
h2vMyssIAZt0uf0QP42Ma9sep06/8YWyokqpKoCgxOAGiFTQ+T70hgITocuCMr1Z
VS8WXMYFeJ2kTWCKhEqOM75JOTa1RAlt1nmG3+lWIUuwFvVoMVGpxW70XooUDE1z
qAqCYtVBDCwH3pegJMuguKkfTGe4OuQ9n1NeJmwa5Ts2LaLuOzNS0HkU1hSmM0OG
mpjk5oioL3zHJLX9h62X+Omlt6y/cEJaPIoSGrI58IQwJBbvUaXsIRJHi+/XnrtD
eBsHIZ2nO2dHzgfeSwGyU3/iJIkCMwQQAQgAHRYhBJ7Du2bi/BKab5CzlVag2B+f
eC2pBQJb1riaAAoJEFag2B+feC2pCfkP/iwG2V9FOvRJee9cv5s75tTRrV+6ys3h
KFDBAdnOonW9b8Zpeifd1eCNNz+ZyQgq9ito44ML1R5ndNi7DTItke+7JGQq1fr3
9NYNzXKBeQsU+FSygXpnmqr8wl/obLpptyB0uAmEmLRyPnh7WukHtZ1dDrlAUzzG
YAOg6GUPgKy5fCkoRnUurbKOlx9l3UgM0CrbHPQoBUkj0ZIIbQAir1jd4rC65Q/R
J9gXXRET8hYLywt2Xp+LjjRx0STcZNs0RlD9A7VXB6DmR56ckm5TecG0puzDT/Tk
8cuCsbsswsc73botOh6Q1F5Fo4v/mGmEmanB0RVE02h98fxLFZJcsjQYVsxrM5Lw
SGqKSo7KhsuHWZVI0wbZBnTVL1mdy/DdL+dCTepmWElvO2T7+AL23fv/WRXcJXiP
goI25lmmk74pI1ibMFOzF+fjOl4lHEU7G+Jff06nHtWX+sIsg3pfjMrCDe3p91Kf
/4YaOI5ZjBaALeOisI49QX+CrafyIVDRGfLQ/icJ14iwJu4FoFZlIQQky5koC3xt
kTM+qkb3KFQF3p1sxrZI3593W1YbbBv2ffAv+IteVkfFNxz/ukYaqQJlpuRoeOjP
Z4onBVFQVQlXpI7sRZB+b/dBdiSVDF/RRgZ86Vt/0OjBoCWNPbPcrrG37naX79Pd
lwRmsnwmCWEeiQIzBBABCAAdFiEEmXZpX+mGkzB782Ci8VkavZWI2l8FAmMnRB4A
CgkQ8VkavZWI2l+Rxg//UCdKQRzSk3Y06S94aHcKZLbDq03FQfEucN1BwFpdU4yK
LEAfwFkzBnnEA/eoeEEPXiQIeFUt56dXxca0KAi7ZcsEbU7rU2dPU+mKZabEYsNY
GMNxUjHU2QwRZ4/YS0Q19PAOqV2DntK1tvH4uFB6slbkJHztFun3sZBk4E/pxjkV
A8bj50zAV7JDDUQamkotEjbyK9v7OQ7EcRTo7QYdM1/4gadBjXj0a+1milUIqANO
r7hl/hJgEhE4fPcyxml09fsP2Ki+bbfQKumrv5I0fnRORirqzA/TKJPfD7xGgLpX
WzjK/4RJDBj+gPgOecrnvN+5x6AHSxIbfegxtGSTYxDi+5iOG/hUzbK4/PcOCo6S
5sq9QNZEa/48dvBnXTFdbZY2hNs+F5/0zrqy3lcGoDuecqitu+MxdFbq7ZvcipfY
z4NYcofbT/sCcyInbHaBfVkNRGSx4F4wgCCWr4141qpVJB0hDwKyzHjaybOt0N1H
IjL+QdbBExCqzpkg1f5AJTeadX5o5irZwvTKCYQ0dGHLS9a/te3BM7ePZyAenqtX
hKqcNP+4x30lWuXTeIWfuLc21gang/JxLqmotFPfauOvsy+ldVBABvMuR1NvN3U2
hXBkdBDSXvs/ORpSgB0kx9XPmrTemGHFR//10JFOOIO8lZ22mJNaw5vN4jeRYjuJ
AjMEEAEIAB0WIQSou6NA4JQLxAiqg5p2aR6Y8ijTlgUCYys2ewAKCRB2aR6Y8ijT
lp/qEACJswrRHIKrZcsAgGQ55ns/NQJBq9BJfOTONBkDgLMLQVXRGf3TcBhJoZXC
Eq26gbR8NBUNxbHQmV8xzmXSlBqalu1sPik2Sp6YDYG5KdKQ/YFrjmd7PHblHWCJ
9284tDDu7W6eSWCVDQtL3y5vh5M4cL7zni6DWYYX/B4yIum1C6lXaNohiTNVbsXj
FoDA4FDuOAr/TrG4wiGWHnH/fw0PjQNndN908Xyd5CkO+ctJ2YC78Ip4HAOqHT4x
I6zRY6YbC8Xw9TfK7LwHtfmFDBys5FmMG8QiiDgEtGakoMBsOKE1cYjVWkwcAyAx
mKHhelo1cKeMEmGu0/FonsJGU6GV+SvD+yKD4/y/vAfibp39H1t/eL+2WEltg1+a
R7ufZZkUASRu56OWuyAzfJYHtLbPRs2U5HfZVVsW+k7UPyb7+1HPPgt33rU2P25J
bELf2QHRGoE0M2BiT4yERqe367s1uzJoUT4kqzAGpgx8hvlK/h6pkS0EpnuBTUYL
AEVLrDlhziSZOcoW/J9by0ZQZih1WmjuMd22NqSq+0rVd8su3TQJ7Na8W0mtoqKU
aW0bqzVaVpZtIK5j7AiF9SvyC30RCCSaBnHG1vTjg3pJqGT76JRl05uaN31DxIjh
ljhThszHA9rpxJKKe/8oA+eSgfX9R8IQWDql9NWfuYc5dO6RP4h1BBAWCgAdFiEE
vlZ1w36BjItXZCQcJUvPxWv2zo0FAmM2rf8ACgkQJUvPxWv2zo3pQwEAhUvYcQgC
kmc1bLHb2kcPCOLbdMzW2YoFtB2NU7pN3QMA/3Was8/vkFhTbyHaHFGIrTpFVO9F
ib0vfEIqpKTZX9ULiQIzBBABCgAdFiEEs/JGnXjXi9CdNm83yUA1whtPKusFAmM1
UgcACgkQyUA1whtPKut9uw/8CwTzGfBKHmJEaDRE0/2tdoPUs2DOjY7VjTArtiRi
Q9HFRMhp7D6NTr2MzxETmE0PwPZ2DzeSRr58XeTHl3r1cIQRu04PWher3kTvkvdg
M5vibjrIB3TWghVGSitMCbjlgJHPnd6vrPYQpLfA22TIqPGUq2gTqifyM4Mh/2wf
Pg2nlDubqPbDLsz3N/aNBYSdeR6816cPUWKxoO3YFUXWAFtMR/k2F20QT6kt69bq
33RqTMogo4IrOaprPQhAyjZBGQiKQDBgcQCC1R3NFCvhCF37yFJ4MJ44lMGSYeG5
Q7AMLJAOO68JLz/lfALoMbZ4j+JIeSRhJdZ8zqwgZb3gLutq0qyAxvG8bfIwzzWM
nkAPrgUMRLSxkCSeKUVfn7c4gCd7JCG6hMUvNHeX2OLbzPk+GLreup8lIQuaUpy0
n4qrFOPiqEBUThrk1D1rpjKD7sLdlbG7vCZTOwg2EBLCgdXX/9oOvRlnlOP93deu
IBNpJWtb+ptn9Tkz4YOqKPGqAPgvYpFShqg/Uu4ygw0RrKUWAl5bAjkk23UjtNXc
588/EmM/6KNBsxs5FXoziiBu8sx0w4mgaYttb1v4i+Q4iRPCMO8NHbM7tFzvCTkS
zdQXn3WpKy+oDXY9g2bC8AKPvI1Sc82rhoquZMwq9N2MJTuyk+evtr/JDRjT/Leu
6EG5Ag0EWAeIKQEQAL2c+A4D8FL0W940MaSW2xsXQ3ipRpJLpLj10EPMUCQ9TWCw
NXMp/Y7LKBMTz0+1fH9EBwpA1niDt017/LPR0EM01ntTFBTG++TCkT9MspHFcT+D
oceHUpBHMyIHvtLqWJUpJfOH+DvAKL7yuLutZp7qlXvItf1AHpY9DjF6Y7EcPdML
+vm13RWb0rRhekuabcfdN6/f22tnuNjGDuyAPwOZGXAJZW+aZyu17Gs13sqQFK5i
iM4P6VBZHtvPazNfQlf2ka8TOuiGaOcetG4OJbDHh4WdDJxj27FB9x6eLI0xNgmn
wxj5VauuQK7D3XlAj+dMCB1QnMLVB0toQsvEJCoYE928WtKR2+1bhE9uGXFACkAL
o8OYiiOPmjhfCZncwGqRjFWb9NbnKq01mlS/rqWnyIK6DcueN2W2lkeHqZDgMvTH
V7FGM6f9dfc++6FJ3183Ok7vCY1I2cuwNEkHSRN/Z29udhnJ50LwSjmBbDOEBpfY
ynU2id+XujFAXfpsHeVC0CBD/8xKxjd9xaS2FMMVeUnU/DG8OEQOS7cGx4Vvh9K7
V7UXHF4CchF8kecjTG8dHMYRfSaYz6NtbhMBRY26if2RQVnj9hebb6FE03j8bs9k
YtRRSDxsc5cCHAgbLkVsQRH/ZXx5R+eX8sQqgEkMAVoytc2MlrV+sircEBSVABEB
AAGJAh8EGAECAAkCGwwFAlgHjJgACgkQpYJqJYetAmse2RAA2HXRf3ckJ2Km7qFr
XPsexk5uBcN4ItD0j4PwiNNkTSuX4kru7dS4hEOVJWD+LUfEdn1anCp6QkM+tCRD
urBH7ScugOpAOpUdqPxvjasi3FWOOApJRyY7L7ntP/7jLnoZYOYMdONqgPLuto4v
FGokUuL2c4XFMUszGkppw+/5BrII6DnkHF+c73qX4+d8PqSSvVfRblT7quoSACkb
EeHjU8siKvYOe26JpUniSE/qnxl2B6eoZ/gw0Oq9Az4spnCI4T0V6Qrjozxu7ZNQ
79pZi2UAjNKKfAiGD992o+9Nafw8fCMsi0GmlSSd7J6o43lU1Z62Y1uHgQwNf40H
xCI3JDXAGeD3rWB4BcSk/Pbcl+0rOcb5ZtwHY37YiVOo8e4BK3ex8L3SIsIXa6Jv
k0dYPt0WZtcJu/SiV0vFOqPAtCx476MzswFclMBGy0SIZsGckPDalObQbkFtDvYu
kkgW81wL1c370QNPMjv2mgtPhDBfTv8Ax6lUHLaAHOczajQkYG/Mt5mRDiEFy35u
4GsV28j0jZ2oKvbIsOrp7OzZDxl30vPc691L+azCkqHCVSkSHM0/wHqh8sBuME1d
nvc/gyGZ3IS5kkDB88HT6rJnqESr57usBxqr4QwqMo9lZkd8XhGOPG9+cLE/Fh7M
IObLy85c76SagFq4tAiN6mpeDs+5Ag0EWAk/pgEQAMfOa0964EsTx2+vDxR2SJ4t
dc+2cz4W6erSShlqyd8kp25IzNsBxK1y//DEor3XTIGBu+maQrCsUXr026XwzsAS
2ZEyqzFnIvj5Wrc2ZyINqoXr+P7phMVLSBkCiJS0jkofNg8cAyo/ypLgKsc8anVh
w4Iv1Q5BrUWgFI2tRYAKhEBvnkRESsB8ZhRIYbkkQHJLXmdJalNgNbTtQABgPk8+
wNaiMo7kldWP+PO2m4XqPX5CyMoLYmqgOjF9FtT/kttGXDuvceKJj4b7g+DP7Ywa
ZhHI1/DPCrbD9BA4ykQnA+qvVWOy5s5ky683m2kvgMnH8GfQ7uIDfEV5/2z4J+KU
zpoAyh2uyilzaqJFujvYtj8efMArDWNS0IineNbL3RoxUI8w7eU5lDMXVK7MnKZb
v8izQj5ktPItLCPdJ3UOHTFcAAKsMxHZZtN/0YVw4AxwfKBqer4S9ZMwwQsNoXcq
xA9Ec7kluTBzMSZYxk9tTaglRt0QxduXSCueoLBlSC4zBr5Nant+fOUK8HLKJsXr
9282x1yDKixTYyMQeqM+5ObZVeCu+4wvUqc8h522qvapnr3IxWtoPDWX4t8nc/wM
8PFvHb8YD2XeRPqNVMwoPesjSEfgfXOD6wZ4obMxJcBUlFHlFb79KoHbHvrPpdKd
KGXrmhJyWMHD1pIklFiBABEBAAGJBFUEGAEIACACGwIWIQRyOS7ciBRKZccB6pul
gmolh60CawUCXmdnuAIpwV0gBBkBAgAGBQJYCT+mAAoJEHI0Bo8WoVY8YxIQAIA2
sgBj3IPp4d7UwBFL+KnIcwMg/aT9v0ruxBYGfChbQLIoQWv3Iy23/UE5H9To//Cd
NBsh5Z2Duf/u+d38Q97YlXtTVfZPinDpsOlPiCqX8slTYSzgzsL68b54Q9ENnmG4
Y7HHc97SzBZDFgHzgD6pyevib/D2w5L8Hc+2hNWrkpOSDaBhANdicaK8Psg2LTHe
ZNWCtzOyZXjGFwKxKTKgWmVI3EbTMoJXLA1I/t7GxwtJ0l3Y5+tkXUg3hTwcFxQX
ughoZ5a+8Nfw+VEQB6FJG1Pb+AcAfLzlESlAERIqTxQa33RzHppiofa4QjR4x6K5
Dg18kr0z1Gl0WyWFjisL36dkrE7NfMkPKL8KfjHEcbhNBAtDUJHHrUhcreoV027G
PBKhY0fIByMABJtImRcsznOhluQyB+UeTgilmV6IlhURSnR4lEdaaVT4LUZjH8sN
9yRn6hMauX5yY384uD3sryu1le0namE508g9vMzyePcAHWQBqZJPIXhqrwY+QZ6o
QWV4ajUJzZCyXsDV8Hdm1Ei32137EGzRuOwdOI2pp3SYh/8cb7v+InkZBRcopsnb
J+kkftGdMPDYWuEqINapw+M0CJjszekLiYFPy6qG6vH0eL6smLVrZ3LCt7lNWmhg
7vOba7r9lAf16bsx/4GsHbpyYm6UbwUQy+UrIdWJCRClgmolh60Ca+2kD/wNJ07O
x3QdEIqAW7ei//xpnj4LD6PYZ4xb8/g4PhJInNDNebtOBmN8cZEZKhTNeqoOD2p0
OYC7Biydybu9SYm/xoqhi9M3M65NqsBppXMV1peUF/UKYM1ki0AVxyQH+vcmHYOW
K/CZ45z5ecWadsLVKfo4wgqhRnUZOmfrQvPsUk+qyB8D72+Z2ARHWTjT4hfaSxmo
8tPhhmJM8o9gxLyLs8lx+FKB5+MCtvgF/cEnuEyT3MlwPgLUqYnCWxGyi26ASUv3
s6cGLPDqzOoxee7dinrCSKT4qJ0poXlLCnYC/rplohW/1dtinlP1z4jONtF/32N1
pJQuMmkRaTYGS0dO2Ka6iiSQybTQNQoG0cfi4RdP69uJh0iXZxcy/S5KO1BhfeA3
YqomhUoVvL2Cra4yRbZYSvNRGUWJMIy9V5iXpur0hWsSq9lIv04Hj9fDTvWFSvsD
DZNk8/p8RLqzvvzoukvAD1rghJYyc/ELdYje30WFIOsF5C+qI/UqGcVJ2DFkZuj7
/Aszc+W27h4dsM1EbGdywifyQlsC6D7AS2c7grzZEuSNff2KKiOQJYA7S2J/IVnl
XU2HwnDjfNy8tvWx5es+4DWJR+D7HDJtUS4kFYozS+0Iy7tGXl7l38imQQ5HZa6j
wZYV4sGX1+Xi8rX9QrtAUu1bO2DZ4hxCCOsTWbkCDQRYCTm6ARAAwDtJucFFZ3e+
DlRq75LDtgYkp5Qo9ct2IGIzy/FIl627T8/L8Yd/YXQyMyY8Di9ekkB8f2w6PGqn
sjrlDBSLcCAY74mG18XhckMDvLim1r2mx1orBOvFkuVHwy6yE0cyBXf1fcOaavgO
ukSTGmId/brASVGaYA7fRj3/vFZh8BKE7BhCt5yMR9HWLIx5+wNJVMgDeACETCS/
str/cnjuGhNHfSCjHvE2HoPggOHRWn2C+d+JJoB/2EeF2/504jGc0ATqhs+P8375
UBVB3ZsRyK5cyV1MwWAumgY2HSIuDRYsHU2toK6oIoKUEWrrT1TBWznbegDIkeii
jpCmdYzBSjBlmzzkCJ3LLtZCKHDMROCEqxTkWqUL44JdD1KFOyKqUfWKFDrOsI4y
pJizcNY3nODjEWUja3UiMBWewH9QB8EfLX2PO28AYTTJEds2+1/nGYw6JRnAH8ij
TS388+NKL0ndHguU5QMcI9c1tbAnjleEHjxiAtYnwChyZ3g1ikY2wZQDJlBW+ytC
6OgS8enlEE+idU9wKGHYSe9Jxp5cRHNV3NRuc/OrXo5Icf9STgRJGYJqB+b1HQrW
U5xbS4nxS+fU7oP/Z1wr/WK7a6A3vCi48OdbkwlrJkT2YG0lNCwSNqRssvf40+wl
gxyFvEKGtF+L1jmXoxEhNxv2bP8jU6kAEQEAAYkERAQYAQIADwUCWAk5ugIbAgUJ
A8JnAAIpCRClgmolh60Ca8FdIAQZAQIABgUCWAk5ugAKCRDarPzHNfesYbroD/4t
yvkMFPmC3yZkrOAfj5zHYVHPRlk3wMVpMKJ4N5ET1Gz2fIMTQz9RmsXr6AWGbT6S
DPFcMKOzQXCWyljTak94uC8gvPgY9DQFixOKXRGOk7nCcZu/qUaMGgGW5nc0uABt
SvSKK6Vu4T9lJ8W9giTpl/Hu2zQ9jUFSnBFLnQU+3FY8wzLMN/EqkhmI7pSxuUpn
QhayBFu+RokXhkDVprPYKING7RT5mEomCosulb3GNmgBbwrSz8zeb0BJLcGEobvd
/eh51M/fENVbYX7W5DFX9uhXzVlTdtlr44IY93IfFFjjUrhgKDwvKTJwr5lW0YfW
sA97qPNTSu6DsZ4F0qP6tTEarqS2Jfdh8Ls5V0eVVi+BflOFqCnJPNtmDzc2hgZ0
663JRy8Rp8VbQMgxESyzq3w/ACEFbjR4kuVTQsQbKhKO3O/yB9uQRWfIrotyJ+XG
7aYj3SUnrUu8skrdiFVm9t7v+C6Azak8bDVN5I2HQ0yidC5FGKzGiWAOqUWwbZbh
91KaLRlMaiqDjXavQoSmp2jQgN5oWIikwCZztY2GT7pWE0Y7ThrZ7ekVoVCy5+Wd
xFG733C0pEzD1JAp13gIyUEK7v41niJhoQz1TVa8fp2hCpYop2cq33mFGtR24bLO
ZaRIC0pSyPwSS+P6wHIjPzEz6gm0jF4e2wDq7MER2Ip+D/4vWeOJ2M09yMvbLWS+
HSF2MWSklFMMGku0fNIlFC++ZNI7SaN7NvvO8y7qa2+I2ZWP0HKGVT91eSpVXCvh
eDTxdpdMfAawIY+DKQqzNWZyZNevEQhwd5QiSzJNRiTZopm/fxru09ZSjwqNYd4g
8wlS7ms8vBh5EyOfHY4CRfKRnKzQl66hwFv+aYmYwSKuj0KocOc+HpMlSkLEhvli
q7ZOhYGjF5HgtMXEt7UMr84LDdHksCXfQPKG1XnhN8Y6DON7jR/Yo5fmZ8WAqR+0
uWqipJsLsGv6Of/Tr3hSY+UjalW7k+JEzZAuc6TGVmwjfl9Z5IBF8oFW/fCxWRxu
v9rrbaJaU+tXcgwW4XRQ2jDAWyfVPBbM0oi8jZNy5dbPkLLZfXsFGyRurYLtbPRU
+hXE5MtExtbEnval+YMnCjdJxuUZkGI3NLubSYyDIe2zcIJ2fCqIRCfTu35SPgIw
0kAxgscTQiuSucUIUHF4kCsah/MSH4XWjHF80PvW6HPhHiz5KMK+FKIEnhEndA9n
PRHMWEaPlB5nt7KKTkBDBeQrz+aH9FOMBHdQiQkOS/NJL8eFNx58HjGBOiCn2MA5
AEWkFSwElV786HJOko8z0WsNAs4mV4fodvOHOLk9Jc/dt4d3E8CH1eL5aoAemuBB
DiOzPiXQHSh/1X261VbuJ7dRaLkCDQRYB4yzARAAz2V2DmnE7iRXG+HlvbLbQ685
e94zZvB40GOK+rrxAlA2EjbBD9CEPuHBA6nMibYK/fMjC9+MfTrCqVH1WIyaP21c
Vka3W8+NrtGDWcC3GDV+it3RFX1ZIVKQjUrwdGfE3eILafm3Gb1BRgqTrws7Ah3a
/uzMrfDgRcRXTfeqpZzVSAmNgBj9znvAGD4YeI8LV7zO5eUbUG2bZgLtaKHKHzXA
7vMrd+HciQB3dvzCFTSRUaXdFouMPR+5ljRfyIrzL0k+6UKjPwWoJVxNs5/kcqds
sZuvsxmc4xBBD28JocujHmekjYLw3bk5SvATs+JaC0sX59AC7pGEo1/eMYFceDGH
VQ4Bn+S8BxcLyFWmNaESq6yk33zKNql0mYBLAxMwbvlUjxooEfxZcvHZSxZaa4b5
rnp7Sq0aT14HMITbicxrtLFyqWaf5IHlgr0b5edp5abIa2MtUT1Yeo5ItxaSO1hL
a3GrXMq2Bgp2Hx0iXavKqbNkFRwkyqu1jQbecmaJL0UC1RqlLX/RAzJxYTMwBiKK
8FF5RFsVjo4JmCG5aB2GNxotnNMk+TDmjA8tvpGpwq1ZH5ZPJmxwFIyrREqLONpv
2ukXuv0vtFqh7iVPd8vjbemOxlGNs/DEvubtWQd2JDPW+iTGZ+5OA1Mj5zQcWvmL
02+Mu/BXHTxKOEdkX1MAEQEAAYkERAQYAQIADwUCWAeMswIbAgUJAAFRgAIpCRCl
gmolh60Ca8FdIAQZAQIABgUCWAeMswAKCRCKk6XHEP781D9rD/0XQ0zdS2qA1er1
Ki1oIqpkOgOGeTzbwoAXkzkzQrYEG5uN6Cdtx42YFBz1O7GFwHtj47+9wMEFKW66
43N+ig7uwgH5hPghxNI/+9IETkekm+p1w/ELJ3lxEFdfQVsIdqH+wIUVkUVIi/BV
ohZGbdk/BUSqK/fcTqnJ81rAF/2VyzdmBlF6o2279XoGF7Z1tkVA9Sj+yJq30WSC
UcOIXD8exhdijil4/F+qJp4qzRZCaxkGauV6q/zTGz2F8dKjMXYy9pHchDFzgPXk
4fEt37jemsCJMKH8vHibP/sfclvYKlXtZFlwYIUxDj/DG1l9sA8lr297tJ/CKELR
Mq+dEjK7dz6U5aScBuD3ipXZpCcooHkEnRqrIHOqLuqBelTcq8jhf/1wpeoYyCQg
baJXSarHq7/wgoybtffQXPA546yCmp+0AXjuQ9hH8RjST7BL74uTeNb7blArPuPW
zSipX2XXl9hFrlvfrFBWACgJ8nOCMfaKxGmwR3HPaIAvQoBlHwzN54w68oD1oyBZ
pvQH0jX0PSCSEV5LdxMSg2NqbFOQqU1ULNq9yhqyUBrDsLDlntsgde34ikTqRsng
Ytmm/BR6xOjaL2rLjaNI8Atl9iSksrexudWeRJWML+8UWOrSX8JfhdAyR0EuwcUB
O5C7Y3iG8S9LGi3kKBVqFmAfxf98eAS+EADQez/k+3ypj9R0ehn0vA4OlwtmLSOY
BJCLkcmSQzzoLITc0oC8zFi4lR/ejLl7xdw2GzVhws+I5QWI3T79BbWEAjX39r4E
IoP5a2bk7QFsMticHvXepE1Vdvqp7o41lz0h3QheYzOlDuNSMex9KBJUPoN/iiD+
Vwx2bbZDXIHDZu8Aq2TB7SWk0xRZ72U1xRAnn8X89+Uy540oJwRXm8UAWMrPz+ik
ZjHdedjHA+LRQE/R3DR3zpB+QkVtdB8zKtSVtwW4Gb37nOqkxJ8OnPdzJyco3+qt
eozRFU62nlZ7qx0xWzuUmSWag+9ZwD5BvdRTTVwfJuo9WTYn3LEKHXRGC8ZzYSbB
pkD5cyGuhQMHfOjxpO69gRaeOM04EUTsd4y1EJaV80jStPI68rV0A1Kv6IvGYEEC
JuRTKSZF1SuVsKAH8nVo2+9bhqVaPxpS78JLka1OsOxJTcUtMyQNx1tJwDodAp3A
OKh/WTeEoMIlUP4OSql73Rejs5ClcNxh/UZ/NdxbG/LLhOnluwruLTmHttu31b3w
WIKdNwd038Zt7lxS4w3WUHMa048raw7J2A9hAcTNdK2iA8/AlL/SSA5msfBxXXKs
r4ztbLr9h/JXL6f27vD80z2wR+NrbkrkcjU7Hva2RizcZ6KW7KdTjdIMIs+jqhdn
tQfch9ITv4gqa4kCHwQoAQIACQUCWAk5hAIdAwAKCRClgmolh60Ca/UHD/9YBcEs
T0KBIL9rjlfp8cLauGravu/+69D5jqoPro/TpabY9vP0mQ7AVUftktcDlf513rst
+3lCir7CUW7FbK/6qYmgWGU5JIbBcVtR0Z+bk5RiH1S00GqOmQjTWEzrgKrkxJ+Z
SiOT14dV6sS/elR/PCYXAVnqDnHns0wv5BzDCFOz8M6PEjGVDuyOOPyjoQmRV5Rn
gE6TW1b3u7wNN+m5if8IeUgU+V24ey/4p/4G7ac2udUlIKbwnzVGjMHXrJRqNNSB
usyX9rJYMT12hfdwnGa58p4uQFIv4LnFLvJKXQQIfKir3hNG1FwiovS+aM7hlhxD
Ckyebk/aRLJubhslnTjhSWu8MrmjqoC2GnCBWDEvq2z2G8f/dHhyhaWO4XFf+Ntc
erArqoFCwY+PAdEcECidHKKqbU2PJQF4+F/qb+iz8TRYx9RtK82b6oimzMohZew6
hTD6M1nF4RWd+G+T3MuBoAmIfcvPAqHNDB92gN/spoQZN00+KzKmEP2GMAKeMt9B
6KZ/4eFL0z2abB7vBDKSAaHp9vsJQEaXahJ9Hj9s8De5fgW3bn7LwWORHjf65C/t
VEKYhcybCvY+BuWzaZmwMXdEM9Ya6pmTcAEvyK+V2SZgKLFCCcpJ4YboPXUYMKtA
XYWYeeiq0v14Db/a5Kf9ktS3zm0/nzxejlwBtQ==
=G/YW
-----END PGP PUBLIC KEY BLOCK-----
