pub   rsa4096 2024-07-17 [SC]
      A97D833403A053CB015F7A51A6712C74F4876494
uid                      Madhavan Srinivasan <maddy@linux.ibm.com>
sub   rsa4096 2024-07-17 [E]
      08AEB17C13FA695AD06DECE49C40AA060EC51645

-----BEGIN PGP PUBLIC KEY BLOCK-----

mQINBGaXQmkBEADNwzmEXFc1sw0ejb2v7xJx+Nxk7cxFieRms2zqCgvccJ+gtn7n
1dJpPHHiq//Equ9vzTyN+wjaX+KysF3Wr3MbA6yyn29TSa++49vkXMKYRRq92csj
xx7ZThaCypl34N4YjfGZBfpEALh16EAZPQb/XcXr2I4n5JQ1SKmWV4r7IDWb9q4q
Z1oNJw5dWSPNITpNj2rEvj6xjAJ2SNwRC3n4YAvU0a6EKXyZam42IdA0io60xakJ
Z/JIKcMgxY3aLZdWmKPMIlHkP7gy9amT5Vewr3Xz71S6aOgbDmjmNLFofYD8eZwD
MXWzX0aDVedCktamafxWzV5pg9NCOGDIyOH0h7mjViiur6LQW3K+gXSU8aW20w28
PizBGXvSwlcf53EtXhDpT3jN1Du+5QXJNdreu/RvhN1u4siRAZ4kOHUZ/BwEfkiZ
wmcHOqy/Fj6IBJOc7uBrj6ZvL8Hy20XaoGZEG28ilI2MzLk2ksYXiiCLzbXfQ8K8
z09cnEF/6O3ADKWHV6omMAXFO4Wf7yL2VFc2aI1/6vDC0H9zodOJXBSRIIthzckl
5IAwrrTLVyXrA7PbrsdJkm3uPMV1L1CIi5vy6ZIrMEOw4/Q8gU/9iiY0uPoQ9fZo
405MSABlrcPu8axhqiOZOue+z+HsFgIzQFOEawTGmMZef3aUVZMFAX61tQARAQAB
tClNYWRoYXZhbiBTcmluaXZhc2FuIDxtYWRkeUBsaW51eC5pYm0uY29tPokCUQQT
AQgAOxYhBKl9gzQDoFPLAV96UaZxLHT0h2SUBQJml0JpAhsDBQsJCAcCAiICBhUK
CQgLAgQWAgMBAh4HAheAAAoJEKZxLHT0h2SUfVkP/2/3JV6UGzEWkK61L1yXcYVJ
hWZc3HPj4chp3hv1Myu2fio6070RpxaFp8IND1uEnkFrgTfHC/erXA6xCQ3OVdto
aeJeiWDVKCeJ9hCrrlqe79pQ6CW4xO9UOWSsQMsa4D5le3Wo77QYfUpxbrwdHyn1
eXLv+WsXtugH/kTwXrzguGWlBMHZWH42JHFfyxEgtexbas6kIB9eovwKSd2AWUz5
M4keaxipij97gTvpwmITFyUqw3kXqBCY6kVbIwVCKZQRzQfk5WNEKD8hu1g14BUO
1ftbUmMYf5gE2v8q6tI3cnoVE//ip/cUXALMpTEIUjSKjf2EflxPrsLh72vR2pQ+
QuqhrPi1H10A+zotIw6uxvEgX70odl58VLrMCXnM/a8zC4bm6fMcB8rl/HsG7E87
/Y0IDw3jDUQfsL5Q3F6dwN8dBEY4irEimn+I2+Fdsqz/E7cn5wuMZQXATxiYZMU6
9OdyRZmB+vAUxMFcqsIXaY0KeIpGKMrZ7HxKfx7H/tMRp8m+4dMOmHPM/QLQNZpf
ysLbSWjKFxrmqA/5FbDKYeZRUVVAzwl6r0B99kRL7fOaFdk0prekF1hgz85Jxicy
WjxY1i437j69xq214Y4UCjURybFk9lmqw19ISV3ETLPKjgqbTxYpAHNm0OJHToXx
4miHtkP991BcdmEV1vjtiQIzBBABCgAdFiEEJggaTOpYzL8IDzDFi8+9e/4E6rcF
AmanvwEACgkQi8+9e/4E6re4thAAl6ZEB1HLfGicemPIkip6uEaygd9mf4aYR3Oj
Sd4KGw19x/um0lkZBIrIfcvmPqYCd9BAQGRTeGRlYVHTIaBOTSumeUO7DyMXhCF/
X4FQP6lJjd8URIduAQkrv1gqWlNBvPGl1zLOqbnXtIeaAwYX/cMcvQyrZRx76Elv
am3yrQgUhPxNNorfAZNVQEkcn3dZSfX0Czu+9s11P9C73NHoCKooHVe2WN9nDpR1
M9T1Dk548WwT7Kcii+MqousyIQ6CA1CEVNNOgRijGWbdiiCKBBhBsI/Wvpq8M80M
/HBeBegW8L+48L/Qx2SZQUurL8tJKcO5a1riX8HWzqGJlKzCC03hYwCqxYLb4oFD
xjorVNd2v+A1ObK1EV7qmfxPTsHKEBp0P/jGmoswLslZKGzcazwPjygw3EuNVuHc
JhxbIZ6e/IJDvqoO++HEkQefv23LsEsDKARfA57asLVcRWuxwxvVVVkAzHzPNzA3
yEZL+t5maXaAW1vRLfF+0krh09ohaiHlwIigw2fAX+E6w5KAZ8TUdZPjTPoEGgTX
FOsWOQxMiD3vdMiN3K4z4o8FCbRPpWEtZZY9FRQPqT9RqeFKjWxpX+MpWqUjC/K6
1JY/aGZyNmQukLeUnvXYdkXH7i3h8eLrZpDsX7Xv1JB5EI753Vz28etfiSmj44Km
y4Zau/aJAjMEEAEIAB0WIQReG+JyurdFbX9m2JXZ2YADsGC5LQUCZqpeCQAKCRDZ
2YADsGC5Lb99EACgV0+apY7KqG+8wzNxpBKIbtIQD2kvTq4xIE+imw+/Zgv+VEXW
qCD9yKNcIDilfeoUTFWJi6HJoEv+D4ZC/iMRc1r672E9AafjXRqwnJVDrenh6ZGK
MqMsfuvnuRME7BLXzWqpwwxAc/DiS0YRrEJtD0/UjSQGEm9BUHn4a002AB5DEJ26
3Gr+YpX3GvprHHrvc3cAhHEPpGkzxJBJ+XXt4lARHZXG8dBI59orAO8V7s2s4kH5
0cmqYMRNMfwGGriI8BlHq6nEKN9jl19lSvCWvCLP4l8tWktNiGbHVvtyLOnzrJIW
BKaR17NgTgqtN652lyuS48rK2fGjgJMznQTVqhCRymigG5CdReN6CDnm2UG+k2LA
ErAe1nkmkeOxiChLN5RKCHEC6EVhPm/lbqaSevev/2JL9KNhaaJcCfOYrQdaFXQY
7GG58Wf7fkRHb9aoWbvtKb951w85RfAIYKGHeympjK/lIm1UAo/IuO2GQT0mYnOh
MB2Jq9z0JYfNOtVN4qNv7x+anc7aWT7tOWw9iuy0dhQLCEstl6n09w5F0ksQZrdf
tjyG3n1K9U8Zo4a/NR0msJSnVPhQqAR0zdWODJs1bBeQfKUp6+KITt6N6meCPtfM
qpgr/MS5ua1lnC84OVwEl+NFrfrB4NPXAoHprWOmx3GRM7iVc3bGCVQJKIkCMwQQ
AQgAHRYhBP4jQoy9gdyPOkgEeyMCa0+6tpG5BQJmq4dGAAoJECMCa0+6tpG5ETkP
/jMhlD7PHFmPPOo+p3w3+eW6FJrEx+OQHP5JfwyC47sEurok94w4WK3DeJ8t0tca
8uo4OQmWoe2XSCqlBdqjPULku1nB5fF/GHQh7EjHVRc3XS58NdfVGmNd+jeqbvNB
xeu+mtyPwX1U4ENn+lERX2QxyczqUw03/1I0bC/6ZEcMtujMiUr0q1OhuAOErAFA
xhXgUrkiR4vZUyq+hXxjPQdUQoDfQPJgB77KkJfl3DqM7Hefxg/2Mi7l9h9813Mj
58jNvu6vX9sej8jet9iJAIXRZ0aqXQG9eRuZvy33zV0qjYzhn/AFJSmLG8/BCb+I
uv5ZJJHTRjP8g3Q/Ur05YaF3uCG7p2mEMATPprrx5uGESqCVy8DX/Sj1B3j9ESu/
YLA4X07spMx1xBNEnK5dWYrLcVejxBXptmEXJUdcBiexw+Z8/iyyKVyAkv8N2VUc
psLbg/RGnng0dLHI74a2gYieErf13HeTgmCtIAnnxDe2QI5W4i66ZPZ3qIjav844
COn2Noi7Vz+nCCKlArfL4KVWGRMV7DZutH/HSxN7YwgyryvY9jZz83TNoR/dGIu1
Lp0+00D4ZGYibpGa7AzAZHC9NNI82vt3/22nBvqoE2fRfhGkGgYjZUyLl6Vk7hyi
O22ZB1bpDuuZb+fn2sfB2jwL3hudrmpL9o1GhnH2KjVhiQIzBBABCAAdFiEEJFGt
CPCthwEv2Y/bUevqPMjhpYAFAmariMEACgkQUevqPMjhpYBQ/A//US/BE+t/ND5j
GSxfo5RnMmesco2GfeR/33coZuOJCw/J76baWF0rxdYcMBM/vomfWMQDa15JR/tJ
5DJ0XxK4F8IO3V4j5yeEDYDKOIkxpmrl5J+X2F4rVpNSEhTjRNSc4aoMhpHyqt8f
XLpjMwPgckCuV7s8L8GT27j4vZfq/6NMxVADhBsJ/7WoKgWz2tjOayKCwdgE+Qq1
K3wD4g1o1ixSqVHDtaBWY6RH6bUV1391envSpn7CfanNkBg8UczCxunhjIs0Jb8J
/qxA3PzYBK0vEMtWqWCwtbBU7+LoAbhgT+UAGs6p9zLvzEZ67czzbOxZ9ywZS6Br
CL5544CnE66dkB8Ao8azRrnEZcxoBE3Rka6ccd2AOo8rPbLwn0PquEtMR0MKUfkX
0SafcTx/itDDTJKWRtETnekhlENILiO3BynOHTIZjMKK06fl9aRmd8tslGZSY3Ua
2Oypbxnhgjhmx81uV1cFyd8tA47zzqQo6CJx4DM1qEPgiowv90bRU5qyJt7iOSh6
XWpPFG2gE6FZPqAXjVjf1E1UmMEZ8V7Bg7vWAhN9jW0/6Wt3qvZLG+WBoSyc9xLK
70yb7mUQkwbdpu7yOb1wxTjT1/siig9Se7Fa5auPgl55IFzOKzIAWh9TwkbOWqa8
RPVqPqKMG0UL4uzzPHjZM6wRlFONdQeJAjcEEwEIACEWIQTUHKPtWzAnXPWgGwVa
0kIRwGDRyAUCZqtcmgMFATwACgkQWtJCEcBg0cho6Q//V1oqfB7RvaATPFO0AvwT
qU1ZaWNyZ+SBnzzyeo6RyL//T4OkizpyliZAo031i9Xtb7PWu7Slq9DqiMIquEjV
iYxOyxAmq+RnYOWGNbeF0v26S23q3FmOJjnXrmWZ7hb1rDNiBLTORnCDkN038b7K
8XISkBk64q9V8mnX+GAJiD2xNs9RpdqSurDyVuCcqX6EXxBssT+p193lO+aE8Bi8
WteJo6DkL6KrB17FGm9bru9Wqp9YPAbue+zPBgcQzwADJn2sXblpUJeUHxeEQp7I
OTfyh8R9PcBb+K5UVdRxAhcCSEW8FXs5u5ntXx+nO73ewYT6XJLZEpmATZZTg5cd
/KSPRkmRVhChxaKnTVJkO+xmOtLzo79W77g+A3t3nVu9mAAl8Sl20j+lB9zM+wyR
GrGPAaHdm29rQEam+etNZ8rF7OSRXc5G+mS4ut5TAf2Fe5hIW8o+QNGRNSGlg8NL
Q3fzLAWMpeONkOhbHSM8PgpiQNpYf4k/bF43fBP+uoOKNGCjsIYDt7+QwFS6MrNB
07U5KpLLEMllNudrygqqiBRmaT1yeOgqwXp9y7MN+C/OCVMo1d0mySpt3xbO53Qb
k3H+wWGI+a26QbcoLEx8JMikFZQrEybIFhh67rYoInJ7JbeSjVFrMSFdDgTA1Mwd
wDgtFXKLAq9+tiKzcT6YRgO5Ag0EZpdCaQEQANmie8j71WBmqDO1JoRHAwf60nRU
KF91b0dlnCbcW6aSuHSE2AL996Mmv+5munVohR18XfokzG30fo0WLLzuUksPUqRz
gNK8yzVIlUnLj6j58+vvKIqz7PBLU+ss5Ihph4pyd9C3UfX8eoN/OKta6YTVtrwI
AsOcRVKXPxs3I0M6R7W3o98XkYEzn7ebrZ8ymTl73MKcd+jMAs0bzhQOzbwEW6do
dw97IZLftK5pETPXC/ZeF8/B2MuYfpGfe2gkhpICQkMghAPgsWU1ZbgYc6vQ3VkW
OlyFrQReP16fV3ZzcCwjrhziVZbXTGliCL7EvWtqwD5iZHm5Pfr9/o27mfkQuXax
Q3ak76NjHvPhYO8bAf3WDr6gTUqokVoMO5HwrkXQo4hz/TsTIjpNFMRmsw0Xa0JT
GYBvzAUq6tcPzHMsumPfx9sPOlF5k1r2hXLHDZMMYAP6FhPYeG4wj06Y9+jC9f9m
Yi7s4WSR+WuH2YtHU4PouUQl4cssXs8RZn/O76kQ1url7EpUrsI2Q9hyDCp8+qlu
CZDnDBl0d1qv80b55PcCs+qi64CciAv4coAkhrZxXsabxdP8dSAq1x9tMIUt3+O+
gs0dgMbMc09s/7HFAs58EfgdacCI8D/xERZPtMkZr7porlFKAYgp8MF4DiFDJMrZ
lj5AistiT4t7/xAjABEBAAGJAjYEGAEIACAWIQSpfYM0A6BTywFfelGmcSx09Idk
lAUCZpdCaQIbDAAKCRCmcSx09IdklEsxEADE9h3RwGKgpEf4oXA7YCYSLGNZiKNO
1ta85yE2LqaDwZn1DCrCSKMP74s+R6+yk6mVyu1BrBq6Hi6oLYcax/imjmQWvg8q
VfIOE3B0CwAarEA7PVDo3ZXwaoiow0DEsxUHfsIF4Eod7RQXrH4tMayM6xUSuIJX
1Yo3Ur5Ib7swlRMROM6jaRyHJwLry+j7Vq0AaLKx1J5fda5FAmb54QUhIVJONVB+
Tf3JEv99nxhHa9W/dRR5p0xOjq0hQVksRjdYyTtFYsGJ8lOJTZMuxcHQStjN/7/u
dhYdPf5y5NLPPQbaQOKfOdcR5mGFdKOTskbySAq6jqsSDU7k9PcrllUPn7rZ7ycA
K6QJbVtmUSWkZH+ytAZtxOhN10gnJvc2hXwhuKJ/MFr7zRLgTBNsZsf/cSMlVijz
VBB5+F98b2luOTfdtPOBV6SymYG9e4RAEEywvjjDs6FPW+yIsYVArmH6LsDzmQB6
n6Rb2pnaQtzbRcpZzMA2D41gJ/NuvlyPjg/0FGmp6D3y7+1yKuMsQk9gf4QSL6ON
35ezJqGPYeT71yNywzbskduF9VGpJuFE4L4SW6n3jGZoqYT1EJX8bqWnjRnBE1Jg
O+IAcAMWNX7kyxg/9/WT3yYHDYvzS1/S5ghw+KYLHGragxUMTlGvh8Q0DKVmBOUK
N7CQLGriqwIoMg==
=jlFd
-----END PGP PUBLIC KEY BLOCK-----
