pub   rsa4096 2019-04-04 [SC]
      335E4594831BE7295B84FC9EAFB5236C34710DD3
uid                      Baolin Wang <baolin.wang7@gmail.com>
uid                      Baolin Wang <baolin.wang@linaro.org>
uid                      Baolin Wang <baolin.wang@unisoc.com>
sub   rsa4096 2019-04-04 [E]
      F31B8B7CED3141CC159587E2563A6A8FC8050A5E

-----BEGIN PGP PUBLIC KEY BLOCK-----

mQINBFylxJABEAC/weBZqBPtWcCzRYDbaDpr9T4sBnt3w3f0e74R9aHWws/td86q
rv/WC8yJEO4RKvSLgU/kWqfkwQ6xSY5ZowSGXYotO5ixfB7tnto1JKvdWnmP1CbU
3WGeSEuxHQMHNniRfZIZUtZrs9H1VzmVeTAPHwL7hLQ98wakxFqyVXlXTiH1cKwm
5XgUe2ip3e/9hJkw4qIWUKRGaxqOQpj7BA0pDIvMV5uA6cgoLR+LVV8aQDscNu9l
VtZgiVDl/TIyKOJ31fgOOx04gxIEoUTazCQ7qXCt02I2f45f+qkchkOVoaNOcMnQ
YeWMq0HNwvZztPHmEfcBx++pZfsTXjuLOyVF+8xxrP4b+zF3j6nBTPGIXxc2XS0i
kLH6RLYzl/YRjhsgu9tygEHEccdLznYr36vTYf5wcwTuahq01QQEAsFVUbWDcJYw
HkR8MXsTAciztsPv7UKooKkHbX+Dcns3dILOCZoce7/FbS6bMRJm2Pos4aK4Jy0N
NSs9O68stToxPMl9btEFuJfDtcVYfMGdNv1FU0bCL0zKhZHCgRDirobhHCqr17vz
ruhMHKy/OW6B4fkKGRFJT9tqQKVsM8yM3RpR3fKwi8s0fTNQ5ty+Vntqq/BfqTDa
qAqy4UUYDQp3BCHdde/ivvOxc9J0fNqqQH4peZLk5nlC53vd6UU5j7TogQARAQAB
tCRCYW9saW4gV2FuZyA8YmFvbGluLndhbmc3QGdtYWlsLmNvbT6JAjgEEwECACIF
AlznjL8CGwMGCwkIBwMCBhUIAgkKCwQWAgMBAh4BAheAAAoJEK+1I2w0cQ3TL/4Q
AJhJmw9+Svqe5m5gbfVMIoReXNeFerYJPkd3iR1yLPWkeXDUxBRLo9HpIkezWygX
vTRIJsI5IDwmjdAPbRDekittczn2vucwrMZbI7Kec3TBIdnv5BBMrUxGsEuueBso
vcbn9HvYEZnZIqMyp1BMFD6w+Oj6bupLD62P9a3MBtBiv8ARxfQu893KzK7aOBAm
3p01H042EmujkZ/9kkgbICrhuWRw5jBcTDhLXnVExmNh0qnIATk5WEyS+Euv/g7b
FE+dVggzacwvE93KCYsx/q6iw6eKWrtr24TL2hy1hQZCLlsYdc+VkP++djEyD3/M
xmpiQ+fnIvjTyeDYKYcecM+Qlcjryva/tv2fZUEqH6JeG2FLsFRvuLzOz+6gI/0+
uyBgf5GSOmY3TYV5VUh2jByRnDYCo/EDpaq/sX+88FKN6Dd/FY8gkLSF9T+Wzs4I
7ovnTXmeDNraRhPmI+VHIzyvxGjm5ewSqrfPF57AP240RwjRRUZVesl+V2XOuLOx
Oscgv+lx07p5A/1hlI8GF/FO5uZ3PkgpjfQxHrdBFGXnZcYSIe+3YPblUhadacX3
zh1wrvt3+Ep/AP/0Y3yIHVlSP7T08pyGDNH6rQuZ9KqWhBNR2TQqUdOfgS+ERPfD
65wuFsYMj4qgXy6mdS3402Sf6b0H+Ff7x+BKRR6YSJNutCRCYW9saW4gV2FuZyA8
YmFvbGluLndhbmdAbGluYXJvLm9yZz6JAhwEEAECAAYFAlyl3xcACgkQgNDMCsbY
FmNhtA/+J9jPVjs00b3d7jhMD+VJIqF/mjBiuFjrDnLGrFFgq54ao80ls+dIiEZF
2/tiL46AZr6Vg7w57GfvAOmh8d/9SAZ1UDNMwXhJHIvj4zfwNjBuYWmPV7yPJKw1
JhomQoL38XPxNAOJn4XfUklGUCdmmBxHckR82c/atqZWHtsOgXUg9reZu2wgr3CZ
43JYZsbbAzfs29G6EGysytQLNVWgvJ/RiJEqkDk1hWyOS2UHLU+TzSFcZwaCOuHy
yXRcEex8/dbLdDs5kQreq4BWf36iINfz4c30qLtm0K5HvNoz9t8ncHxN9vEtyBa9
IQ1BdoWyfSCVqrtYbtI8F8ldADkKqTrrPjbrZUzLel8rQvzZXU1DN3NsYAW+m7kz
Pcb8W55H0+DTwjpD5leM824ZN1ME+yV4hr/JQ/7CBfgIYkD9FEO7NawY2ilyr3j1
uK/19UMSSzuk1Mcp2zh55aJvU945kshg0/KDPv8i364+OiRYqIdLNqNxi+r4Lqd2
yYGGIHCUQfPgnTYFFg6zSlJLmxzMIUgSmfcmmVKIpTBopiMU2PiN8UBr9LVk4yi7
OZ+TxU9fK39UyMwoFk15UDaiXThPYY9CichQKDsBVapoKmvEmjpRMMPJ09YPxwDY
cLMUxgi29NJPhpScu1pjoEAciECAOM41v4Mo5sejpLGLMh4SQrSJAjkEEwECACMF
AlylxJACGwMHCwkIBwMCAQYVCAIJCgsEFgIDAQIeAQIXgAAKCRCvtSNsNHEN08h4
D/0bwlEGu4CXrP9z9Ie8yrfUxGRU5L2m/guz7W8bqLxeht11JwVpWPHIEfnUe+kW
fI8/ytGVDuoHJmAvgdnCYH604atrQhK2Seos0TyL7QArVM0yeWj4TghmZ2vtfteG
4/DAPatUkSjLitJFn59u1xeiSe8nL37/9nCoJhTBen2pHEmIVCFYock3YOBM8K0i
OETN0SQWWkOkqUj2YV2SFtJFoN3Ex+96JxmQf4i6pBGUp4Hiq4Tqknp/8uEVNYSH
Wyns3SH8XCMuhXtnaCXhYIpmzIrlsKHLLOVrM3SAfWldnMHJKue0IzhLaJ5sJqOo
X3wIKTu0vSRVKlS55/ylW3xgQ4X0M6bPBtOiXQRSwPk0OHEqdLRv4Qy1NoqmO+OM
5jfXnfdRjRuJJHwHIFisyfXgEqGo6/izqnU2Bx6BV+BKdWoJmRy5W4FhVetUl39e
wz9TmMICGtT5nwH9srRh0KMLFlvZpxzRVoqD/kUrFZDSZDT2lmRh0WsEYoVkFNzY
LftmUxSi65FzqoxMlKKUVF+xu+doaw7Yt2csqTE+Etg6BNiGl4zc7yR16Zz8xGHe
5gc9hfpy00CYQeN9j2JBt8826cf/9PQn7tML5a7W9aTS8CdSPu3Ds2SczwIIONrG
4oPSWClNR/+qqgK0+yITzo4FWefDROn5DKL6AVpvn6iZq4kCHAQQAQIABgUCXKrX
hAAKCRDSuRw8roESHLK9D/wJyCJ+uKiAMBjqYN8tTsMyomDgMF7kAPonw+PnptHq
F/S2KqjiEFtGCsq9jHBiZOujvJkVi9GhmA5XuQion1sD5Hgaxo7t5IYOCggYf69C
0mtFTUxC6/gilcOzdLzTDGsLTTJb13JarVFqig3178WIdn3zgJbn31/N0Z6KdqfM
6k/bOPVPzzCAjIUmikL+N0QaMYRPZ9diheD7wHXrW3UDD+hR8sef0f8Y+vl1tvjF
RTxPMsQZv9+EYgQhUEgRJIs9kK5flsU/dUn1Uh237SVzM6AHVEveaWyc/o7k+tXC
EoKtdvpyF2C96Mn+CZxWhvmdxI7ipAVFqWurfpM3h5u3TJXZ8g8BqjJ4yv+Jx6Zx
O8gZhNlAwSGwoSjv1gxJ4MeY33pqIvYdmlRSWK1XT2kHJ4f7DxsdHEsp76uK1KdM
tQzLQyWDE94mCYbZeiS/NPZRHzasDVPotTJPhAtl2VN72F1y/KYvhsbVvkzW6v/m
KVKQ4xqicJ+Dk+UJuKyQW0QVo4GkpGu3Z8nCReutgLJ/NXXpG3tDR5eIj+yXunBS
Svl/0szYyTNID6jdG2dlpyIzbDnd7N7W1QMJ/znbFNFgQI+LRqy6lTSVbyA1SZPn
yBcTGlLdb/YbcSftVoiBHUwaZPjupQoAEl+kWODFhCqEQcp4Ml2iEe1psbCU6nh3
vrQkQmFvbGluIFdhbmcgPGJhb2xpbi53YW5nQHVuaXNvYy5jb20+iQIcBBABAgAG
BQJcpd8SAAoJEIDQzArG2BZjekIQAMSPf56Lo6iTUn7vseonSgWPibgMHW+ZVwXo
TfGBevnbUoSlcq9VwdA6/pUUDpVjf8E0yJo1lYVq1S70rXC5al1p6jg03URZlYge
8gPEXwsb+BgotSPLXjTpmGvSmbbsnVIxTyGXhonxTBrTlBTybJ35Iha3rJ0EcKXG
bT22kRiS+DtqpC8Is7bhTUaQjOim0x1WXTXxHmrBsNNWXQ0YmHBfaLkn2v5MoXIk
w77G5EFR12Yc3xNY2uGiRXI3cPsqsHDsUmr+NG/zT0yki/wo9LYOZToafFQM93ac
6UfrZ9ATtqKrA+KVjU8HLmIFTXaEWYNKrgS87ECWQcLu+e8Mab+RJncCH/8Lwns+
B8Lxug2xKNbTzh1ssmy1tXBg7FrxCxBo+wd7OhvQlChav4IuXc6wWrwTLVIxkSX3
NiiyE9zGCpawyMqdz+GZV0iaFxoDsAHv7ipAT8KSHSwpnw6OsVkayoxDN5O4cjLC
N8JADetJzt6Qpufhtv9kTn21rfEvyZvxO5wMa/VnM3IB6DzOWwkpq71+/OYP6QWi
UE+hDL8ycHu9K63YpOaZwLkq0iGJNkDLE9P+rpHIO+TSVDwsPP+z498awkCyGg+e
upcpF5CHOPoXcT2lK01h+0Gb79vdcBpfMKEta+qFCek9kP0cpSTDlFvRa3oWBqgL
ug8CqmB2iQI5BBMBAgAjBQJcpceJAhsDBwsJCAcDAgEGFQgCCQoLBBYCAwECHgEC
F4AACgkQr7UjbDRxDdP1og/+J+Rjf7Lb9asviegdqswWF4raRcS1oq0iIX7DLAPl
wwnZbfgIh+y6RQ0oowVirzmR7tz89RS8I9mdnWMO9TKbvDkiJdvl9qPnHR6mlZA2
GjxNjeJi3UtInY2nLwSx5yHHlQx/DH+PdShRIctpFXmcXWNQ2BmcicEVHvRpueyE
UZv2F0gdFHW7aKtBlQEkJsp1r9GrCTMANKyfW0QwESyH4H52pbhfSIgKZG7gKunt
ktOOcQOZyRadU/zao3jEFwTIhqRC+1kUQsv8WUgNHCW5y5j49YJuaGpUixdImcsR
Ju2flsuNvRU52uklfB/Uq46HiSbqe0Z9+dDjESmj7SUtBATasgZoa1BLw9edgOoj
M51LYNyg3BjdUi6Vd78l04HiSfMQnGpHY8rrDoCNDJUUFeuMRnXfa/rszt3BxtUU
s2s8ij5JimxE8naJ+z0A/bpY+SGTYrHO6maRj22Kfvk+NKNak+nHfGULv7qDg797
B+f6oGSH8FfYIeOsK351Tsja8Bw+pTBIuiIbzXNaqy5XeN0+MY7ZkJVxj5Q4L1Vy
kcq6XuiCqYSRYTuTKT3l1fHhKG0etkfmHHy0mBkmokHGysRlFASkm0NTpfm73fSP
8+nJxx3egL6GvBF+wCjmPnvfyzhqDb/R5YnxcUF3tHRUFKOoUqnUpJw2ORl7I5Jq
m8OJAhwEEAECAAYFAlyq14QACgkQ0rkcPK6BEhxMmxAAp2k2Qu0uYfBeCFE8HKml
HOrComVQtiS0JbaXiDo9/0BZ12wLbWzWrFdt5YGWQVda6g3NmKn4rBxfD0tySZu4
Z00NgI09ZWYctlQs/JMKiXCn1HszjyfzT7C7b+vVLhyGwrSnYCOQeqdVA588GCwR
DGo8L6vxjzQOiDs8fVNJHrkK1W3V5b/X3SkhB/HytExo0V6ofgPB4vsTQh60Gx0t
rFRbFI6MNnO4HDDSC+m/xAYEOEonmCLf7tHm40kFCQxVJ7pZpweRXQjXlb+XRFf5
6alYpENk96x2CvhXIc4udcfHesVUHdQ+ULbjrpV/EU4MFAuh/AhdxelP+kL5rReY
o2PJaAmRYm22qrdZnPNK3zoK8ku2PE4cnpcDL7c3ta5hfpQ7cVXFlj4Vb5R279a1
ppC/OE6Piq+lZm2KftQHoGVVIJDoEhmTEmnOMXIYUoYzTu2FSafXHPEb8zK3XBgU
EHEJgENa46ACKjr6KZTHmlTwR64fI2gUPUfnhubqmj8cZ32PTaJ0FU6Ect1pS7Kg
Rvj/a72hg8/HWWRzs/8DI2PweSe5bOL2MRi7bY2EN1D/RZkua5ZsX0NaOfKK+g6J
z5iBfwjyLOnsypJW+DUL7E8g7uphyGjqjeaNW1oKcaNYillakYdA/Uf4IoMZe2CI
x6gfalDC61mdUaxfbUF7gcW5Ag0EXKXEkAEQALCHk75+3IhKpAurvb1kpZOSaeny
km+vIdZa/zVnqBYwHk4a3PtXyqEENooh1Ojnl+/el+ScNfKEEdDCNoHCiTsl8C3t
lkUhGU+9IJSSnmuwM/FfPB9JADrwNgiVDv9rRke9KNCXEOyb8Ap9Gl474uHsRsSX
sSRkMM/fEvKbgIFXJyGwzTZK9BgHRqA4wMM7dM3Kcq1kRq46fxvHZpaz9VUkiEwD
GQNbcqqKP8bsk+ChT1bSBevYNwlFhM3e2XLfGEarVizzuhPLqzIfLf4eupXOpW4h
/uo4s5O4RX45eXmKXkNAak+pdpnxiI3mkTk7EBm11+skUwzgfdlfmiMeLxYjnNIi
8pA0lxCvLllh675L3csrMdixYMjltrCgsvZb2qyfm+xtG2ZK+wZQtwWLTIDqLJzu
lkLqXQPdvch3C+zEv2HpAUyKyI0lDkFoaNytspkujFBTNAAAyxpqfmPvQ7nQeO91
qOCxsfhhQQL/OafkD5uGrF6qUcWWItkdkKEX1LZCXd+zvFMz+cdegAKaqCNbz2PZ
2RdlVB+qLlNp8c06YaJHCMRytWoHer4OjOiJRemUo4qLYcivUsZ5F5t/CnpHdnOe
a3yWWMHQPa6yCCFyDhml+b0vEkTPbh31yVDr6KJcey3YlNAkvPSJjMnfOih7moSE
bGfp+ZUAXJr7yIivABEBAAGJAh8EGAECAAkFAlylxJACGwwACgkQr7UjbDRxDdPC
ug/+ILM1kycTNziGoOP4r/20TiFF6R+kxmBZE+xn9Z2crEO53S+CnRFk7Lq9IWO2
1pGawMBBhvIX+ROe0fSyX9tfEJN9hXZ2S/0cUjkOg2if7C1FVelqjgy6Aqm09fKF
1iJ0a5jFQefjLbzO3FnjJ1NNIcPEpW4vQ1ZtMXmYsn9ZH2Rx1YFkQ8SxYMFWdS4B
BhNJLne6UU34/lCS02VgJPFwpKSBmLbkIzknLIpuqIKomsf1Z9Ch7kRCRRXzpZ49
v2kj5lqFkAYd2PQUjNKQO8w0+8OldzheboBmYm7xowbzhVHqWO9B9Wh8Uk3aG1gf
9ErdE6JXlh3mgM65oG6SYQLQDO4VxvEw6IBMD9nYBP6IXPSuOkA8k7dkClXUJN98
ZfIu6vf8o4icHv0nyzGYeuHF12oPLbfik7PYKQpUGUa26I1vO2chDR2gelkWDaPS
/ijPamQPbX+5/8bcKD4HeCTLzHHjF47L7FXx1fIhhKoZA17sSV3PLf8RBWbT1OPg
ZYhr9P17JoCGi3bakI9qkovnJ9aq5GEoZcnphIg3YtvCPLjAc41DLxUmOB5lTDF+
jQCbM3ZRcJ5LIYbjjamZ4GzGF+o2UOsTFQhQrpbnb5iOAeFEGMlhVvnmLPob/BAS
sYlYC5w97D4Ta+N77ITNpEaPmaCq2XJPtNj9kCWdOjGfJsA=
=aq0N
-----END PGP PUBLIC KEY BLOCK-----
