pub   rsa4096 2011-10-03 [SC]
      696B764B990326A0306500DBB2E894C953448A0C
uid                      Ohad Ben-Cohen <ohad@wizery.com>
sub   rsa4096 2011-10-03 [E]
      ADB9FCCD10162616C16B1DC82B3F669D130C9452

-----BEGIN PGP PUBLIC KEY BLOCK-----

mQINBE6JnXMBEADnRV33dqsXanfLctagX7quvW0WgXFNk7YA4zLgdVs/9ASokUEP
hkBwnF5nnupFnd8MIshzD/wyaCayTTY9b+YQXq4F1JPZpCW1ce6l8p5I0ifH7GQn
wxVGGuJ3gPm5hcFGQ3cknm4af468+G99pM2SPEfYEFvsDpKODwQHabjxXIAuagAz
h/ztaPkqGBCT0l/b2Fl2M6R6KTqKnKedjAVkWMIIsK+KYajGYk5awHbpe5evcGRq
sB74i8wTjvjseNZVFcJVXNSZsBWZr/D/C+hozJeIZjZeML676d/E7JuTZYQqIpJi
ojlaQfDzdbaaX+wrTNZBBOg9m+NWPP8jb/PLdSoWZdOGaR07LJXTP3jdNvTgBnhE
rW4z+UHbuxoteRroPGPAfLfIcfUnjD+KPCCCQVrUECgkPRaNooVa+xO3BMKbw6f1
Z+URmE5gjelkwCIRsOiUlT3zwtP2irJvRewLk9Wo0Qe9hlYE2OG2QKrJ/ii8oFeN
Fgkt18Yw2zBKhJDcEZdhgH/1v+mn+kZGJ7CtvRp3Zvzyo7+6jE/8LBcNNjFxVjUM
dYE3W8/r3jQc0AGxu7hdafgVOpeeJTbRPwITLqDR08/EnTIo0eS6HDnTPysLaP9x
bcIpmV6jF2zAQQVASBDO7YsaD8OTNvQLk9a6JxJCD3jBucYwuloX7aM+fQARAQAB
tCBPaGFkIEJlbi1Db2hlbiA8b2hhZEB3aXplcnkuY29tPokCHAQQAQIABgUCTom9
8gAKCRChR5yiGjzF+todD/9Ip+geU5fzyjSba92TsyPSb7ql0yNuUVEUKb7OnStz
vvsSMXCjcXem1x8RHjtc8rUFTqXBhiWWp2L2s/tMo5z3dBOgXf6XTrZyvhcl0wMN
6RQJ73Qz26Xwwv9Vo8orEy0+LDpj7rVfzjCLtStIzXLcJkY9DdazclQyIhR4aIz6
kKilf7YqaDzgaLbQUw5z6ToTvMkpJg/SmnqtRvmTxEsvJDfWQOMKczGcpuSzSO0b
Ma6aK86ijzfAX7cEiwk2emtSZ/7Fwl3cb/jzBtf2knzb4CiigJzwBI264uVri1Gr
LrNSZq5p4JuGk7Kgg2RIxUvXgZLkz97EcGocCjljapitYJEHhjsWOTuY0ylR1sbm
/xcQuVD7KHzCgrp3+1oNgPCH8POj3coJCZsVpVY2Z3NakIjBnH7zgsXY/CK+i4O3
nOeI3B66gsY+E8Gq95LkxQ+CVwh79BreoMZTlZs5Fzv7lo12H1tYqqSwckQH4eH/
03d4lqRT48WAqxpUfQuRhO+7KxvL2PPJAmswmhGDr4PnzHmQGt9umXtITesU5obx
kCYnIayXo38iN4No73sSEoH0v9z2GA6NtKgoH8skmD7ljyNbJm3wRJWEGTu7Pua9
cAsTUx0BBtTj/NLKRUVRSPZWzzbTaMeh3s/D9ETq7ThUiZvt9IPhIjvZ3gRyjfAW
G4kCHAQQAQIABgUCTpQjugAKCRCyk0JKQXMUlxfmD/9C4ZIr0f+LcTPcQpCp/g53
Dq69D+Jc5nr/bhQjE6Vf2hDUXLoM0bqGZL2dcmAaWy1QetdHAbs8pYe6vowyEoMC
Gr0EjPAOT8xfGhIKNGbbHJJEz3F4ZEBTRyYceVxqsMg68ir6OwLE5fgOPpLxo5SM
qqIIjY3KqT21svp9++DZJLETevLrY7K3faoLPjgQGgB4dTWzCJHqCtsj2AbuoDkM
egdOupwt0BsO8tvIHxKMjcZ9U4sApBayFXk/korpYXdbl7diM+98N9KxHdPZTX07
cVhSVLsbxdX7mVqpP7iYA7UwEIEYhN3gcGnV0w8vB0d70diQsLQeeekOvA+djOfq
zuFJIbmdCkUgSUny7sa53otd0lJsf8LhseZc/0IcZJZYMK+YE3fAJYSn8W4pol5Y
Q0s/ra3Gxy2iOwtmF2EYM/3eQ1iwgXcpX6javPBJWdX6/lqpvRQmec6ve14U5N4/
ZaL5vURfeJJfrX8BxvtsXahQ9WvJXCsJ7J0V6Z6z1/VNBc7xQj9g0j/Ng0B3IUUC
5s8tqzc2wh19+Z8gL8ASRbi5QX1bWqGpjNJZvrJg2XllMsDJHqkeONb9H4caK5Bt
Bkkn2jRcF6TmGkgM7nCcc8VYz0jt5tHpPUWL1CPeGdT9SqhhZ91p2+ytnGlRNs7g
QpkplGA1GwOe+SFUO3geXokCHAQQAQIABgUCTpQ4XgAKCRCO8hA3lMrMZYjIEACO
fyfVgCmAqmK+M54qQBsrDB7lJ98Lv96iAIWnkiv9YYg0SitILwiHjZKCnC7P6NJD
7cscq24GPkJJhfWwgmEMHApAiunUFu7q6fbCKct+2mIgsGoUXN6LVmGwSfZv9qCj
8vq8wxnl6CXXLybxREnsfCqYCVOJ5W1fEQ+PTbtEnNxnFWpJRpfPhpz9uo3IFhRl
ELqY8jRxutxY0ZqxfDVkwD01PL+1bmXAd2G54DIYbTipUDloROI4bxA/0Y7S7EJm
CeYZKyrCVFUw3R9Qv8TlaPOIwG0rYBYTbiNoupLL9X/UG7ni6Nk7PGxfqmT1NXi6
QKJKaF+5KRsR1nMGNHsm24qkBiXd9wKAzkNSbKr/tKV9MTVpaVOSE66eZw33K2VQ
NvGAE6kYZXsOZnuAK9BjtXIbAh1FwpJ76M8K3AQYTuCjmrokyyYeaof6FeL77w30
lOQNwDZx0XV6C8dBX/xOLfiALGoF+U8WmjhwppNgSkBiVFjxh/i2pbpRCb22m96v
T1qy9YLjRQttTnUzyRx/zsEn+Y+op/fNHVuITnI5zAYjWNMqw1nved4msQuIo6V2
BpjOVmRh/ScTT0Hrnx+h8PZEj7ulyVXOgutzovVXqXc7wHVi94TTtRgSENHrDE9n
u/FROhDs5KQp3ZnYn8xV3ji0GspWDcDdm05hrEmggYkCHAQQAQIABgUCTqVmFAAK
CRCtW+CQxq8idYslD/9hL2kL/pDGe6PvMX15wAYgyo5zNkHEn3W42qiPvCAGFi0V
uSdnKeoVPYxP2FxExsivY83fcR0/d0hPKX28yHS32l/rTm26oyp5+Xtolu/cz9pX
nHLHyawXV4K4M5KDAKucAfrZZuorxys1mMclMHr3bNjo57iGmpwb7Avm0xuXkKa8
aTLC6yah49IGay4cQ7r70GqTJzbNLpcpCBfS/fNNF2SXABycP7fYNoiSurBGSWMF
FIL6Ur+r4ZXYB00VZpIyqhzZAa+nSlJuNHI2I+wBBJkq28/JjnkHFWBV5KFwUAgq
4Kt+DXXA25XQdITIAFjuT4Bbms5MUS9buvmBUm7hGUh7UFQgtBDzBaxsmTSGnLGH
/k30BotOHk7MYsU7DHnsSWbRGVj+VRFVgO9FzrYCjifOAKv3TtisrwOcp8BHkkjS
L1Yw+Jsz2/06w9W/WTus19+S5fRb/J9CrHSS/vGssShKtq1gfeAgYU7G+kRR4zNZ
VeP+N/yV4hECVDie2ZA9PqEkmZM+wGkynmx9NzLvzXCU/zV1m8mWquo3pSdF6ROD
lBBPuGaDHubsCR3DpbDKU65Vj2o9SCrFqdgUkiZc9dHeXltN2BEVlcb6EidiIPHM
77NvrsuGymw/QKP+ToPdtfFrzTIkjHOmSXLHEiVQZkS7jqGB6BrF6asF2kqTOIkC
HAQQAQIABgUCTqbM+AAKCRDq48FeWTEX9lAoEACtfrEKFsW6T4XAfW9wuJyeCB2k
rJb8jhkmawNFQXw51FiRsFHrqLbyDr6TnbFrJLR9lIJG0GVFDLpf45NPKTWxz52o
+W3G8rCmzVLhjZ36T72Umla01aZ+1XT7BsP3GbgrgLmxVwdk4MJgPNcE4Pj6VH1V
pIFm4pY578uY/wcJ2rvP4zBQhWUL/Pw4XpMkKloW9YImFC2/O7iZ03p8T5Av3Zhd
p0VAMu/G2jEWfLBnwrEM+d0bzSkcTAoinZMNXzugtyHBXd5QVgOS05lzK6oaIaOA
V8BXR8SwToWa5heqpo/lBWox/uQ4cqmb+xVe3hO6/Y3LH8xCMursvmiR4lf25qZm
L5K7Gwgwd81siXoHuZ6mgSB9h4eeMaWKORu9bte2+sO452zuut3N12NhiVLyzZey
t3aKbDt7WzssiKVtEM6dk8TqnhwwO3tiQ6dNR/TatQ1S/9PRZAERXbU/2C3hXT2I
q4Lte/E/C75NUWOp0V1JuEPtJpBHXZ79LAyqsSI2em8KwNoEIMSWTmQN4prWRMYm
oOIyNv5+tYgAHEFOpJ0qllzPF4E0qvGR9c6G95hORqDhObNJm46DNGmS4oHXh28a
MuooGIz+JWVVYAZaWGLBnXNImHWNKypFmI083RP28PJmWbWmVSVh4PSyuFean2Zk
Rdh1q+0zpsSI0dx/e4kCHAQQAQIABgUCTqcXsQAKCRCY5dzIFke3Kr4gD/927FHt
m3eZPneDa9oXL0FR2HPW1K4V095DDtrwGITvFpBACYWKj7ejHPZYj3jNsDgwHUXF
cAwOY7YAJj8YjGNbrFriAEQG9mKuzt8teIniSk/irw4mzQcWheeqoFvtG8mqGkiE
ClG6wwnUjK0DJ4Rcmwf5gTByU5JD/koeTlm9Pqi0lqK6Px7MLvFZsU/VMjrUV07P
sdYJ526I8Or2wRYCQCMUsSgvO5RDYjjUK+JCZAF0dbx2zM4HlYmG6axi8ehUJrfY
u5QcwTozgEIi/IRE43ET0WZYPZFSIqgiufGCPwUaR3zA9BukYIOUO1NfSE+g23u9
TtYNQ4i7AWX0ROMCutdmV+maLeMgDyHWzWI9eWjXLNZO6watIPvCaBssf+2m3Ru3
xujyGZc55ZQ5fJYpfyhK2SEX2UrICS5IB3M11P9p3km5ZDjaGg6hwFhFP4cAgoRd
JywBUSn/i0+RVOUz6NrCaYCHdfGVZSDJyxevH3mvjAV1WuMTXUu/6cfLUg4wpqhh
u2WTtG3lQcyPMUixp4J3l/l4FUtIpq3qk5D+RlzORBAI68tj0r9ggl9Rj8VxMCHA
kyLUOAetyDzewppFIQk++QBel5nH29jN9EwH/TOllvUgDTdS3JEqe98IJEvXohWz
51u3Nbh28g8NgFmwdfzdjlrnZcaiGMJbQA6TrIkCHAQQAQIABgUCTqcZ2wAKCRBz
QWGe0zcWDBSmEACCVhwRgiZ8Ez+EZxAuNoAcIg5Jw9lPllUfml1WBpkFvF2W43iD
ZwJvZtZJ7W/+xF7IBMxeSUVUpV9EgA66lFCH9Uu8fIedV+utvCHzGA9MLjnV9bsp
1UX3rr7PTr7cjjCIoAvDx0nLUdVpxEST6VjqcrsVv//Ae0NRLYnB7rGXGVY2d+M2
kz4sCoElSsBQuJZFntMO76JmwdLyGVCIoYJfNcCJEI6lH3d5ru+WY3KOmJo7rx2G
QknCbzy9GbpBftXBaqqeBmesBSNkazwuG5p1MjWznoRVdCu4XBYVjebOpdckAgZJ
5XiAMRypMFc2ZcQqRMXKr59gXeW1RkJDyyWWPzLgwEnk1/q/BKsEHB1jpnBUUgEG
ln5+u4efUVANtAc3qd06ZpP0QVtIjODNXnsAp8c+vJ6uyk1sQx5I2zATXNk3AcSa
NZPt4VqoIK+YHiFqDJdXvVz3EODnssFvGQdIxnUoZJ7oec/lK/tWAl5gUSWw2mgY
Ecsk5xMTn7C8k2LjhA6fDswNX5MOw8Jz062V54bCRPT6e0dNF1l4sICkrnqF//Ay
HVvEyjZSOEKjXvrl4qgY606AHPUjLl2eBuY30pfwwjwKri9F0qkEimpfCp/QzRY/
CGMSIUwnjgrjsVWj1M2qAZxP5ZOtvPVZ5GskF2W1rtGGKDyTAyKgHiPpRIkCHAQQ
AQIABgUCTqcdJQAKCRD7t1drp8sLaxyZD/48m6Uc3qTI9OBQktYv4TyweXXMCAR8
MpNHku6uqetKc+iGgQINHrKdKpYVrnG+JrFJmlclVjTkTaXU2IxioTpbXvF35vEv
M2JpejQcqEvFvWGIP5AinG92riihy7FAiRjn/8KAWz/pTKKNDA5AfnKk8PTV2WIl
P0cwLbTfOp9K57jXGO2SuG4JBDog8XuWN2dbwBbEUEzmThfXvbn16R4sARw7e9uM
/Wq1O7/nccnwuIZy9t6CjLrkr+EHNnmRPgdFaHgDl0Au9Zls0SgSUctlulFu+EWC
tFl4S+BRJwfy9i+JAossYCQXLuCRlW417mtSE2BHaA3iJpFRjjtjZXkIg6sQ7EJF
iJbDnHmyoAjgltreuXAzeZ9Kt671PAF0sjewA/Dw9Ro/2MSG18mGj5Pe6/+4g/sA
x5+4VmyuCXxMn/7jAST8xL+jm+F2Xdvuaj5QXPNvgusOWq8qGCxfdVfxLBUvkg8N
fm3oI9XdLJW01Ml97quNbbnGC3L1/B7ME9MopD0gvpPWiCrV5Bk2XZGcDWeWbfHK
PqQhtCia+4mN5IYWz4LEppmlX5gLiQvXjtDsKi5N3uoAjYubg4vmQmU33Z6hTyfH
+rZLNxao4m3onPEvdWtL96PaCDP+ik0SfPjXoZbnDZsBH+Z6/bXGzvIjbEQEqElw
b1dMyaL8UppIPYkCHAQQAQIABgUCTqcuzAAKCRAup2ucK0ZtnRvFD/48DYlgC0Ky
Tf+AMA4cH+WGY6XlPWeH3UkfL9hYHemrD79DgcFFQFlJccZfeE/cazaD8diSE5bQ
vldbtLDGSKjm3q7JGwrpLbZ8UsC3m+pICVvsHBG72b3pJZuKvJDp8JhOiLtxzAI5
hFvrHtd0b9xsp55tR3rmY0vpch91vX6gcPV8BBZW/0sJLtSOP5nUgVPLC21ulTVB
Sw9Bp+npOCltvjxF+PqG7c5OORfR1EWeLgdK2kL9fAx2RKPharzqK+/GWD6hh8ne
i2P78uXTGvRcomMROt+3el0sFn+kcqeUFcvmbXt++TANk6cpjawJqPP769NmPkvU
r1RdkHoGvqWLqCHDBDjZ5rgszY3kyi6wCc+XPiOSAnEH0eQ62zatjTT1cnSB1bAr
tSH4OuVQIFa3ub4rcIUopLKTZuHoCyyqr2M7RDCZpuajC0tlhegkFlfunZXnNSzY
eT94BwAyn+Im9ojGB8QXWu5vATbXTVMu/GF5IVrk+1JRrw5wrNZsuLoO5rKs8a+D
Pw0DFzjP9CE0ttU7j9cvRTBhnLdyPfi95Ucb2I9nhVNU6rU0KVAVBioxaJP7Okd2
Tc1AhL+Hh7q9woTLRkIZ07tm9FWa5HcGp/0YOHT06HTuRSdmcK4YAcD7nzUhq1ej
FGHw7WK2LjjgOFFbJ++KDLmJ4HzNBM59nokCHAQQAQIABgUCTqdctgAKCRAc5QqT
CBi6nKrWEACDKztahIkUOl8C3oV1CNgUaVrQHY3nZ+UwDIDMrwjdxRfKVQQGf3dY
LNDP9sjC73VCKzHNNHpvcavbU5MEjva2Jmdf7Etn8vh11+8RjRhRetDRm05Qqx9K
7rX825QQAFIurTl3mKg2Tpfs/OKWBNuFMEUYApCLkVnoVi2s1nijp4Q/mDvphccS
92uPCXGp4zPozZ3ywcXYD36x62r5Qcg1rKzf2S0yGmsrE0oeaW+HvthhcuoB6qbe
zq5fzZdt7bpxXREOfHORuzOvOPqed21SybXdNKi7I8m3QIf7wegdhj0CU40egu4i
WlBUQ64NyF7Vij+ncvbcDYj9RykYnlBfXfO45iS+HimwYbELlZqRg2QtS2w59LEa
RMzk5d7oNpIQ4MbeMWA8yk2XKzuooUyPO9iKJ2oY2QEIbRXeDHGK0mBcJBYNjLUr
QqqE3H56dLmrS7KiH1193h3sY3+D59yjcNpwjGX5bMPb/kieUhLoi1CjNXFIcyUg
8QmRbrljqJ1IA8eHV/p1K4T+yL6jgbCxq+Yubx9NgQ+n1ecwg7APoLJmRIxOxxFD
fBa0Z9ZUzcAnpuiINjV6m0sh0EQvOO2+lHvcBTse54CUpToz0M0+2zQ66Azh6AjZ
keB2NDs6KvFhIYO/wgOWj1wJ5J3NWUjwJYTi+xACjqclUQYTa+kz84kCHAQQAQIA
BgUCTqfeFAAKCRC9JbEEBrRwSXG9D/9hutOfP56b9HRkRQNqZqgG3MEka+zIsU7r
zj5p/HdXRe0zbHI5ul4zOcrfZFNNLUaQ5arOXu4qw4EZuZzk7dd2R34zO5pTvOMP
45axfj8BzDwXEUS0dwML/QtKUudZnBUr42Ru+yqceMa70zbDr6Tx1HqFvKrKG2GF
5LugjxuqMAFw64ZLfBpk++GLaZanwIYSrweLNtOBEz+THpJcp4nP3MJ8CtH+uwx8
RGqa23U02wUsqA0okvzMqSGplpKQG9+zL7/DFA07qOmrL74o5ADJ/bWpW2/hx8gD
WyX603lk5zVkEx/89kvTIbQVFx6kVuACfiiS9FOANp/D75Adgb11Grlh0rqBbHe8
KxREEe1L8P8O2aRqRQE26XX4Yj24qERS97rooG7qmx8JdoD4sYGUXnYDvI356UMY
LL/4cmaHRtsqYydqzwI1cbvUMvryYObRGET3n3RMO6VcyKLj12xg0sd71rW42Aoi
YjMU95TM3DHTI0q7/vQJc2ZoEWoY2owNjHahVW6BE7wiWMS0nYl3W0iD2ZWoBjlT
+2fmK0wK8xAZzDFajqh2reQfBWfug0ydqDEX9i9tKC0dCcyTguVXFBi7jr4EjA0s
UNYrEYebM1owjRvVfff1+HssXdPGu8iGyh7lUUV4NR7KYNxGnPL28WCVEQt7zw4F
ZxpUJeqEXIkCHAQQAQIABgUCTqjjTgAKCRDHj7ENC70qSzysD/9mwgLUVnKQ1O1m
PjXmWGQZyO61rabtzVB4JfUmsUaW1VVWTGT7w3z/oqpGqzpvOgOSKPp52mL+EnNS
RX3ffUEfJueqslvJj/0lcVvup0Oouo9vDjSmRnkttl6E7OV87VLMqR14JlwxNZy1
qKjvLsTT+Vzt/uv4bI7hQULCqlPF/pGVpT2jBi5oUuwR2BGXVEfB7ElW2hViGVdT
Y8YSQiALOTucpQFr2WfEUEb8HkRlCrVcOxgsdXaW8+7FCAN9KNpksBjzxOnYX0ZE
66baqF9MJUngMgbHLNUrkFq9/RdZGwfSc0Qw1zOs8UMtiSno1WYgT2zSo5P/uQff
08KINqcRSLXfUesUtBMqc0VNJ6T9BkFpYLz0phopj/VSLVBy6aXIcAXlhjlX2Kcf
4mzC7j5TuFM4Tk/1Ly2O1LFgEaJpe+fYSAlV7pmwR2c+G3OxAH6dkgoIo7/W6qsX
Xx8Xbk9sp7mgYCwFepqO6fMy80FZOl/R3B6w3ZBNHOe1nUkSBcW+G7RzvnOI41RM
auq/EskGD8jmjo22kFUrq1ejPkr6SfD/ghooeZFqLhc4WCkSSE8ZfRDs+WnKvdD5
4D/LTg6n/40TABIUxCFkNNKK08sj8Rsoix0qU7C5ZPINFnUkqW/NeCtHeyDY1xmb
aZkOD79uOaGU+Jjg0OUqvOX8Z078kYkCHAQQAQIABgUCTqkfJQAKCRAb1D7JXKul
c7E1D/9bBtaa2A4E24x2n1orYHrGk9EuN/QantiZOTMblFigIkx6dawZw9b/zP9i
7qSIXxYGqKKq01heEV5bOhM9vd+cjTcdw/gjg2jAJ6HSZGsVDw74ZSdkdIu3YS+4
VjTdhw/IddVhkWWZFIb4AgZ+K0v2vRcXIuNWUfU5y7Mhv1Hp7PgEvKoPm94pmp7o
ErDkJy+7uPTDCHrvCICOlFvhSUNkQRNNlAnXxCPMoT1Rdn6KegKcfxVNfXzRv1xY
rMNOF6Upv+02G8HtkjTsHsEiFV8G3aN9q7CeBH2yEaJ5XRJjPJHgVpAnSYtuK3zL
c5ugs4i8ZDvp2jOAMG6sYGFpY7bvxTUOAa/4wrwS3mopwGXyoL1PLrDQ8fSU79Yn
NffRl1aKy+wQTtvvZA6+d6/lmpp7d3ch74Y1s4XNB00Cx7k4AC13qzQIXecoRuVf
Wsib2XJAixamkcyUJMrlwOF+v3y9w9cFW8LfkKrUj+RomPb5CwyDVYqM2lmI7QlL
Kqg34liQbjzUwsUDWk6o6Ko4U0TZVQFtxOgXfK9adx83FPHyn/xgwQ5RGW3mL9hi
fy1U22+BpY8tohLLq155j615kHS9eU/sZ9hRsv3z8xLpRXOXsay0foReJ3NIgRKi
X0vp/HZR/c0XWlp5yivm+pcMTjNaUoPDipJApKCf+GdKjqGa84kCHAQQAQIABgUC
Tql8pAAKCRBsMYBUPSkppEgvEAC0GWCGnVgCHY467im3Hu+EnrE9UWFTxWi7S93C
PMYnHCShv1QDgaSfMo2P27R90SdAZ5nuTXTf1CqtH0KARfwxJCiXxoaCsnU0uTC2
bLwTyiw4tXEPWfsGDGM/hbYVUWGlV/0phM6FLln0QESFT8ahUbflSOuh5w/x4oA6
fnm5pmYobFa72gQmuXW2ko8WwCckikXuK+WTEtVHmvXQG0T70HeGj/nyzSjhoFzG
z5jPOG59bqs/RXpPoT4eH65jOPjM+yrrXPw2m05PNbSZILHXSPZcMSlLjdt0LCHu
rAHTE4CATnWAdRReVslIukj8ma2YgmNIqfWVrFDWlztFMWG/onp0SUz5J8khGq+N
1Si/B0SoNwJai2pMv7H8Lg5WboQj4ew1SwK0Fq8ukCWcYSR7ivW0NmI4f1DZvZnh
/KGFcD/bHXOmn6jXdO42F7irYoukZUVG1oTzqJS7GT38ewKVmfb7W2Iu83vGjW1m
NgrNcYX0TypXlVU+cj28/QR6CwhCTJ4zq8m/1knFzmWqLCUawo6DJotlG9r5C2p0
Rg9poMWuPHVUNUKBvrulZmlF0UgZ0iznlNcWCvlLMxtvWR246Pk8XS4VXOM5+f7A
uBwOE+3PbZdkj6UQh+Mw6rjESyvI6pIhuUNjAl7ID6zbTu0W++bLkbSW8hOAw0Td
THMub4kCHAQQAQIABgUCTqxPxQAKCRD7Nz1F+LNtKJAmD/wLcScwsJ9If5olxP0D
j7Eh4fp6bOGndYnyefwRm9D/p/yVGxKv83PXnslalhTx+NI61K5xgQN813ZFwlbs
cpd2UGkK1/S1Hrs3m8ucogu6xMZ9etSLEGBUb4+jTbu5OoHNZjFEyGca0wKJH4Tg
K3sd1XBl+JHDXn/B9VSKH4v4Fz/I95FKKqAZH2lipVeUPUz8za2afdTDGD+9yaf/
bq7+ANmARDkCUEDjn5o6+/XVOXCP+gvEGiDtFyeyDSBmf/yQxByWnAK6j9+jrP3A
0mhFp/eaRU5ztzyRgTmbFn9cvEn6gEEMUr06CJGyoLcVF1LbMgdm3p2d+U4JDITu
1OICNvb1/gEWkuEN5f0gg7wKIkIBZmwIP2ac8wpuakuYQFvIruYWytBPdkWjjlSs
FXu98xCtsjYqMV6paeP1fExWoET1vS/a2JO7lNnU9AvlwWOFrKhWs05BeH2woh8p
+KFglUgffsocFg7N4Sl9h7WaKyzCfmGGsCDbiGrhMeIdVhl7JJQ2+eSYpOo+yNw8
y3kg1jSr3d2lp07S0zw+Wh9CscrKfqyzdnFlWOh1CLphBPIUEVYNBmdehKXlS5II
TvRIBvXtD2kS3+vDKQct+D2ax+No4Z7PK8IvBnsnvL82dseR/KL7vXeiG9aKUVf8
lSuQsq9q5dAyzQyrds4Tr9frHYkCHAQQAQIABgUCTq1SGAAKCRB7lugWKoz10b6x
EACv8XizYw3AUVQ84i8Z6MUTkPtyV1l+XnwsV5yJZu5bczoAvVPkka7CnqleHWKT
tfh1faOqg2JejHEF9L+jD8wczgi0vgYtcdRJXChI6DjdmQWScrizDnf5dt/5a44y
8yl4EXV8ziDpR0GJzHhCzHf/frd2h/2aMOL3WcUCCjeqfYmV/bexz65sp32HwrqJ
jL0dyWSTB1TpEYOIZOsAqxjE/VnubdnSk24yTB0mvhs1TcFfEY4I19mvTA2DNU+S
l27Z9YwFVfHGe/sxIDrNrbdsvLBm2xmq6Y4dt+cR8zDCuFTLwCddPU5RyUJ9qIon
qoeeQGZq36Vo36V5OJioSC5FgzZItGVIaR4EXd3VVz77N3N42tXT+Lbhj7Vy8v6C
6xkOC9S0GD1ec9rLfg3RPNOOneYrWLp4EWtC7Azi2TtbCo9tOL/wYINspxYX+5Mr
xne1KnNcq6rbhrRqVrTGO5oe5mLvVkuRh7iOpMrTpIm9xeHnZ7A9DOnTMWmr/l3s
eyEMH9Ci4UhQyCcNHVAIvXOpGFEm3t+SQ5H0G2flVmKzToay5+R/CnrppJp8nyhj
5jHN+UTD3eIz9LTIkLM7d06slS3qgujrYEIxYENCAUHAnep66qIJbahxikvSaNTN
eM5RjO0Hh83q74rxY6uAB8SHT3qwiH4WdtcAJuWEPHxfRIkCHAQQAQIABgUCTq1x
MAAKCRAr8EQtlwEa4ysHD/9AfPQCzIXlvl17EhUf6YSvarzH4wWzHRFBMxt5WtB/
jCGWCJ5jPmV/+JMmLeFZ4JPvKWu0PK8vueYDq7vvV0bZJQWAcL1pMfOX/aybx/12
hIim4+chT3A7nDt6pizmcH2Dj/PwSCLKxjJDeLcCcm9fhjD4R24jrs1UPspfX/2P
7SIfnkjUS4BJtSusJXS4fQGuhweneqENAUVtobyssU21VMHU7QIZk6j9Q8OKtR5Q
ukv85C9Q7wuSsljK1Tx7IV2MuyNuIQjW8ikUMDxGe32f5+mV++bVfBmGF9nQd/YK
Ji16foate4e8gmT6MlbvFL+YRdxL4J4xRcplgjLVKhmvM5xatRvAk4D2IQrIYRpw
P4fTDFrrzC3rw9IN/kIHTEtJz1O0wxvIOl5D3rHbLbpZtUZ99VT+gKQpi7ZU3HTo
CuT1QPNoh6MWvE9YoierDTgizNEerP9Q1D/dpNKcoFQ6w7CobyWxDN2ca593o45m
U6pS7qDR2096rPz5yrG4Jjo1HMbI/Du2aDDJOvGBfTUvQLdJvFlwqXtXFt9DUVoT
ge8t06NRk/CUh0EUwOdWynLyDiDpX7Lc60T3VUbaIJjCZ2ARZJdoMEZEMQqk73BR
CFsHwp0EoNlD/1/hDeZ2Mua3sWtLl7mhuGi4iAUKEo2ZCnF9F3xqvk86mvPjtE2U
fokCHAQQAQIABgUCTrGjPgAKCRCXLVv03GE4BvnrD/9UlfUxclwtEBq7nSZGS81T
YDWxTFO3kHssNrYB4P6ojhLRLCsr+SREaCZQ1qW7pHpbxK/AMR4Syg510X8rStXO
DceLBcdRzRVZ4+wniNJhAnDsMKQ5runWVoVeVBH7jClEe/MlkLQ1tN1/uaB/rnEG
hTJfaMXypHVZeGq8qv3O+F26T30MSoJDUrL1+bxg47P3gIq5wazoeWw5H/v1/dpp
JiAMVXZdfNnmyFp9BTVmYGbibgjhSqJll8+ANl85J0xI+bIPe6RTp6NffJ1UKROS
VZGakFT1yESlCo9tqLwWJANI1uXo3p1uXkNWM3bAV+Qu+dOhQstqStLL8NG68SoM
1K0DBzFoWvaVktfINwCWK2NrHx+qdqmVPA5jpa1hOD9HyGa4Urf2M6CwFKV2tf2q
Z3tqRV6UF/lWnxDhY5XVCjjz3oER45OFqTeTgQiM+Zj32D05lz+SMmPhPgfHn1ia
MqMIig6Kyt+uQgr0NlRVCOOH70Ypwx4S09rIIyLb+vKICcBRJ+mq7NviRRLHlq+C
ANpi5GJJMyrj4GGX4Yrh7Jyo9QShGCydmGNTagfWBuMJjqNy0UResMwXNRWo2P56
rTOxwMrNqufpdN8mzODGAA+7BfUVXpQ/PR/eUxU+eKP3OKr/2d8NQUeUhrymSnSe
sElSv1O8ITkgh5k9gS1KlIkCHAQQAQIABgUCTrHKVAAKCRBZNxia0/vGZbuGD/9A
Zh3hboaLQEEzfBiLk+b3slnbCeGtM332wrLMDRakZ1EMrw3bYjmZOSYVkiztYh2J
j4YNhzUuDH4PTDUmtgH0ZOuYmsezEiWDGxsXeGVyCDHkt/9qAdvhYUK9bIUIW9OW
ZPUV3IfL9p4cAJYi/Nb/fpstyJUo1SeW6PVOD09aUoS3ePtyjTZjCjvZB3RVH3ed
Ke0/UASKuxggHxnOCyFd7RpAlRLI2/IUag9PBoX1IacfP/AAoMgijd+ZbmdwCFuF
c2mncayz1qpvBLpBN2xi+sDQzVUJxhKopTtBRRZn+mDbhoKgMEtfnGwoLeg+1DLi
vCOezY5VKj/y9KjV5VBKQpStmcD74eYI56gd4QC8Awcdv32Omb30GEntf9cneozL
L1veJ4OcIoRQyaQCnY4Xh+/Do5J2i/cjbCarcLHQaOO1tSKoysY1GQmFBcfmWmX9
NSq4b0+W3XeaqpmTwJH+dRCBxpD3gOo3uhKdo9MSPUb6TJbIUps3e/lET8pWrNGQ
aZcaAxqNIeZqfRv5I53K4mRItVRWVliMQP//a4sNOKXLtRXY//iFG357AQ1pj5sT
DZpjaMDR+HlV9YC6s5MxuDGWLcY+s8on0X+SYbG0XpJnLFnF7y0rIgBOrOmhd/wV
96ZPzoe7XjNBs3qn2VZRyWhqAXbxQxgsgKS9z4Ih34kCHAQQAQIABgUCTrwLdgAK
CRA4273IYJJpPh1pD/9JVBOYq68/e9R7uwJloV1j3LfF7aCKCmQpMlKtXREblI2c
aOytX7nRU3mLSx0HyyUysw7REIyTWpBUr86L/GsRrdvQzv8vKrO56rSdE3t6Lz1x
C/+ZLxlFW0fudXttvfFSIf0SEyinOV5BQAV/P3uBzYoWQanXLhBHmSUAD2zr7tOM
j1iibw8+zxTRhGqwvyWUh+UdB7ehKYu41dgILM9Q8myMqJknXPiqNtqEwylI/KLv
YxQEfqxisqwIqzj538XgVRixMVtyAYC4kRurf5EXfnK7D39Pf21jYjRj/cQg0dAZ
yNexEtvpfeC6KObKl1JODgheUiopHn1s4SXp7EgDB9VQpBSl/rAHI+jKjZPVPszY
bm0LPoVgK9Qu1h1OJgdUQxii1eQRNCFWk78zqkAbLZuRaOWqMR/GQ9zli6Vgjf76
i7/0KR0nYOncd/rwmS05MDD6kW8y5F/cf6n+WaFKS3oL77DRt5EVe6tOdUeSqtD9
gNJ5B4M6jW4x/b8/qjDJ+9SJnIoxopFArvh1vKMd693r/W1H6gpZ3HCe/OcOuKi6
YIv1wz4GAI9e1//rCsGtZdUezfxAyalObjxFmj67n1flZBm0Jr1BM+0Ipa8wamTT
bcU0C4BWS9BYE4Xj5JCGzowHs2T+MB7ReGrQHSK72KxLSFpL+ZVdnsgiRqfDJokC
HAQQAQIABgUCTt2wpwAKCRDTb3abwRgE8CHGD/9tvW73vRf4YCSq/uhdj4ZguQ8c
MixaJZXhAS3H6GakAdr+uyiyIHoItOTGALjHjuELEY/SG9yVDrYOZ67SQcGN6l0R
TTPp14d5LpFINhScn3LN/OpKg9p4GqJ4rdO4tjr7Uj+36gGD+f6T//qRVGb7Uzkj
0CTt/3NFZFdQiv8a+DU9FtDVmNMG6S4kc+hDCXvwL3FjtM21vhlQozblY4xcb91G
r+wfZDDwBYdcO9v30cyO04C6Nje/PmFRg4UJ090o/0AKW4m0zUronvwLpe2eQ/9F
G2oF91M+6BLFUfAgXDfj7Y4nQeAIiS/nsCgALK/MLds5LDZnxBFvzzvKLOa1k8q3
DlPRxAJrkK+PZsGw93nQAqTX+cJ7lCecu636wR6INRBhqwD+kutk+IiBXOvQixJP
GnRmcmMfrDSyI9byN9XYzSWD/X6x2Jo9AmlBzNrdK7jTRojPHyFFR1EqrnlQRejO
iLiYcKIW1kCuzSgKfS7lTk7hq2MxQFmo30Yz56pYLgR7TKdGNfmZRuzuZJ9azaVt
sRSOiD4sl1kRhlMUWSRdM4UsHUDGhPMKe4Mg3nAyvuzZJLhXuoO57mmnNcazDmvx
xHHKBkp0aU2Z5D2bbClSgW+s1LPUJIsEoPJiJQSREzBgeQrgmAoj3x+GLnrFB8uK
n7tSX740t4NFG4eowYkCHAQQAQIABgUCTwn80AAKCRBgq0f/yQlSJ9caD/9U4UK7
XidcqPyWD4YcLb+0BmeXFMcjr6tMkitsPE4PSVvzMBSwU/FKI94nt989PvWhi747
n2kbewfYDJIzcaLpHccbtSY0nU4hxTugSi5jsvuzk5AFaDutKJPc62h6FWEjaYqT
DXCgrDhRK763KIiAl3/jTiz2jdyh6xOI5+pBjGf6An4/KNEFzwPpuJknX56aFin6
Bbulh1fCG/SFGGXUziTWZBVbqLvXCns+2l7RSAcd78S9NEhpe1aP2wk1dX//X+AQ
VzbjGGRVKVNf73TTs1VETlaRtTZKnWUfM3sMVm/ICiXogMnfDNCzVsZMIGrAKHA7
T9gaKuY01VB7IQK1QikZgPqQJRwF1CXLolezrGsRvMYdTrUj/11cNJdeQTWTXmJn
MztDK6OY8+59te8HaE8fsflJnjOueNqeDBX4aH9uGwqBlRTFxSV8FqNfcdpY5G9R
Xsf93gmo7ZKv3LVh0+BIba5EH0q2Hlh6VrrtNpU3BEDacHMKAms6cdFyZdOpbWPq
bUNwhvexXu5YvQYuOV41n2Lfkg3f8XJ/sifvHHGT0ybrz/N4nx3WK1uAIad2xWuu
lyZUMUfO9fKq70OiZPzY9rtkinePKkWjwk8KXUU8HywAqf58yrgk+i3A6Kvk0YcK
yIXgGDYo7W8a8pfX1Dx/TX17gXNJ+yd4iW4zyokCHAQQAQIABgUCTz16vQAKCRBB
ELM3sBldc8iQEACfKnNKIeGapZRhSQpzPiqU/hjboXJFk8UbEaEj7YWMvhGgkdOZ
az/1pgHXZBxY5PIRNmOY59xAgx9iIwkn27x6bwqgdoZCsz/ScDpY1ea9AA40LWLg
Su9vg1Tv8mxPpHfwXbRDz5y3BEpDfgSdAyk8aOMhdtTm33JHwgTKMqGxyGmhM83N
ygtpCSfH+lfDzXxrHZR4o0EH4LKUrNmNX3y0NI4xPLMpWQpxqnlWY+V3aq1jNKrh
yzX5wlyHIl2rfe9RnyZOMGi+pJqeK37QVo+LWC1BXoOQA4y5whkdJL2fS1IZwboE
oOpoEQ9Yt0x8qq2Fuq7l0JDfCTwWtluJUQbGb/ohLeWP1tLWpqg3UbPxo5QZkTPy
LUdFjchJrnbt53f0kUerucdSmJpVzvJudqK/5ph8rLFv3+18RyLkQiir4nd0l41i
Y15/act+F/hDlpTE4bW6XCWcC4dGiMOxZ8BPHeTrXYvIKl5WOEC4adBHw9T+U2o5
Bd+cazACTsQVPqSxDvO1nGpqNw8YL8p5ghce7wSgPOdkBKMSkknbu1Z6WQJgCvSj
ntj0VpyNwfq+uGwW85yyESNbhTLWH2Ig8ywY8WovIZY/BqVEN0HMpurl6V3XBsf8
910WtHtep1EUdFpiARrNaYzKPIxysk0Bu38qEyRzve7uuGIdM6voPOFXeYkCHAQQ
AQgABgUCTqhkNAAKCRDg83Pze/kJmveuD/4hkFdeOfa3S6NhoDgFvtOLTIncZeRe
CPa+l3zRR5LpeAv3r1YgDW4A7IDKpjWXYytuKKHIZ29Bn3XlM/fcFCBVbELOVLKT
obCuWWnsN8Xt4CWHoqNE4oy/LWrG++I8qtIiIR0MFQTmaJ52A/1V7KPEauyOOsf3
ialsnTgVHhwNkasK/n8uNHmeZTPXfkk5Ar0kECIkGaC8Zi/C1+jas22cs85IgNab
/3Wr/3YGAaZKJT+CYA7q/Dp9P1oDfGn2txi/R+7Zv0XmaWFNhHFmFhvB7aVqEDPa
LJbxkbhSjORKvGLQOoXbHahoxdOBSEMHNa2dQJXD68w6r73uKAJpgLVERN9aN0WF
DgyeZhouW/LADeQv8gAQmBXgrwr8i/BN5egOLAckE/5V+PTudB4FAEA6LyVKt3QG
yLQvvDwZMZEpZ/BSBcHczyc3FiHefyjvuBszAZ8Gwg9LJFMe1oXlXwEh6WJKWzNZ
XxiKvBfSI6eescknZC9NywXrKdweGndxv+VPUp6GZxB03OXCGDilwyTVXZiY8WI0
RnzTiHAqLuFATlb78v1I8NPjY08ajrxZvB0NDQQvvWSXdwbRE05H7cJJwB2hx6Rk
5rMIEkuXe4jQzkYv+56RmUh+fTRopc1vig8A3WCng2XQY7evRrHyNS01We3rk0M8
qqrq0Sqto9CBNokCOAQTAQIAIgUCTomdcwIbAwYLCQgHAwIGFQgCCQoLBBYCAwEC
HgECF4AACgkQsuiUyVNEigwmqxAAvSLquj8XF2MkYyO41DomLORoB3cmcZZ/rSm1
CGNqLoexOWtcvK2LItwh6FB44AZI57A1nFQBizQjKnEN78njEUoWNhCMzmj3sKLt
w9epvtmsgEi4GG0eKve6BoTG9b61bB8LmswBIzBUhfjrwrLtAax126NSaUSr4pHc
Kh1OxZQrxwLnYNOoa+Toh35x5CQn3QnQWKs75aVbBuWknY3WiCUAhi2eE44ew1cQ
1kV9uWoXtepdlm74aNcFY4tBOJuOpOZD29T7lXr1MUPEietWTXn52bEZUv7uRGzd
qqVuaZq9Y20FCf2xx/AhBGJgT8g8zmJHRySQPwQRIN4URj/f3Wa621PG3Zy+ZT0r
3W/hG2TDLPfmwfGIPbhto0cG4xEQVWtyiT3gEJlBmxDGzgx+HQqFZuVrsDyNmwZv
x7mvFlfLWW6YkyFSJ1ce0Sb8IXHAQdyMl0+ROxmplspCubX+KytSS6BtlkAMK8bt
H46XPLi/vFifO8xOYB4CgO/KDI7iLwa9O0XUkDeIZFL/nAcJEzvv1uqXiLWUlbKD
o84G03nDh18U4NhGtcc/2jUPeCN2dg/ehs8UWDTGU4OBtEAmddWQF7tOmZnpOb0A
X/KAvmD/Jm4LfZGRrB8weHvrFQH6n5Z9UMSEET/g4ADEBoKb4sXz9AsdXYTtYsE/
jI6jV8O5Ag0ETomdcwEQANoaw6RxYrH1igsnb61o1O/htPaLO0bUPEt+sMLMo7B6
NQF75VgmFt0A5B7SzEJ0Cs2opXJtXMtotR2ctIwzVExBW8/JOHKGwIeJBGSKLUZs
1gheTneE6zYZP4bPBjLmr6qcQxwuX6BzJR+HnIVxsPw1wbpcA1KCrMk86FRHyAmf
KhOghv1Xt/Fu9uVYS2liyaeqGGlT5539r7OJIE7/fxipfx4INogReTW08G5YSCt8
inx68qB6agb3gg02yDBX+Vj87aOvKgghpn4h6D67vs3QG1yQDrBTN9wC2N751PuE
xZ4j/GIfTlFuSTz67XgdVyh4Fyc8KY0aau7pTUNOkHS5cbY+pu35OnfOd+Taf15M
RnRWd3Nx+DhvEyaNd8aAyBWWGXJCDzEijekq6kmhaEjV0lDgJqvQqQ4RUH+/GK1s
clfJ4kQ9anCq7eQntBJM6VQF/snhjYpXHgWGPXnFMqUnqrSipBHDv0MngI5lqUy6
xc5H36MjtFsJfwnTY6idW7OZ6qPMtl/WwnyS599zefUJHNU2Q6DjPJG+sTD9M7LD
X39E+gd+Q5b7VIRgo+JokCS0lP0XMb82drgZlNKSeq7lPqHvfH7/jeTYyLTfH5hK
QJF1GXBAzvOK6AtudnUR+89jRDd4+DZ8kr4RkjH+3Qo4MpZdhYXdTg0KQe07Q3bZ
ABEBAAGJAh8EGAECAAkFAk6JnXMCGwwACgkQsuiUyVNEigzcoRAAum+mTOD5FW8Z
kzRdv3drsMmzhUsZI3IyG0trn/zncuz6y74RmKe3OFkKLRh5BKgpVnlUvr77Eo3s
iF4T0TnU2faTVEQIjPAHKlIodNm965ebB9rXH44gN09U+pJzshjZO9VHuRCadFUw
PzlvlNRKwPHtcdn1oBh5Uy9BOTiJrwszIAgOOW6ytt07Zg9CrKaoOkzwTaB37PJQ
4SbvLRfiLW721Ox48NR7NLNe9riR/Aq5WuGd0ckuWoL9Ibz/olP5ZsvXMui6/BPc
bFYHJPGJIVz8GcdSbmfPzjojSs14mVjjQPl/kvT954p286ueKtPRIFDjlj5om2Ut
7hS4xfGW9zTGZvUMbL7xrnZ15zhA81tjFtCH3XnbhSct46HeKXvPhI58iu1qWffW
cKYYR/IBtQCWxRrA6L8S++s7VbX1hwq5sFFJR6g7w6keonjH7HREqnY6ijECMZ1s
D36q3lKry+oeATiYvIxtBWnCB/sggC61AdqJtAyAcn5nDfJIuADoV1n/9vmYpXUz
7pvx7QG+0BPBGgvt9JO0IPcIWTXW0FdD60tLGkVE+MR3UxflOVLulqEMTERxIyRa
TchnxVyYIVClia6y3vIrjU92XUPmD4HsUUE6M5puaFhuQRY8SkNqiZ96WRhti/sW
Ci0uLs9ZtMpqIExh5p4N86oZq6slSOA=
=veEW
-----END PGP PUBLIC KEY BLOCK-----
