pub   rsa4096 2020-09-08 [C]
      1EEBAAFD1ED2A64212589338BA2A558FF4ED722E
uid                      Juri Lelli <juri.lelli@redhat.com>
uid                      Juri Lelli <juri.lelli@gmail.com>
sub   rsa2048 2020-09-08 [E]
      DA613BA5E3CA918C9AB8531F268450601B5926F7
sub   ed25519 2020-09-08 [S]
      C27859EF3EE204AA8CA8ED2C20777D5E12E6A0D4

-----BEGIN PGP PUBLIC KEY BLOCK-----

mQINBF9XF7gBEACjFrnWkQSQjqKRNrYfPDCciTCg7iUgM/mZWdFq2MTMeC+N0SeN
oemZBOBja+XeTIImwP+jqYOYQHE8uJOJGXt0Y6SJ4jBdHV+ZNQ8t+XzAXFwlOEhN
SIiBFEop9iGzd9DnpJAlK3CLDAQaRnrT7RRdoG6cuClhTkG8aIfj+u1sezmTv6Vr
JQx9xPSwp6D1SnOx20bCmLK2EDehRztw7OIM+inqdAxeFNyJediJHEEyph0kU6sC
xfWePmxdktq29AFi2rJkSM3GE2CctaK59LiJSGNmNqJvZhKUag/GqcUhUMj0C4PU
uhEwXwFzXmVK/zcZKYk/Zp660aMNqfjHnn8ApWf78i0t/14w54oM9Mmsl9XXz4Xa
fSyTuPNDo3WFvas28iQgUPQ0YxhJQrqjtotF7o5Tt4jlPS/q/RfpZzZjXHwvUYAv
Xou7pAwSl126CnnoTuYU3iUu7qZw/aWKfx12r4zy7FSsBDhxHXEjYUrWxFcKp/w+
FAaqgL2Q7qDbQXdfnkKk6qPO2Ot0+RFAN1lmVNV0LJZ9ao78gLsKQlrHpBW4rOky
MmcZbDcyoK3vixm0/Zd/BohluEHGDq92gr7vw34SAavblUnRLdSHVaLKwt2wN5f9
n5uDKY7oYpujZb57wVf7YR1jI9CMoqjcW9Fds2imDpo+WDVFWBEKqY91pQARAQAB
tCJKdXJpIExlbGxpIDxqdXJpLmxlbGxpQHJlZGhhdC5jb20+iQJXBBMBCABBAhsB
BQkDwmcABQsJCAcCBhUKCQgLAgQWAgMBAh4BAheAFiEEHuuq/R7SpkISWJM4uipV
j/Ttci4FAl9XGtkCGQEACgkQuipVj/Ttci7DHg//dvJe060ZKBZaJG4WNm4rqIIR
/cSDVdOrmyITMphyPapNHNdKRy9Z8H1VmP8Zh5mLggW4eTMY52HUGxMMOyKU4DjV
yYgcx+B4dGLQKVCoUtV+qUM0am+pK7luC2Uocb3f/6hBR6jkERJv8Rn4f9Y38SrL
s4+O18oJjm1KAgK6yO/s5oM/ZpK9g5q3FJQNWpNn5RZhSnPRRD6LAl06/sRj6uJK
nTnx7vjAWB8p5b4hxvy3kpmBAIzLQBEi6vAhjTf6eP1bdA9aTYTMeVJbvSRiE1gg
cyjpmZQ0U54VemFpondBoYrohPKV4s5HS1WL+OxhPVFcrzWar9qBQ5voGYRK01TL
soxcDdarvo8vPlcgVsiuL4nm5TEz32qUKxipP8Cpk5fdgETjKka6Yjr//+mgaapm
cAyJB1Y8KUqbuD/w91x5hXqrb5atM/rVO8LgaFd445Cg5W+3cJBpnXd14ODhbWLL
FDY20Eh1o48zxMTRpo5K7FB1z4CcN8qklQOeWVBYiYvf4YatEDCDWTYyxhRB/Yb6
LjevEEgIVTfDm+wVRMfJT6V8AlDM8IVMIBc4B3w7JRFAOotco6KmrZdut4kVg0UE
ip89x/E2cgmO5sB+rvmKJdwmCHWVUZzqBVaOyxtstYJR3zA3WPb3dOFEmbtnnGfF
Tq5qNZGQ5tHqdOqEgWyJAjMEEAEIAB0WIQTVZT6jnIZ12kvVlxwTtV3QfFO4UQUC
X1juuQAKCRATtV3QfFO4UXHrD/9s/JyO0ji80O0sgLkL55vwAC7UTvhuauBnnZQS
sDvabiq0h1FVGjieNiGaZbab1b9N3GOypqZ01/QIycD/k2IEmFnUkTO/IZYFssWZ
vQ56S9I/CkFmP4C7u2a5+C63KmJC+adIDTzAqWO8kCQrga7BCRNr7nowQRNw3lec
Rn01wgR/hlXMWU6X2bb6JSPC+RdKvvp7zgez3UzoAZQ2ObnvxKoE/VR2dYI8lgED
SpMs1GoKOkfnvJAQRhAsgJa/6i0jRY6If7e4TrfwF2o1364ta7abJjD44PZ4z93v
SVQM2gq4iUuFWt6F0QeQeAk1hMQ3ennIbrx9pZXDrg3FclZ7KISRz6lt9+7tjPIO
mSXf05pCYynVC4Ewt3R+GQaTng++XasK/ynN9fhzCyn5QUtchZbKcmZC8Ow+Lbpw
HNLSJk0ONHuIDsWx0Oen5UjoR0FKXdTWCHgF0xvVxGQTrUzyMfQESqlNAkoBetY2
x74Br7AjItCtapeybEXpmqeehl2ItK/gHeSPjPT3BWmTZoQW9QaPMSORHV7gwxRU
pyK71zN1T4+hNoco9wur5vH1ei4/bHGSgOMPl3anAn63c9d4BWWeEF2J2t1IajV1
O+gzGT/+n1fceotQ49k/rNEffHT20I4tzFZLziRI5aEwDOKUwpvAcYfcPf/g5V0r
Ce0JIIkCMwQQAQgAHRYhBC2/W6pG+03tM4ozW9ZQFvNTUqpABQJfWPK6AAoJENZQ
FvNTUqpASAMP/jMWJ+TfnGWkxb9LusNrYFGg0IJGLLecuPjykPh+vvsp9JRmyvHL
nMPrkGxegrH/oUTFA201/gwbP3mend2hd7VkVmaqrQ5aoqvEx+vOeGiR2nboRFq2
PTkyTZQn1TvbR0Ngn49NFG3M+BxPFVXnUMOlQpA93dP9tckZ2ys+kLhwUa+IMTcM
IhKjA8mSEB/5l4RwbZMFxYrBInAuxXaZEOlJCPzo6LEIqrl2e/qzF1WxW7tKdx9e
pkjBBwdnZJ8U6cQvdkaI3FV1MfSIC4fupiTUwGdQhIEgcAjoRoydklnY2L9F+5Xo
CzYu9u+Hg5+yciXDqW5BWzJwVl8/cOpWTrWRBFCBuVYcnb+sP8M8L2/A+0xEKRMd
Wl6rMWMhWa8/EaVfUlfWS1o14IHLK1eGTGi5UOIRqIKOUH1xQIJpSkU302BleaK/
8MN534x9sWrXGv7Khuf+jawfFUFEr/L+/kkyY3iAODZe2QKA9FA0J2BkVFtz4NV3
BnGxwe1OOD3XpbnqWBFmLmNPdEV4eeJ21AHKGxakv/IMLf6cfiZsb7VbOo0RxxUS
IpSJIg9KD8704j4jYR7nimsJjJWB8ZLmekbwRzFAwV08pGCy4beW0Kw4PX/wnI4R
WG4JJTbYOOOV/3I3MwtDselw6Rfbd0XOuMpbPY8R6DRJWzLbGBLbPD6OiQJRBBMB
CAA7AhsBBQsJCAcCBhUKCQgLAgQWAgMBAh4BAheAAhkBFiEEHuuq/R7SpkISWJM4
uipVj/Ttci4FAl+AgKQACgkQuipVj/Ttci7TKg/+JKVydIaQsjZFWVJzEEB16Xy7
NkUFDOLQ7K0hxm3+B8xDm2E1SCKSp+YzKYyAkYBwGM9h7ZaZ0+2hELqN5/gDeqPJ
qh/2eAHpINj3xi1mbqe/je0h9vXrPGOCK2VbCpGERknF6DiGaMTArXHUHF3F9cNH
Z12TsorJw924vbhJJXCCh6ek/W8+TrJJ9tyVB6jRnSzMRF8tkqJWvD9kYfKblXX4
RsL9U/161p69bGQp/PTZoLF85CecgLmtid0Ve9vbF8F+FMxgqPxxIdovPyTfwRE7
F26y4UneenX9EHpim05SBMGMwPgX+/kw7DrPeyAEM8TOGFoahtvH7b37yvJJcRpG
aR73gDmsQnnsckPc+ZkZDx2cfb39jedPisqukBQP73Q+OLQK5YqEYaxBzUMDs4Oc
fDx9PY1mWPgeD2s40kKhzs/XzLb7fP7W4OxwL9D9YuSah2kB6QEB8Tx814hiXJjv
GuYCa3gJPaNcN46i6Gi/BuY8qi/ir2FIXIdnflN/AsYNPvEgHyChDtLvl5boj1gR
MnZNURb4YHHid1NO721jJBBRcTnp1vlg1iPhgkXvhuIs5DgbHPU+7xExRto3GbpZ
7yn7Ipn9PswCqh56zqD4EpSQHeb9/ndzfH5vuFxYJQmzxZ4yUtvtFH/+zjqGw1zy
CJS6GfDyuRfdfEzpPlS0IUp1cmkgTGVsbGkgPGp1cmkubGVsbGlAZ21haWwuY29t
PokCVAQTAQgAPhYhBB7rqv0e0qZCEliTOLoqVY/07XIuBQJfVxqNAhsBBQkDwmcA
BQsJCAcCBhUKCQgLAgQWAgMBAh4BAheAAAoJELoqVY/07XIuQ1kP/0NKGc6+dZHh
TMQY6iySghbUE/rq8r4Gxx63CM4G8pg0lRTCTF0YuGQ8CWs+UyvX9UoCdniS2bQ4
D8pyfl1jAFH1lx0xnolreT5eL0N23CKqvakMiqB3A2YwD9bkhSMt5LP3my69YTcL
BpXv54JiXSbcbc06+zgsdAAZ1zOFAcUrRc40jqM7lflC62BfoLXUCehkEL5YSfVU
wkes5EcEfFLUII7khjrpsdqLTII6iz3cjifvxQjuTDt5wNw9xKD/b4LuiQSqcHCP
fra194Yap2ZH4nDAYhSQoyX/grfrcmLl7k1iksbEDaReOAkXkKVfXSnqYO9PtP0c
vtZpMbGW6QPtmL7/LSBRyAvlCrsVajcH3n1Bzc2TDic2oZE+yqR1qaHIuo8WfxWr
wR4btSQ7inE9XyciWC+uEqm8BdO1U4EBF7ZYMIao5uStnKw2teX4w1Vq+eoIU8ok
TH85i6bFfwzM1U3R/SZs8psVf0s0iwSHjYcygRhHmm1S/crfKmSBENf51NCen6d7
TlsrFBe9VaMyJHA0wlnQ8UpT2xfp3qX9Chfmih8GNZgECXXOVNi/e63TlkwSXyDy
BJIsA2Dxa9HUs9T/atnFOyqb6uvnYO68IoPbdWA8k0Jf2DQuIvK8R4/6sEMRYaRt
9UvBYmVreIS4zlT3FV9elzCyoQ5OMOA9iQIzBBABCAAdFiEE1WU+o5yGddpL1Zcc
E7Vd0HxTuFEFAl9Y7rkACgkQE7Vd0HxTuFEyYg//Za6EQlarlhJ1Tn4cui/p9TAP
rPe6i5mHvAzMdygvZFRFHYoEFl6G4/qIfre6YvFHvTbzmrb+v9CkkH5K4GTXLKki
uSuYD949HkRsLWfT2TsdP7CjLjivKqkD+Z2TzFh3rNK0NzwQlswRT8XU8Lgmnw7r
yZmWnTkCThYcMyDkGeKOwYNwnpQ8z9ZSU6zWxpghgJuyoC+VD2m7EVjGhKl2a6FW
liK/66ot/m/AdaS8FMH9+Lcob+P/CwcE+1yLVCmZKeYNdeWc4pSh3wagtuz0DV1U
OquDQ1Xe43ZmRIunfG6+dFYh6RZEF5uBDWJUxm5PBd7rAl4/OgluSSswxh+3qQRw
e1WzlSPCC0gDjzcADZn1mamfwMqVNwEZ1pg/lOaC8W6Ir96JwoL5HfZz3L+ZClzV
Cm3Jd68Mr82bXiEVQbJMpkDZLrrKf8nYe6dhKTy2QqesfJ+hVHw3s1A1ZhLhYIeJ
2FsqkMr52S+aLsIkXb6RCplmhgx8sHDEXEQiOkJYSkrHoBjhpU27eB3+OyyAClbl
2FJJCH0cHRuKhLjJvDg0ddNRUwwe9WpRV5pyW4iJuAqtSCgmhQyvzTkwAPsV00wS
xjU5z15SKz4IwGKp7H82yrmVKuC3U+NOirsZPASJp13caspZk/pWJhSXutUZyjey
dLO0XLv6+xTUBO4rG9KJAjMEEAEIAB0WIQQtv1uqRvtN7TOKM1vWUBbzU1KqQAUC
X1jyugAKCRDWUBbzU1KqQC/jD/9ab8oCKtH7v1T/pxHpbu8gz1dCu0DUTHZlYhrs
7fVCi3cUzg+OJ3ouWCNTiV3yYF6vDtd8sYWtqjd1qf5TgelPCPd0jYtjGmaUDESi
mJQLrULr32CvRVjUjlop91TWRDUU9NxrJHqrMkW8OHT47HHJ/1QngFNgo3ffO1bC
A10Ea4j2AZaxoGqJQyTmFEl0vJ37ezHn9ip2k8j0nX2TwFFa8M2vlyvlVknE8KOL
ZTbgNy5mM2E2WQYCAwXIzRxqDAQhmU8Nb/IGmj7DxpoStIGPtLuswiO0v8CVOa/f
eILlnZp1I8ZK/Hk2gg8c1I5Dx4HWZnkfacxN01gbRAMx6w6BTfceyButj9zYz463
qVzvCXXZCXHH2Nem5sE11dHsOlfuX3sOYXV7aCUMRRyIQ7Wp6AzS3PwRrgyIzDDD
8oED6RZ3EPm61GXbnAvYBdUSf8Oa0a3wck+QzEG+VnrSubVretKXf3GvwPpOXaDk
ab/JDuzK6Z8+AoA9UQEK2dQquAa+NsJ2/zZljLH+EIj/Z1TFsyr9eky+5xZxFgg3
9Z5efV6B2C+aODduFJJy/06zzNVeMnwSYIcQZF1ZT8HpdRybrJ9/1bDPGA5jEdZJ
JEPIMxqakOvjhnsVH0THGKIo+EAVsvHl4rw9ew1Hk6zfGzil9//8BaL0gC7RJaw0
c0fsFokCTgQTAQgAOAIbAQULCQgHAgYVCgkICwIEFgIDAQIeAQIXgBYhBB7rqv0e
0qZCEliTOLoqVY/07XIuBQJfgIC6AAoJELoqVY/07XIuhD8P/0k2gat9dMnAPBAi
3xjQbQgVs3ebty/YWxdR0dTcdQl0GyP8Xzy06sEWHbohR+HKnG3FhdpHdJaMjoQq
np6/uWrvRvnCeqXo4HUp2Lk9vNZXKU0oOjV3YNeBMYEGv7h4XUkwZrjmv3sJGf+a
GtVgMi188QN/zuAhbgbexSuvMnbLVZJBaTdmkW0sye12GmAnkLuNX6WcxEsTfu8+
BZ3NWrjg6tnmwQBirai/IS4S9RI+hETt/5QQVXAmfOvQXawiKm3NJPF3KyG3ZOAv
83ceX5RjLvrhUKd+aKzxZXcMJUPpcaZfrTNrAeYlz6kICbc2ny8qFErpAR7i4xge
ZTw+ILCuzWg+X6iGmlTYmMeqiFAqjk2EPtqqnLsCw1cAn/INl0plHiuJ1d0f9hsx
tSZjsNkGP3p38+7i3EYmVb9eo4nonO3gDiN6HN4wgCD6Y9pPOAkHkgl1a+Tr7hnz
gAVxpee1mMehSmh3Imcp6nqfXwj1QFMMefowfyAbSfv2HEukHP+KG4DIU1XauuUG
0JISGejE3wH3edax9UAppkxuoGWTDHGVHuriCIgQW/4FXzAmYelIzeO1lcZs/QiX
NEpkYafngsbTdF+y4jJD7g2MDYfkQ5kZTZ99iGqOMbxwMhSE7p0ukBwyHcuZvlmu
mZ2gCQdvzmdDeym5av0qRehXU1y+uQENBF9XHF8BCACy1XRI/10CA5F7uACPsxdP
RdjmXJI4rjoiCgZyVfK+E1Xu3MtCHh6I3+1zjVNQiPAd3BqoTThwXsyXUVEZ+Ppv
QDQjhV9/msXDrz+6amtOH0wWH3dZiTlj3aw0wWNHI0fuSGagvi6hi8HW5eeNTSqJ
xmtVf296fdIXDjKiDLCJDPD5qD35oZpwv/WBLvHhAMaDr/CYJ7KUNpq5KiEGN1Dr
TOFT9C3yTjSgu+CW4x9T1ZZ6GF3kbZ02nPBI2D8cOLQP5KUgEIFWmTmB0EipInc0
0Pu9K8oQ658S7881SRIqW0bVYQCXombTEmkWN9J/xBJlj4fFmbg/bBNsp5AKbrLp
ABEBAAGJAjYEGAEIACAWIQQe66r9HtKmQhJYkzi6KlWP9O1yLgUCX1ccXwIbDAAK
CRC6KlWP9O1yLkutD/9bJ8pDhQmlSvq//5RzNfr40vING3Cx538PRA1EZspkGdo0
jHLNWYEP88E09LU2TUrTHKh8PUmkGoeb8AaLfgWC9+PGyVGkLsxMXPwuNre80zGf
vdoJZ+CesFduUKN+tdSP5KQriqqmoFJWUUzmXCUioMHfmHgzLjiZGnDB36jyA4JO
yu7yhzrum/zojoEnB3gEZpDx1rXijhfjZA8pZGDlkqNMzBphXr9yLEOjNKw/Scu2
aiUFX+a6uhtGDgbRa8/etfVBkoyEhlb14BGAPiG/H3SgkeGxTVIsT9W+ffxlDhFT
9CA/GQZlhesccC7ju2mQsvTrREEbfGkeXE1Un7sKu/fntr3RV8yI7RjGyyZNTl3+
wE/DjtI2/2l7oOpUmPV7Ufu6fQemDPoZxYBsuKhNnnxNMkINUWveE0dvOnXWjYB9
eDsCnBvIAhqwUGMjAJ7/YQKSvAv5nzG9HC1AC75OLPxTSdi7bQz8mx2wzdGxHnRc
JfY5+ye84UcgJ0TrROaKKIDTledcxvWPfhhH/ja0wneZMxGRjB+chVyzf3U7hJZP
UlZFAqZIDSV68STJ0ihl6EL7VJCy3P7a1NiwnK8aInbVfs/nwQWbMQYv/BMl8mHb
9X6LRMyd5bRTnwR1/0PwCd0TuACFulxT4O2Y7GBqnlpRHqj9h+7ERtJKBgnWzrgz
BF9XHIsWCSsGAQQB2kcPAQEHQAFOFfKl00MC+oM2WMgBSq6BpvT5s2a9CyhnmaJR
qv2qiQKtBBgBCAAgFiEEHuuq/R7SpkISWJM4uipVj/Ttci4FAl9XHIsCGwIAgQkQ
uipVj/Ttci52IAQZFggAHRYhBMJ4We8+4gSqjKjtLCB3fV4S5qDUBQJfVxyLAAoJ
ECB3fV4S5qDUXmQBALwfPYgl2l+Ll9sA3nfKZer4PLoDyxcAmmY4sUV6NVXoAQD3
vSlZTft6ThV7lgoK5WjUDkFiz50NwrJjkqY72qdpDmv1D/93vUqN6scv5gh1FXbe
LIe2nrK2KnWTY0ATnYKtfVGsdVjqu+X1k3zMfDBJ0PIjjCHYYd9UykWcD4l49MsB
vFYpLIbUW0jLL/h+rgb0Djexqt0CFCbtRZ4j3WyhnGNAnOO0tn8I12O6ESAb/XAQ
qz2xbC6bQJlo036VR4USdPkzwNWBGCI7T+32Mz4e2Q7RQyTjGaiughLCFnNOUeVF
i+BTPGZrgnnmyLEOR8PRpMcCSDR5idLcAHByhP4PDHODPNOkOvQ72mKu7FH8NT6Z
wrQSH2N3XjPyRlebyTd7u1GIixDWmHwjISAbCfwQDSPDzwUeA9QRzRaW0JaDk5Dg
CNwuxMss68ct5Umh4oC5JV3Fl4QRQLSp4EOt4K64cCoGC770ZUFK7i9iMJMM3Bng
t4IsEC1G8C22Ut0FgxWuLS20V8Lx6RDSbJMrHP50JqC2ad3e660bqZGOVvqpJdbb
6MaaGjw6hFqn/ISEtBkg4nZWLVe+sV4HsxowGgi+qIUfzUPdEfu/ADG9CdHXBPyy
QBeRBT7cO0p1SdPiU4/RGQRAI+DIDLPhOn3vz6hG01IoZCB9/y/u2Cj6Os6scbPx
eQbRz5WU/V/4Zi3sQGzWezh/KYB1PI1CQQKDld2fcnImWQ83WVS+lwLqWMaYNgoR
Fs4TMeP/1YhpenrqQLWVjZvF2g==
=O0tS
-----END PGP PUBLIC KEY BLOCK-----
