pub   rsa4096 2011-10-10 [SC]
      D69581560D4B96F78EE2EA36BD25B10406B47049
uid                      Jiri Slaby <jirislaby@gmail.com>
uid                      Jiri Slaby <jslaby@suse.cz>
uid                      Jiri Slaby <jslaby@suse.com>
uid                      Jiri Slaby <slaby@fi.muni.cz>
uid                      Jiri Slaby <jirislaby@kernel.org>
sub   rsa4096 2011-10-10 [E]
      AD25499D022F3DEE080097E0A36C90D6AF36618C

-----BEGIN PGP PUBLIC KEY BLOCK-----

mQINBE6S54YBEACzzjLwDUbU5elY4GTg/NdotjA0jyyJtYI86wdKraekbNE0bC4z
V+ryvH4jrrcDwGs6tFVrAHvdHeIdI07s1iIx5R/ndcHwt4fvI8CL5PzPmn5J+h0W
ERR5rFprRh6axhOkrSD5CwQl19fm4AJCS6A9GJtOoiLpWn2/IbogPc71jQVrupZY
Yx51rAaHZ0D2KYK/uhfc6neJi0WqPlbtIlIrpvWxckucNu6ZwXjFY0f3qIRg3Vqh
5QxPkojGsq9tXVFVLEkSVz6FoqCHrUTxwr+aw6qqQVgvT/McQtsI0S66uIkQjzPU
rgAEtWUv76rM4ekqL9stHyvTGw0Fjsualwb0GwdxReTZzMgheAyoy/umIOKrSEpW
ouVoBt5FFSZUyjuDdlPPYyPav+hpI6ggmCTld3u2hyiHji2HcDpcLM2LMhlHBipu
80s9anNeZhCANDhbC5E+NZmuwgzHBcan8WC7xsPXPaiZSIm7TKaVoOcL9tE5aN3j
QmIlrT7ZUX52Ff/hSdx/JKDP3YMNtt4B0cH6ejIjtqTd+Ge8sSttsnNM0CQUkXps
w98jwz+Lxw/bKMr3NSnnFpUZaxwji3BC9vYyxKMAwNelBCHEgS/OAa3EJoTfuYOK
6wT6nadmYqYjwYbZE5V/SwzMbpWu7Jwlvuwyfo5mh7w5iMfnZE+vHFwp/wARAQAB
tBtKaXJpIFNsYWJ5IDxqc2xhYnlAc3VzZS5jej6IRgQQEQIABgUCTqeiPQAKCRAx
R9QN2y37KW2rAJ4qRHLtYDIJttMMzw2lW7Vzx2LWVACgicNyVVdK21ZPNiM+fv+O
Y6UTSdCIRgQQEQIABgUCTq5wvQAKCRDfUtu9QfJ/V+B/AJ0V88txKLgCm8pACYHI
sC0TsLVc7ACfdvgEMSZrs0WiosiVF79dwAXb7rOIRgQQEQIABgUCTt2MTgAKCRDt
Ojnjk2dMQKZ2AJ9dFo7T59UGkmCOHlA6FI4Uo/MNqQCfbwKmZ9IBI4nZsERZIjEj
lvccXjiJASAEEAECAAoFAk6pF5ADBQE8AAoJEIFK5HwhSFTWmwsIALnsuD9lQHjp
T+HVRbANcHUAghjmb9pyjvxocxSZ1fsoOKR3V4pDDu02eRCb1MkS/Ac9GQXAFv8A
r8ufb/T5n0y8UyBfQ6yv3lGSLiGZSWsZf6GG3AfvdM9bcvc+K9AddwwnSt2pkbbZ
bfBZiyQQWsn3PYPs3GOCPgKKRXCU3H/hbSWocgqzbc3R2iHQCnm4zKIJoDm7XDUi
bxvf6VoFmxwEHkmJNTy/R7A4DXQhIycNqdfQ3zWuRAcF92r+baYe4t4Z0P4/HwhO
TdGWLnKOH4POIH68YnWGzpSCCVoc/mzIFl6VUBPrAybfRKdmPE5KIVyZVLmC7WZk
L9HnVqS/uVqJAhwEEAECAAYFAk6nGTQACgkQmOXcyBZHtyo6Cg/+JKWgdZOLRdJU
uIILb2RP8Ks0XSyvRr1ekU644WJZVgISgqXz+hS11z8oK0iL0biRdzLk0FnYJO/P
jnq73APFPNdKlrvRdQ0SDXxRK4wx25NW8JBdej/x1hP1oq6jshJ9447pGr9QNmSo
DDSAqQeUMQY4KI6EXTg2eZ/bXdBELZRyrVMvMEVwssbye4rqGxJGvMiQSPNdS+Ew
DRZYJdJrVcCYOohixr6W24w5Xzo5Bg6E7tnxBUzeC61wNKruA+63S5WSs87lvGoy
mSJPsLxKJv7c2AsFLo+erqza2FdE1Fx806EjkOwajC7+tEt0CsGvyZ3fSupppL2H
p9NexmboiC5MhC4Iawgp6V+StNuHcgk4ObFmPIT8F8yWNI4be+A0JVNeDC9jVlX7
t1nfyQJ7rbu15SAopZubeT0k1lVDdNdExknxTgXiWfBOGS0SECYrw2Gp0+if4vaI
WUkc9LbDUJokPQQTYSnYCM9vk0ZG6HMOPuz2p8cvhKFLF3DYyktQfk1iX8PCoRSL
jDW9B+hBa4ED6OCHuMlFn5krOGq3KNVOKrGck8aUZew1nv3rEnEwR1hJBYNabUtJ
tdm/ftoCmMdl5c7zfBRAs43Z3uoq9dd8yLKjzoK0xWrLLoE2VwKiJQVr2+h3taZA
HNr4DP0ww5FVBOJ1JuAMRBhTc+ZBEbuJAhwEEAECAAYFAk6nGgEACgkQc0FhntM3
Fgzh6A//Wkp0Cd/VZ/eDH3Xc7wLZYKbAmqAD6SmhH5m2RsHnyLJkJk8q2H2BYmva
ds4n8Zd417ExNq0QHWg7V4VNKOeU18KROHA5+gwlO8ImOYe1vXUWk82QQZdHsiYb
KNy91qK6fQXNCFZawFFGu65qXhObrGmFSCFIACF4Qg620voDjpXtv2TTFjgbkRFu
oUJh+5TYArXIvlcTgNpE5R0gXUsR3PM3aMyV9QnAaQBv4D1ViUsq9NFaB/uFr05a
DXD5SzCgvujjRJwQCPghpU20gitVkx2JwfcikWL6NqbYkn1zJwGIgFkh33EeWXC1
6+OudH8ak7nbhuQHndM38KeOGFKIbaZi7ldsSbnta7/poS4urArGjk64Ir8tO5Cc
tSOTV981RIqexsg9+xM0NdeS2DqL+Z5Uc4mAqR9GXTn87tjufKlPjYBk3QlHgUsq
63hc8QVeh0+3FMX3YUbaRd+qt/+r9e8MLMjtzfs5RoHE0zBFae9O0bdSoQzj4RDl
VlRPvUAQDSC37l4kxVktLsVOLSt2IgYeTqgKECd7O//o2vcASp+56V6vuGKwQijb
TIGYR6W/g97nExYph/kckeXr7feBU99DJj/q/C5tEGdM7r076SVWny7lA5NoKl9+
vc+3gJunanPEnF6L+e2sNl8F/g5q0ddJakAPotNjcHizExyIkwCJAhwEEAECAAYF
Ak6nH/kACgkQ+7dXa6fLC2tmQRAAlbaGaNFhCnE4LNddBK8HvqCWqnG4vA63LIY4
bYED3G7Ej/0Q2HfP6B9I9FRMYiACVLUfUhMaQ1ZIf4Puk/JRQ68laIWfaYiBsBIo
f7ts8QnsVuWaYBt+0Rc2jTXnib9wCQpqBQFFjqrP3EmoBbZEtVc639QBk8Wb10jo
M3nYi71HA0goarXq0VelNtf5pTpF8ue4KtRdrJyruBMVSt3xyJzXZ+jN5YbhPMfv
DBx/qqBG/DkLAfklp81qJj3qtYosaIjEQMmrepxvSkQabo3XpMK6LX1TNICRdS4X
I7hS4ttLCtIc1eGYJTJuAUtW2Z3wBK+9kay/rPnstFanLNrmxTA2HgHHzgmK+9FR
bFtVqhXwGBJAv/rNdJiULKvatbBqrqNkgCuD9FhqQLk0NfsjvcWOrCQKIYoolqbK
txw7fDIbeVnEr9Zf9/lkuPAlZifWwPXB71x1TrLpwxZm9+lB7NYTKi1WCt30xCRR
m6eLhPdlCil/yT0aLurLXLvh+mD6skKcHzaa/9DTDMQfgmiXxSrmxdq2Snvz0ftd
sbrEFVZ8EzyaYGEfvMZOY5Bfj0HJ4qK74HZPwa1etbkA2Mr44tQDTM4gyQGcx9nB
gprH105amA41eWrgBlH04EvsUrNSpMb2t58sL+2D1/8n2b3AyZKs2pmZeOZxuCMK
Xl4KaQuJAhwEEAECAAYFAk6nMQsACgkQLqdrnCtGbZ2AwxAAjr2dUFLV99RDQQvS
hS9Px8WAm1Iq/yjVYsuU+kil0jUDjBjz+TAix00z3XqgWdN51/zasQkN3o3fFr2O
qmOkIh2vvFz1TyQfVn+IMOJyvGeRI3nuEYQ+oI1Ay1Lp7cKSP8rSHlcu1uZ/1P3L
FyT0AdRqkuqVmr2lJdNwskRJjlekrVda7/zloPyj6dgkvGSZtFHN6r232rPaMsgo
tG2BruhYGRndDySqe3ukdVS1/bSD+U2LWrGzL9XzrwUJbrcXl8wYxgb4Y1kSEqvd
z1iaU9rUg0RLniowstYwUXTivdl4tlPpFM9DMKUKGJ1dS2av39xE8AhREAfv9YWW
XxajC8/MfTPFCSlxWCzvcXkhYfss4zA5UWxgt6CHev01Qa4dTVDF/RxeIX3/itXe
ZwQwU9OyHM2UCXV7VdIogeI+gMbVRRp8uXObMe7q6/2AWyOJdwUIC8NeT7btsBbR
XrKDu10cYJ3NvqgEo3eyM1sFHY74BpWZwLgh7s5mUxMHvYY5wCtIkGpsXrBCXu1w
H9XLp22D7ZrA+hiQRku21V3IP5OxVrz9Oiic8kLvZLrbsZ4/vLDpKtwlegLYgFIB
+gV73J/NT4tQzWjl95EsdUQyY/VXYza97kbCp9Hlp3Liat/Ygb46pVeU4YECthgc
xG/eFWbIFq80NFt/YC5pBi2OpI6JAhwEEAECAAYFAk6nokoACgkQONu9yGCSaT50
hA//YoEfkLtAzHzS4awoYUZ53mxtGgw9BUo700hEkcnvK5VGTE2id6xQnUUdaj31
65PnV12l2O+C9QAo/SNndHexEWsUAD+XgXjSBE9+z1ezvME7sJWqrnNnJ0u5XoGD
VpQhWcmcgRBAew/8uIezzNUm4/0iNQVGlKRWElw8KNbpO/A7C/PLiymRIxo3upPA
R//a9KZzyNamilg+Gu8krAoyJJcUyUKjyCa14I/IWsUweCqge+QQSGAFQ3Iggyd2
hSIA0NDssf3z4IqC8F0z67OAHObFW0JIB3DDL1gErwY6ryi8SbZX5cWz0PeAvre+
TgsvVRDV7jLqumJ5oWOFH4MaOKsD0xvK4iAQi7SKwIXrLyeGKfJrQ9eGC9d6FBgd
+RKsHZx7hkGjG/V3SudQo8AicjQ1yx5tH6Iayz3LKPzZuAaSPR3IDVUmREjue+QF
XAJ2iksjjZWam7R+2hwRRFCCXRQ+V2xDWFRTI1rCPDPJLwPRHDQXA2YYEhxBWMj2
sjNKpsWRg4pCCYz+FM2ewj8ub6OI4ZDcO7tzxwaRJNrdFm6fmBAA//xtz2lbs81I
Z77cVblocQnMc/OkaCDax2Fe3UpoFv8rX4Lw34JpuGxIOx5NRbfFlqLagethNbpl
LBBJY9MTeIY6ynOHJqbXif+Ts8ocTaqfRvJlYvT/4j3eHW6JAhwEEAECAAYFAk6o
CmUACgkQHOUKkwgYupyJIA/+JNRtXTUuKr1B7oANAWwn0gN0sjZvvt7dFmVqkKL7
V0FPyxvFbN2Pps5vJQ+T9C1C4HSAm6ZEd6KmKchtRbqJXUx7PK5/rgL664yUOoFt
rFrMRQRvuVZn6KLcokKL6NfdIJBeKfyTO6HVvt9jxiWdhQ3ehAYI9V1nCNKcRTei
aYVDwMWb15x3cmkYXCg1ZjG/cArnLTFQHIaIDUOApdDzRaJKz46sLdyhUP4oIkJ3
4gatLlSjjMTftYyzJ2kXJggsUfrIGH+1UBV5RjJFMkvzaKI0qe/sAxFcWbcXhXA/
bfZKt52oThkCzphRQuOXiH2fD0JbifWmhUj/rKleWieGcMqKzCC6OF+Vdm4AB2+l
kFSiviw0A9rgBUTDywj8Xq/4cvUVhdG7WAjTRMU3wEOmj5jrcRuWB21Xyw/qKlXJ
IrIMiDh3KgTh3jJ8urVj0qhHymbBcEyXfdy4y+9cZjK1y/NmnyBKqaZJagfWVWgp
rG5lZkIeXpyO7BkeW/ZOKCw7H4pr2O6CVoFbBSLDp0VIr0bvrr8umnuSgQ14CXzU
c4sBtxT82zvdE15hX30rNzJ7iRirqftUT0htUhw1+rkAiru4DX3Avb3ffEpx9iTI
ZoH3TImlOE/5S4g1RBuLU8KmrUynTdb6c5FJI4QnlAjYfODWOGtaZx8Y1EROqIxz
03OJAhwEEAECAAYFAk6oEN0ACgkQFbyDNEMDjYwXQw/9EURC9nUHKxKV0CKCc1QS
CLcwWzmcJeid2DH5Sscc5mA6CBGc34GteoFry7G92IXOD/Tdao7viRVYghcTWcnJ
oKYd9DFfyHBc65zT4H43hHN++idX4JlGZu6DNNkd4mLBqARiWeZ7VgBCvlmj+aZw
jCjjweHJHXR4laY4Es0RLPdgGwShKTe1xnjbJrff//J3BimyMKzNhOlwvx9ku33j
L5aXZgnE6i15fnVylrq2Oz3N92Oqu9mU78OoR+d+JGr6gAOmkmbUiIciImNwCmtN
07pW/MtqaGzOoeYrmAaTVe7t6oPjJkSotadcW+7fEGozXA0aCdKc3ggAt0tg5JLd
89igl6/gYJnkDRvKf+9nnJ4QQzTETWa4Y6CAyUX8lT2KqbxjuMQ+jUT3Qg/v63HU
6TrEJdGXjSLdy4Q/w3D8l5ryXH5txfRJ7n5xBV+EfdFbTISE8370J+mvZDb85ipf
vWjraHhdh4WN1D8WRhn0G05r5uJvycyIiXmM4t5wWUry8oE5yEjkuPXkPfQxG1OW
AUG3gG13h3yXioHOO/7QeKlav6gYoJ6hn1BOHNF6K5ec3qpE7cyDmBQ5GIfEUGop
zvl+f/3JPGqVzIwDPhuobNpJ3PosN97kC4L/BVn0vLgcythD2sj+NXQlOOg7Qyz0
3Y+iITOPayLDVXLLVatQYPOJAhwEEAECAAYFAk6oaJQACgkQfMb8M0SyR+I6bA//
Zv4Lh0cs+9mMP7fwzVPHSGXmXahElNB6xwH6P0vmuFvnjuR82nhbDPfP+VW1gb7r
4lcnHocp1fdLeEJvjYKDcA95D4pMNwQANWH2How5SD6yYmNmwBs0ViCrWUGI1M4/
qnGqBH1XzDYnuoizJyp4LKBn0CLRJm0XVTunjvll6bPgZOnRp7JnKQfI0CveXnrx
wkijeaVL7NDQJZkdSX08Mf6OMf4x1Ctyepr51O0R4DWmTW/2yfAm5dfGmR0wXo+b
PKlzaUFjXwhPEUJP8estHQj1+pQVCkkyiANBQxDZ5NCveivlgbhX4mo2995Byjsh
RzPf9kXRU6MXbMDHb3sPg9Jjq+FzXQ268O1N7F0CW56fmaWL9FkjNZDU3xwWLvHX
WNcDq+EGUdlzOMloJQMT4uts6wUdDkO/90dF5SzH55XwwlVdNyESoDroYFDudrlY
ZeINX4Q7a0YISUHnVTAYgfDVM94Ww0NEP3A2Oa9kkhQ9JSsX8NoW8/deuVEXAmP/
dsdYNvnDjCsJTLEHekkB4jhVWdN/3V3yQMBh1bp+XULSWNVoUvC8HtxZxwSAA4X1
3rva9fdNAXF9Kvccu9JO32dV4pC8vi3mL50RtntK65XKb7XP7JD4XsRnwOGcQ5Rp
0v6cS/eXvXiaxJAWTyJnOZv4SGF3l8VAb42XUv+equuJAhwEEAECAAYFAk6od00A
CgkQbLqKJDkZaP6HSRAAilKrILks/DfPY7o7wX0t8usdeIu26AW8FNsHRmwpqywM
DIDKigbI1LXP9MibvVREKC1+oJ/+qUjbR2EWeeINKtky1XxsSCKB8kQHuAUfjGB3
1/FT3KB69LZp9JxVopKFR0SzwfC+gJu8JDWq9BeuW9qJer2th8Wjg6msQ57hH3Xr
gvbfAkTHAfV+MKX2DF5I4sqKDggbsuKCkWoR6INmJT7d4vBGh4KB881vWlNQTMdn
ZExcNy9SIYjwwkfZqHwTUqY2l3jOQ1mh3xiMG4nGLPFg8IwnhOp0+FMmXzlhC46z
IlHW+u0kwfSbP4rBRpO/YAEUbel7Qeqm77A/V+/qLxObBhUeaTW7fWoVOa1a8Y+o
mggpDL/3+8jk7m5Eok8Aad4SOgoJLC87Yp0+d77OrFg7M0ZlB2wx1ERPacFSi0rL
K0S1job8UTBWjXMQmjdLl0xu+2S4kTKxUa7WaagCERUOkSndvZsAmWRKjKkLWXA0
4ZkjAMGyHuLGlCnsLjvOFJvN9xuGbcFCsZgtUu60nUgvJPlGgC4wzruTl3mCKcwv
RfwLNWzzv/pxwd196JrSL0GILOIEZZfvVoZ467eZHWux3zn1E1UjWjTHKbI/E2r/
RyGyhSUB5P9GHLbIB0gQPob5/rf9j1Jzx139+Jpv+c1CtE9694PvMUNIrSEOe2yJ
AhwEEAECAAYFAk6pKh0ACgkQG9Q+yVyrpXN7Tg//fj7neleQzpBLrklS3qAzj+2p
wLO1Do17kcsOTLYR6xV9fn3XyEKWyOqSCW0xUHN5q2FbkWVA1E4O0GnzvQjXrWQ8
kbrGUD9tqGQudJ2ymADmOhYqiIkyjWPaPDZS1TnzTleK6CPNvQZvt56Ck4+y+yWF
1a1VU0Wllm375IAH2Grd/PptaVBdlg8fPx9d3iBcmuK653SCAhUwvOt5CDGQZ0F0
K2Kd3XgFvLWkE6k+Gh8uOX0oBA+z+JEnMxzeLSIfWUUoAlk5PLqbyWtQ6H19qCUT
b3Bnu4QmL3o27NtLkVepv3SsvLpjHbl67RnSF+bdhAXOVonSL80y6tFqEs99bfOu
0dtL2zVTUFqaHw3Dt0u+eabAXe7nvnvlaciE3rwHJuPemfpE9izj9TOE1ZGCODg8
MCyHG4eUYs7kgXtUZQbaDT2DBD0YRkxetb+r3HV179gIFcPl6KS7cIEd/H+npjGM
6AkbEvesS6hLAwLDE1sOhanKcGt7CX4z4b1buwpWGd8MFkTyOZPHW2mpA96dMaws
tc1mfu9UK/+i5Qp7fAt2S3VKEqavVNf2XdED1nw7+K0d2Pvw12kmJ/FArBSrxeXZ
S/qPMYN/MAyfOF0nKrOubAp5c1kd2fOgnlVRhI6Gq8Au8Ru5Xg06HeMzYVJktdwf
8VaViXnhKvXgx0diohqJAhwEEAECAAYFAk6pYigACgkQpmLzj2vtYEktFg/9GoTm
g9mpgkr50ndIKJceDF4Amktg16foNm8u4dLGTpiymdVjsUXbG254x9rjumAl5fB8
r+RVniR1zOAXtOj5MUJbxizKkJ8Cnuh9nFdXiX5TtETNqdznrHz/wA2+9MaPi5iQ
GSP6JWdLG0vUL2RaBUuaPZZbzUTe7RHGIhLDzEx1zzfPnS6MzEy6K64x5bRsfJIP
VW615IigH9Vk+r2M3O+1xFx0PQHNDmm3VgzaCoyccQkPEiqN5YU/spoRtajuYiGt
SybaNrysb//nV8BB8VDo8U4yo09MQ/+Y38Mmr/6PYAAN7lPLL/EnE4HJ0xMmgr2/
PfOX7OKPotZogkG7Ep4pW3r66ApcaS2W3/O+y+ODkgR0MsC6XAk3ggDgUfv6qmsk
FD+91SaLOPXgHK30AHkGSvhT3Tdxz/xkwj/P8mTbNcQjique5DubIMUqGNlhp+ks
VknMOfbdDWI41DEpid/IdKI2SVWvVvFpJEChDu+QnK2UmPmx13VUQDQ6UeiUn14H
lErpvg0dQYPloPdyajk641X5eSvUq1/vnJpElZ0XIsIMY/PUIhHKxVAp7Fqur/Lz
YAXs6qokXqOf2XCrbx1y69x1pFEQHqHhm77VRGgi/LQSuNavHw39dXCTvBdxQDzL
COb6j3GSUjytLvHJRqOQFeYA1tFUtg+hjmwhKh+JAhwEEAECAAYFAk6pftEACgkQ
bDGAVD0pKaQaHw/6A0weH3ubJi4uMJS1h/Flt6Eh+EkZiSBqwkd4/H9DozEPOCgF
VPKCzlXTdgW228U7+5EAX6yH1JdBCTHbuarp6HmCHS20FXbriYHDkX9sS2EmbrfQ
jR+Ygp7elXQSb9BNZh4wsDBmoh+4HVU3Uitx6vWlYQ48Mp95f7zYvv5mTksHYtl/
zAaXj3n5uLc6hkK/Lk8/s6ciJkKbcFxTOztskCfw38CHy3PozM9taIfDC1fP/HxF
bsGUscJ8ZruOFeRAe3fYxyyV4iSKRsfPCHaZ6p2j+c7yn4EfmRU9VzJlb0Kly4J8
7+EvdCFjO3ZPniFNQW2PhX9XRqUco3bfRkDVrXxpGhw8bZBHu7eEpvwxlJf9iCM9
4pbbHGhTG8IHfSSDtRD9U3ZCuLWjOl97JBPo67/1A++uduLVPVQYL69thIXnzVgl
pdu5WpdRrRjKQ/ygI/XEOOp0Kq9erOYYl2HnrvVBB+mgiVa25UdBSVqjfP9Nhx3v
6eaLnpoqmfX2FUnCTvh7soQERayiUk8wMjvddsk+fCHVUsujeCATiFPC30RhDoFh
RGwMGIrWL4moq+WmU09Zp6WgVW+Wjlyz/w1yLwdBA/O9eMTwMT87X2W2Oop1spGp
bwo5wgRHVViBR2ijL4Qzs58I/Q3hSZDHgSjLx0O2BZhwF3/jqu/G7D4GXVSJAhwE
EAECAAYFAk6phxEACgkQpVJrm7PNTmpcHg//dSU86CohLvRLCvlhAILjzZbTG6qm
D68r+b13dwsQ+bgbg0+Ttvf57zajQRNrOab9aOeA2NlnOq7+JYiza4H2zQfdtoQD
ahnVJiRfR0tHsi523GWFnEETS2zdx8A2w7ojVvuZ/OLkNj4LnEeuYLuFIKQwbtgP
XYjvJQGNVqoCIV+/EQA+CgGe21cEv0nCRDcMhvVYWss/cSNb6Wncz97Ag62XmeWI
33CMWV58WArJjoon3rjuqBGXeQs52HWhT6CpBvihPoJCf7U0qFXiOQwVoDT3leKH
lpp7/j3Abg0pat0d/YaNb9WtEOzLtlQxSt6kFt8KrR4kihGMpmoiMvwCNGS5IY0u
4LhhPhYC9EAnWnwqTfYISSk38w/tKfdvS3d9XywtUzCywycxlSqPiBD+MrhOD0KT
1GNk6YsSgM70+HNkk8x1Ky4AGfgMXCR55KGjE8vCk67oG4F75mnH99Me7lvQIlg/
dxJToV+h/7z0bOHUQ/WAaXbw1f3Azmf5GjWrbf4G4oGAat0YFl54mWoOlKxZYdBq
rInx6nANUkibbr70MFpIcWOmDS+LVrZDghyYTg+XGbO9jJ1aSL3iOvZEDMzJhfEc
T85cEEww6V7hjRJyNdLpd60NV9meVJHgBkCpTxr8MXuBeZmYsWwBvEPktSYNKoA6
isvorc0PpO3QJp6JAhwEEAECAAYFAk6unIsACgkQqcF2zH+sfVaotg/+NplB/rx/
9UJAH3H89Q5YfSIRj0R8/S3qAcOV0mRwowMll93HtiJ+xR5gjSgqUobuyUBqW2sZ
KMlSrPMstF5RgdYm+C1bsz7YWfxEYu9MKBYoPhIcioIa9qyqPyB8QgqIU6EESlRR
W9KcknY0Hh09XtxjBC+3YbzL4Xj3rSSs7IDRu2ENxOSixhQ8WI8BSOKakUDtBxOy
lsrSTxh5HmbGQ9WaP1k7NaXD8BZNXSF/bcOjdanfWL2L5XpT+IxZm5eNxJl3biWQ
Nu5cZpHljD4pBpbLsnw8QOdFMjPO7gxN9IO41OQ+22uX+Y295ssVLxhith2qg//O
zXF9NQNk18vVCyZXP7SMXIOBN7NWPdtXs0jiEflsZ7ELGZH3EpxQX1DTXFHnBf4B
aVlFeRMjyZoUe/8nUjgnAhFWxGoo/CCoXzpcIpOUOgGGJKVCcxOsujoPy6qTXtD8
z6oV0i1H/C0TdBmPTGabClPsuUwv7pcquDy/4qhmdIF5GIOk7RsKmjIJRYuOTf8D
572f4d4CA1Pj+B/rIE56GL83G85Hm7emEd92BKM/zAwyGQg/4dPIheZwxGFt/sJd
dxLShDZg7HHFIrEd0HIqsM4ZWQSCVfKnC0loG9a1G2JJtblFsGiHoBgBayIbKejf
hAPgAKJsBQJV8ESmszrLsJKmqzh3KfwnDNKJAhwEEAECAAYFAk62q+kACgkQe5bo
FiqM9dECug/7B23OGjGISpnroaeaY/sqmJDpGISBVb+jy+XZXTU3UKkjj5ZqNk8W
PrZuAeaSezCYtKETCyvenu59GpABgpfF95k1u/bWaYWmu8u7ymSTtkJOlErmQ1Mm
7lVpuB5bO6Bo6Yh6EsQyKD9BY1WcWh4TboTiaPhWo9iGDcAG9eXVwyXF1F96nObR
3P4wzcj8dAlK2S0Lry/wCMkX6OBO1tdqSZM73M1oHFnK++8K2E4DjOHtkgZsg6pn
BJ2YPUZP3pB0FUYPlCgJcci4df9+yt7nWPfttdwXlGVEKiIpG8oEo5mARqNvY99l
RpAQhIyH0NhzYpGMHUJb7XLLZO2e5QS5hWoV6C+sR4mk5Eapnd6lwMsLyrg5U+r8
NapeBytODtE27TPOgLswwNe5mydwSoWOuBFa8e9kxC1jlGFIVhfopZKQZr8iu0PY
7y6k+HcZQGQ86/FI6GWcFVwdMfGcM5aMHTcymRE4Z+SjT1+0Kd4Qvps80LXrH6H6
B4WgkcQftFLi5dW3G6ybYkZrtUvyPPayTWIYsNE8x0WMSTolguw4BGeJYQ53ALk1
7lx1o0W+lCY5C8ktJEogFY4ZhlAVeLpXFfI00cTMtOAvrmaeIlyYvnweg4dqX7dB
uGUS64093io0XlndkGRhwutn0LH3J82uGN+GHz3Oed/78fJ/O561PhqJAhwEEAEC
AAYFAk7djD8ACgkQ0292m8EYBPAOrRAAnKu+o8nb+V4sbE3O+kDirwPtAJm0a5ej
RMpFeKObZukOIW6rolqDPhVwC81idm6b+qj4eG5oHPa/2r4bXxNQAD3Qmfd9XoAx
FvsGzJoYr4g8BgjxtfPc+B4jaz6eo8Hr4/s0wCOe2QJR7xOqG7pR/W9ErzlPDBmx
ItnhAcxvnmMjyKur4cbphR/lwd86nDSLFETvAi2/sWfkI3NbM03Cz9JLrofCHDgC
xGgUs8dxyLITimAv/SM2wL0vA1eO+a86JMzlfFTGGItEGrotM08R8j0uMPnbFgk+
g1YZoJVkmQkLwI+p5yliYWLTlaTzDvDLVdpT5c/1JiMC6ZKmgbFF3j+B9DSiC0HD
KI+DMNxTArkH4OxBAJJ59SUSsPz+6h9BOhPIlNlE5LItfG+UvT2sAU9jz/uKk2jI
MaPe2Xluu+SFUhHyA40+qLyeCAm+SZNbpuoAch3UAXky0pkPEH60gde1CBteoH6y
C2jaM/0TppGBosfTUMAusarraYYytWFX9evrAAkSlofPIAiowV/Ctpce40ajKo5C
ATwhY3XCn2au/YVm2H5dyukA/f5kCT9RXm9kMwzUP6tk7BlSQ6FiB2z3oj5//PyF
MUQ3fbgbTlGZpv+WGSNbWGu1MuSAfROPXEbtJCP2BD+PQlzTJqYvfp7MhxfV3XZx
htFBj3iX9eaJAhwEEgECAAYFAk6taVgACgkQwaRgcltRy88sRQ/+NaOGN8XIV71r
sUOPHWgCBA+u/2B7mVVNVL6Ndw6dCyoKvfgcbinOz656F9iz30qepTn8Nis/Rem8
XqdEaFHOCHm9LADAZZJ9103wzeTo9RcDtL9BTcTOkTKTQhRWgGmgTe2Ed1el6LVq
OfOg/tX4fN69fABqCksd1R7P9oNIISY2vDtjl6BB3zSFH8eOssDhn/iIfD07CA3A
kgtufpqZ4GltOCmGdhmHGAEuuYd7alZ7dksT8jc/DRjVftkWDnXxkvpWzDxU3Y4D
16ffyD+DwQqyZ57lifq6YlNE0UIzAi+JHzp1ezhjZuVheZedaJ4slQMoMLcGVf7X
kJ6Ka2t4qkgh+orySn43b88DnLhcvhIApgqnj/56Z0XSqAEIRDUKFZN2VALGTeDO
gKFEE5PFXeE28xwnKF91QAB3xBm0AQcpGdxuLtFGx5EodcJGpjlfcsyZkCtfwbqe
9yUYZ+4G7f61t/3AYu3pnIaQT0Xy4P7KR3cUHha4puTN+HH7GeaxD3dy41lDGbIN
rpPda9ETJ3vidxF+OGL9OG5pmr+g0GdjZTWcueN8iZp4JhmKvZoVbtJTqDPZ1iL2
sVkYzqHmZynOyyfJGi+kBgQFKv07Fi8mNAexoUrnjdb8ah+BeaWnqHX7TnAmhuSt
Ew/w71JP/YsKBs/7CdSZzXNkuuSF056JAjgEEwECACIFAk6S6NgCGwMGCwkIBwMC
BhUIAgkKCwQWAgMBAh4BAheAAAoJEL0lsQQGtHBJgDsP/j9wh0vzWXsOPO3rDpHj
eC3BT5DKwjVN/KtP7uZttlkBduReCYMTZGzSrmK27QhCflZ7Tw0Naq4FtmQSH8dk
qVFugirhlCOGSnDYiZAAubjTrNLTqf7e5poQxE8mmniH/Asg4KufD9bpxSIi7gYI
zaY3hqvYbVF1vYwaMTujojlixvesf0AFlE4x8WKswpk43fmo0ZLcwObTnC3Hl1JB
sPujCVY8t4E7zmLm7kOB+8EHaHiRZ4fFDWweuTzRDIJtVmrHLWvRDAYg+IH3Soxt
dJe28xD9KoJw4jOX1URuzIU6dklQAnsKVqxz/rpp1+UVV6Ky6OBEFuoR613qxHCF
uPbkRdpKmHyE0UzmniJgMif3v0zm/+1A/VIxpyN74cgwxjhxhj/XZWN/LnFuER1W
zTHcwaQNjq/I62AiPec5KgxtDeV+VllpKmFOtJ194nm9QM9oDSRBMzrG/2AY/6Gg
OdZ0+qe+4BpXyt8TmqkWHIsVpE7I5zVDgKE/YTyhDuqYUaWMoI19bUlBBUQfdgdg
SKRMJX4vE72dl8BZ+/ONKWECTQ0hYntShkmdczcUEsWjtIwZvFOqgGDbev46skya
kWyod6vSbOJtEHmEq04NegUDal3W7Y/FKSO8NqcfrsRNFWHZ3bZ2Q5X0tR6fc6gn
ZkNEtOm5fcWLY+NVz4HLaKrJtBxKaXJpIFNsYWJ5IDxqc2xhYnlAc3VzZS5jb20+
iEYEEBECAAYFAk6noj0ACgkQMUfUDdst+ymuHwCcCuII2YFF0LjiCekCWFDLtivt
OrsAoL4Hp9Wd12PQTURXvMbOZOxU8wpUiEYEEBECAAYFAk6ucL0ACgkQ31LbvUHy
f1cd5wCfazr6bQRr/oNU+9Wb1+XqLyvJh6kAnAkTVZkTq3SoY0GcpgI+os3TdM4E
iEYEEBECAAYFAk7djE4ACgkQ7To545NnTEBr7ACghEDI6YI5hpTnIFI7H88LzDof
2IcAoPWEq/Sd9/nEe2ixr7g6R6GYkLeriQEgBBABAgAKBQJOqReQAwUBPAAKCRCB
SuR8IUhU1qtoB/0e57TQkZFXSv9CBahMdIS+RwM5v4vLqFkF6Y7pxW3STKDygby5
BPJDCIEbfOgCimLqiKp6YDBLGrSo6FaLJphSqDCUcD32kEe1HbFviy5coVGGSLYh
DET+Lt/tcXMv9CxSQX508WnhRAYz/4iFEZeGTfFmgtK0kVPbgytlPqEJOsDmmmhy
8Vrcx9nCD+X0rT4olcS89XLjXDOjbMGMsJe3HxtWLCGItQTYMelAXS/BxHy2o3GQ
EgSZEtNgduVbgS1Kq9T6Ofl3axFzhA9Zbx/ctFc8PE+8S2+kDXH/VZOMZshEguaT
TRg2K7HzEkmQYooEjL2oJTs6SzkPOlQLPpaviQIcBBABAgAGBQJOpxk0AAoJEJjl
3MgWR7cqj18P/RXhLyTfIvQay/Qbmz2G1ufs48c5de6vJ097Ug6X8Kbe6+gToFTO
/SyWLXiBkaEasfWn7l5TB2IgCBIW1q0DBZn9UBWh0WINgXfTfdnrCypHCB56ZYji
cVB9qBusk5TbOi9PlkVEQIdpbEf4hMTMqWd2YNn+PsFKmkrh3q07pHBbGiXmhNsB
ULjV7PevCLpA6D9bRbajQRD2vKCVcyVj+otyjYvTHozLdq7PxwGKoRfNhvrY3Dod
gWYOmNrre743xZajuwhf3bPHex8//d3EjeRc/Mv50FW2NQTFgHYAtf9I1v0jvXus
7yNB9PhwgJd5dE7+d1Fz01otIeiRn+sRip7aR+ryBcy01NOAskU4T+FyK+alWUwN
IL1FS+7HPW8BLlxw4HpUbh9uJOFFiJWodyUnSLDUYQQu1sbUfYGFGY4If5VwpCyk
r8cBsOzD6zt7iPnlHdPWL3j5PVGQFRgLqXkGjIPMAKlduzlzt5RG2z9iGZXkrxwx
hbdZbexyGZ6XO6nPX8A9DN2yvddlrEIk3i2EEQnEkITYNREmC1dGqInkGA+jzAUu
HAtq4Ihoq6/qlZSUUbJEoC3Hd1sAURHHs22bwjw3mh15gjQN5vy9KnC/Z+s+TVEX
bKhymxk+e+x91edNKCju+DQlzba4F575ZB54bsf1tjpQAtDzYtLn6vp5iQIcBBAB
AgAGBQJOpxoBAAoJEHNBYZ7TNxYMF34QAKpmJPyhhpyePZaG3V2U6pHDfEfHnPju
AmpYB6nKRxXsj9qHNjspXQ6Owl4UYue/5W2dsCYhSK6R05vvQILaulFIF+rDGxxH
q3XJj17CDskMKWBhAz3YJLZiLy7M8GiZLymxmsLZLit05IcOtQk2U0B+2KTJFGg1
V++3ktklRhljr6IoEbMuUrU9bljQA0hZ1/HqPQEFhwocnv0gjp9xWTyFbyOAOdOv
rmtamqp2AgpvkfO8Z72nd7HnClpN+9IsSQXCbOZX14rKPtAHpVCGzhSZvhIbYqWS
MQ5lpMPOBPxyCuqK1kJNNl5gablBkYqwzgxdD1ABX/pS4OftHLQvSVzrZJo4YGKn
Ce5hgKIDWqV3apYzJfzqWbz2B3suBaTfZmSl3V7w2Yl81i7iwMLEc01nWm0DE/bx
Y3pKj6FnenjWSKjYVGUfE49YeKq9UTj7pVjXPUqOhkXi5I50zfoZ2dXSMU5Uf8ls
BrxR/M9r5iimsL/72l2hY8SopJqYwIRxO8sOAdz0CBJRE1PU4xfmDLSIfW0kVOgY
zOlAvxQitO6hhQgBb/z6iwPYvetBbKaWV84zygeZBLtqD75LVha/g2d95crWfhUN
pTS4ipM3DuAg6k2q+qR3ejdZKHJstR7AtQeYIKXKNYipmMLl+wwmyHlH1rJoQ0bc
R98GhhIOSfF7iQIcBBABAgAGBQJOpx/5AAoJEPu3V2unywtrDm0P/AiFMFVEwRJ2
sethFlhK/2WJK0LiJyJjJv69Edjz3ZGuJjc8fz02QHUWSsG306q2/4Dow1Uys6Iw
J97yPlzzcbwOZ/pWgCyht7QlL/L2Mg26n+pn0JV3WPwmygBma/dR9wLZVybCig+9
tdLKEFtSnEc8zh34jUa0JdkznF+FvA28G9bG5TyYK5wH8+avDpPwM18Ox3g8nucl
MfpCHG0q3n4V6ViCzcD2HDyIJmgLn0CxqTkvia+3ztstyjiY7Al58nxgOq8bEfZ1
ib2Xg3md/UPVqV3v1jaW+gAYQx1FaalXKBF44TzBuywWZIcMvgN9PaLgXfwCuaTC
xFVl3l+ein5B+pSIhm42tmAJeK1IFScHLMnhQ4KZo7z9oBSY5PHGBNw6FVAfuUh0
3x8YJHn6C+SnQTI0svhxxIKUAdks9xCCbRDDfDr4fzS+ESY+Zjyrdh7bRolmpFgn
ZpCQwy2Ocr61pnJhhSNYlNG/OgDxl8gQ7Ac6eehDckug2+zzPFwtG7D0YmofVxNJ
idxBRRoGXqa+EvMZHpBZ9FUHN71Q90y1ffE2n0iiHAgt0SO3jl2Sq0+peOE3t6YE
WEP545Lhsck/HIgqhsIrVDVJSzKFd4YV4ptvni+nrKGQJQAIkh7l/OVExUYWiWu9
f6U5i/rmipGc6qZRg+uXUvB5OfBJSvVNiQIcBBABAgAGBQJOpzELAAoJEC6na5wr
Rm2disAP/juiA1NNF6G3HWdAIxMKrEtRNAk7ksc0hsUenjy+CEsSTMt4H8FyGqWu
vQ5d0UjgbwSs5C3myPKvgbBuABRRlR/uWvXoE9kfyxATbFsQpvFF9CSaHurcLk5n
Polobz4BEOSI4IX14N6FUQ2LMKZ9t0YJ3AEY8a+HMiisSvo9uRJA0DzvyQYu4+XP
7U+rsWB3H043Vq0ZJIVmMpI/yQS5PRLRt0dnXYwADfj5J0OVASRTOCUKrExkacOO
YIKZ6LP77M+Jsv/oPgNZAIutEmtXYmNx/E0/SkCzLaMlKdaBFFXWRBEIP4Gl9d0O
mBbMi7tdv6nxk44kAVQ2DO46UnTfyzrvge0zPVezVKUs3Q/hp29QgA0WeEQ3/HTc
H8QN/EmAMdgtqj3gaML0HTZLrjbHWwMU23fufooVG6Z6kJnnnLa0bTT7pT8LGMCG
CnoTd1YvAKlJ/dprL5Wodo3iVGNEItna5JPAK7ubT0UZ4BMohjIXXooW40UTKNWR
0ZEk+u992zmQQj8PrbeOa4CATYKSaLSteR3xPJINLO+wp4KJtW0ppLP4Ja9XHy7f
hwDuJb3UPEjd6u0G2A4sAgvc7v/NsnydZ4d1c9f052wvKCAB9fj0Udo2pWy4YMxA
LlW3QFz63X9kwGun5m6qXtITmD6bL2ONZacxqb7lAUhmuKFw56hIiQIcBBABAgAG
BQJOp6JQAAoJEDjbvchgkmk+gw4QAJLyOeAscWt5COBC8p7Xv8BsvaSDsfgh2LCs
wApEeccSHbe6/xesB2l6KlOidLztWpZR1pt58Rt5jllOuiZM++9uLvKMCgFrcPvp
qxF2QTQ8Ooqratav/oSGaHbpW34pu01YBktNd5+Bc6stJLSGlrSuyGljiA85ewub
d4BI8PrD7f2zrYLP80Pt3zNnrYTHTIoVClbHCM3eFIwQ4XSEdfhKCfR6FbXqFKby
tKyPKTnrelDoVEscuDnB1/1JmsoOD64odDCNAZEQWuZxRSV+il37fOMxd7HsFRVO
V2XXH6nWZlntbuoCBD6+xRrfe40Y5dN6UneZTLbgQqTpg/Z9VEfxPRQiySGg/M3R
C0Nacv8NY5zGmdQhQTVH/IDc+6o/PB+w3ooewCaoYx3Eq/6ouH3bA4VZBvDpOw/q
9n1LnUN9oSEG56YzflAUUDDW2n2JwI7RCjhGmm7TpptbihNaGKKIG3Otrz42OBwv
MasGToBOHA6WpdvcUQ8OFGR/ZoisqjKiElC5SWuUAJqMxyiWp7jqXufT0fAjH1D3
+1PnjZxWYT58CkCIezX1uKruDilI/Z6bVcHbgzBmClf1NhSnNFYoXpvV5lxSwpbQ
pUB6CE/jV/083qtBUd3wya730ewcwkROVcZLk2Bi5FHNEkjtidraK94XIgu8SNut
AlYL6fdZiQIcBBABAgAGBQJOqAplAAoJEBzlCpMIGLqcvPoQAKN4ydoAxe+VHsQO
J/JCfnfnGhbCdMy3zge4MykTD2rfqY8lBWaxASdvLaKVMcCb8KyYA/cryxLL1ODa
zFHUG4hmaAubkNMdeA6ZoRtU87H/8tpU+2839pBUGmWXs3tTKGArlewVSLsyGdoR
jtD0QJMBBDyafnRVrstjrW2c5WTbOsUyLkH/fwmcJ6orcpD6UTwotbytegLb4pYl
vvzAZZBXZgSuiK0G95WxTnhocMuGGPLAWe+Zfi/KjyHyQcQ39FR8uaXKTtN1weZi
sNtS0ypOM2Kr97s3Wnc2rAmsqW7l+ioC4QvjjU1+S8oaUTtzB1b0L27eiVExRCJj
EUATaDG8/wGFmEVsUXexiEQFCeLYFTpha5iIICNoSIJEyxglL39vl4ZBXeq0ZdZu
6i+qhWmVXR67sKlkKVJ5t0Qov+W03TwjSAyBY7ulAo+jMui/TPaLxILIYcvent6y
k/6QTHcnjxNuYPh2n2UONAS+MqxUDqPOVg5PCas37kEsp+pRAAUajD+KGPZ6IMge
gOtWKWqDAn5XtoUqFEVVQlUn3lGkG3lQI4/zwBkfiu3njMyOEMc/VbWYGI2LItVs
dN1I6JFfozQsgES+b9GiLc+c6lZxgs5I1F7LbAoHF3ZacoSWY45E09RMZIvetnhN
ImeUIFXBy4JzPOZJrlwwqEjP8E2+iQIcBBABAgAGBQJOqBDdAAoJEBW8gzRDA42M
J4YP/3XZ+whNpgOUTOkoY1Ydvi06SYQDvUQkvgGtGUQwZD8gsecUMOCroWr493RU
XxaofEFsdOrsXwlhiUl564GGQoD/+XxRmBRrFUW/hKK88SNEa0clLFfgZ5xKfulw
VlEfQkSDnugtqUR/55NCRK4fG/C2hgCvGWzQuWKESO+DEOJlSjcEb7arFRh0tBiP
r9YnMbtsnyxTktZz7KLE9rH0Gb5weYNd06Bh6rhU+9eXQxdpCOvysYFiw7d7JGpC
nSXqmjy6BZUdx56spZJ7Dx8NdiqHbjQxqf+kAobU0ayll06xvYHUPp8yRw3RN+rT
iajUAV9bn8nR+4a0NT9vSDvhxxIrPHlHkVtrkQ3nM4WkpJWbKpn1Fe0WpkxuXlTA
7mboEyv9keRMi1dsvIVyKWAIFkb2JEa/hLyffUBENnFbmjqnE92nZEmBbRKSAAnE
Lz8G83c7DIZ1BGIl7tZ1izmPtUgP+pozP9lfTw9TPUE24r9XrhIx5aN/vxiyufX2
5Gp3pkbh5JEhcYkcPa4BbkpWZffGvVpl/rRpcYKY1neOXAEKYAP+UjdhgHfUGtpu
Z0VOalfn1ndetHxs4JGmRwiqKaKZ06g/7Iy2o/efoVtufMxVa2C8Q/NWsp4hs0P5
Puxt0RtarisuzmbX4uhaiK0VBO0WkoyYQcWvQgRty0uxfbxsiQIcBBABAgAGBQJO
qGiUAAoJEHzG/DNEskfikN8QAJuhV3WzyCLo6ov52+aibv6QyzoeFGrVCwSZ2HkR
r+HWnbsoXSm4Gkl72TtSHJ6DJQSqOTzjYydmoLW6p3Wgge0GA76XL/IByY9PhQ3f
fh/Nfe+yUueYN1VvP/u094dIzDXFC+sMBYthbxJKfT8q1YJOIX+XZwMKecl1Dbs3
CjMvMHJjFGCwsm8JGcpDGQ5u2neKNo7k1bn5Nl8bmOYHaX4So6+Znr4w7PGmzMal
ol12JROn0rlvsZIjbsItUc5lIJCPQo8+weP3a3zzi5+8dWljMwiQ1f4t1OEoJ8Q4
A48ZZaaHAb5HcuAHR5h4NABUlN9bmuweEktjscnzZz6GlB5fGoIKoi+tcAAGWz9O
vikYa0EizU7f4jXYiJ7mi/wtZLmnvmTswXoS3YdBk2ZCl74KteEbHMdQ7oINFiC1
mRg26ld85VyBF5nL1wxuHqQECs/Mg+zSl/WmuTHRBXJCVnEiWGA1YVK6OSiKbyDU
eHV25JmlQdavvDjWQHUDreMMWjp8FsYl5va8y3Tkd/TRgV9neRJqM7IFIyhQUBv8
eR4eW5awhG3TLkon0Bolm3BV2K93ONMHo228OS7zsSD7Sb5XGXuDSUVDa1pEyWGC
xSe1wHSMSV4hEy5r4ErL+ckqJpVHHXcDgWm4NcjlGYJC8V3VYKE34ecr3oAoVSkN
/MVoiQIcBBABAgAGBQJOqHdNAAoJEGy6iiQ5GWj+ZuoP/0MKncHRMAuN84AHm7FK
qbcjnlZvCyE9t9jCoC5drIfhcapE53sXlB8Uv6orntCCya5aLKu8lInYDjbOFyRc
H1ox7r3MJROs7TD1cWn76JzmAhUPBD6cGvNJZUkHCpzdqIXknb1tpL3ieYwrouL9
SGE7Yx34+Don9ZCqUh1bShis1T+w7G1hWpn44XyPVG7R80nxm1xYRoRkMGye9ZCi
0eAjxgLO6Q/rh+Zb3r3XxSE0lroSxGL5uoa6NSKvOBftT1o8PLBu0egUqT4GcYsD
nyVQwoShyn4MKyLeRWFGVZ/EcAEQO4UYsE5z5RvvAZPae4EbFzt3FvMNwRtJKy/N
B3SCWXVbGo7+I2kxOEI735v1MMakZZgryA+pDyAZSJbd9yjiuJmNNgM2d4Ema8mJ
jH2P4WVC9naahuHQqLycxx7U2j1DdqUDRfzBAbu8cvZ+6ZYIB81E9xvw82PqgGBZ
fWXjbeSpGmNjf3sjGOI0oPhn+VrZ5SrINcJZ+oOyUIifG8Y+Phdn5p6R59BERkGl
pbDGPO67P9hUBdCqwH0iasH90hd5SF6Oe5ZZIOIXcYQgaU9zp8LWLD2cFEGoireN
XgnH4cBLrnDKq5zZtpSyYleL0Vzv9GnQ/+rttNq9ZuMfG+cnM4EelYCI7dLWUalz
YYvp6EYtbV1URq+T1r7bPyVViQIcBBABAgAGBQJOqSodAAoJEBvUPslcq6VzwCIQ
AJPhkugWQtja6anCcvWIU61WLyOHBaU1nLk+pcNc5o/zYItkIZzsflFIVAAqBsA8
EDZfz2E6uzVOSKNeXo1jwxWjM2ytDnvhoWX+VdLUAtPac8SV5r+czG5zolMrt804
tTsW/D23ef4EvVHdJH68EJoowEaebE2WkqFFaDgB068HR1CyVbahyyfDd/8gH99G
xdntephRN29yKsZzPcif5GJGv+gMz64jE0uKELSB6+xWkAjJFCeoaBpHsd9EhHn0
Z7evZNwhJIsMlRTikMmykPM20vS1m7k4N1nA/GukT06eOBpMMoOKrImyp98ZnRv5
eo3xmYAAQHLmfDZ0q4SCpRKEkIPX0AIdPZUL1PksDzv+MfE/KH2vb7PvQwqsNl3E
hdsYp8566PgBrtLOK0MYVga39OBL8Ee3U/cHxO8Tv3rrCjsZqQwYinP1XuKjyoZS
3MWf0FcgDID+8KgnPlMzoDLvWWFUYCcVJv6KHFuFdmVRVbu+XTuMLhOqAj8vJ5rx
e5t62nVgRAX7czthlqAWKWdc59LBA9y2PDYmJ2BaIGlHU45DAdu+1Cl0Xq+uonzY
Lyzq9uOOfwOP+cCfMGbnkAt48lu9mg2cTvd7K1WqXmYLctvnmvTVzfnkHvGRxiJk
kAuRkh0nEgpYDY85DY1ejd0rx6vvwmYcN/R/TySfcR21iQIcBBABAgAGBQJOqWIo
AAoJEKZi849r7WBJqY4P/RZouMH5OA34FbjRlXSjUTUya8VA8TGO+rBcTPFYeqLw
ZaxHDeVdWE3v5V6HVxlWbR5cH4UrclRzgWm02tBBilyD7krYlfLgRqO7sakB2nfQ
Yrs099URqAXMHNdzEGL2jiRbZkyqxP3dp+ClT+/v9E8WoH/S4a2U6YzneaAnU5Em
7VQ9+NAYRKibX//x8N+5GS9MMmx7qf5NWubfgOJ8t/5PSZNApXLvV9+CJjYJjobT
iJ8OrG3b19BucR7f4vbuuWLz9ntiSyasUyWQ2D6bMReeMRGFIlCuu26dJECOsnNC
9uHd5KK4o2p2K5Gz2I05nTgwIHIibkeYtGrG7VQeiHBSESx7zsbbCVuKZ6m+yNlg
jgIyle/3q/ecE7n9s4ChEoXouLVLY8/N1dVPMbna2IyijfkGsnv9t5o4XxR+d+Zr
gZrUZ9WNXnjoUbIfUcRjAaSOlOTJNB/U2GDdhZlA53zPUi4aP9zF9btwvHNwz5A2
nu37jxxYUu9t1RUe5duSKBoyCMFlHxvtl7C1EcAqSxe7Nb50ZGmWzSS9azYZTE/B
8WNj1pp9g+8fo8TjsJZjB5FERQmhTo0ODJ6KOuBji5BVJ+qRII4XlOccVhaHLCxE
p2mXqW5YMTSclbZGET2kCbQ04972BddDdzRd++ZDj4bOnkACboThgKYQt8AxPLFX
iQIcBBABAgAGBQJOqX7RAAoJEGwxgFQ9KSmkGggP/0T/WnJKTWXG7urHD+W+K318
3GwXWChcVaPKqhP/RJ/IXtk0AYaHzzxnKkiLM74UaHV7JhEDY+B1tDvSFAGfXtxg
IWK4WbGJ0Vs0z8f2HoEVviuHTtl3MrNyjgQQr6DvtEDZqhpNPTKAeIM5ht4JccML
iNfkeF/kPP7voWbAlbjxDiHNVEmbJs/s7W8jyv4JYNeoL2BnNUX1t09ZN/IIMWE7
PjUCdj+gxXEes2MlgEBRq8qVoeB7PhARn5fYhMEakeHZH5ONqhhCjnA4CYd7/okP
7ilPft2FQFu1j8TEZ5qJnwpSz+zr4YXTyeZ7zDx+x7aL5CdjuVBeS0xuw3nVKenG
mwEy3CdrPr5Zhuxwc4SvBPU6JWTS1OfhIsqW06mVWhhQLsCo+NiFPyhHffG664gP
ClTAn5JCTxNzY695Yi1L4MuG811UyE55Dru1IgpY/pE0p2JiWvyLyTYljbiE9i3V
3U8W6KwLlgaqAZeFKzV2WNG4Z4uFSqcbBcSP847+imL0ef0dbU67ea1msHRnTZCQ
4D25TQfgR76x/EPYoSNiWvcy7WTR9Ndv7tAarRwNYc6Y0lKXPwbW29JO7gHxi7FF
zELg+7dlaq05+macs+NmGu0vj7nEIQhUk7hw7RrD15sUtVkhyPgYKaSuDE3cD9VZ
lOqV7h6CbLz5nizv9rHIiQIcBBABAgAGBQJOqYcRAAoJEKVSa5uzzU5q/8AP/jsd
Jd1w5UVHmOAfLvLYtryUzQH3BBvIXsesqf3MNfU9/NkgYNeXHrrSzQ+Ht1/130Cp
XvARmry7L809JW6r9Zi6I5rrD9pY2Aoz1aSrsTW02Cvmb/vSfcmjTqC2SMv4EOcf
52QJm2f0Z4QraAY7aBGhnKzXg9k18QvfnfdXk6ga3drWtw1cVtXFyu/F1dOjaaK+
EvSCT5qAVtBzUkGVIrOilP8X0pwj+JFPCR4enAUImZdIdkXOn7IRZwFnD2CFwC5R
lgRoZBUZfFpCn8Fpp6Cn8Z4Yr210nwgbLKbZpr3mrVJsE2n1tRuFWNcu+WdAWSRy
i82kKbDMqtKUjmCzfDeUjgQzNkE7iUGzJAGaU2uN7zWxqr4gYTFyKd0X3+054kDY
hqmBH6k4Rst5RXqVjukn5Z3IMDPC2BNa75PV2sk4Cqz+TXY1hxVh+aXuWIqgULc+
l88cQspcuJAZMLdHRRGz1F+UQIOPBNnvLWAEFaYaIJnJ/GWGpGkkP+841bTlRF9+
uO6Zroj6ri1AR7qgclIxjuS9ZOTXmqNRsWFqPPyumwj3U/4S1vfMgFYueEIghbzL
AycOR3zpazlpnM/bk6xiuTK2Mwn/VO58/En0J3+pDc35yMDkPXzLR15GmEv1FNXd
D8/4XKKpcwdt6k+S7iOK8XN5wVQEk0N2YMD/qTZriQIcBBABAgAGBQJOrpyLAAoJ
EKnBdsx/rH1WtS4P/3rDXPJ/rnQtbMxWqhIAfYoP5mCE8cVzUANLd6ZHJPxQkdal
rHYshn82bemj6Dbndjtxo8OGIpYHpSeJr3X8B97Wm7Q+5XyIuj2XT0nSJxBg7KaD
HW5xLguEaEz0wl3jNoHl7X9g9i8POpJueyIdHbg11ZcDqLqTOfXd4wC9a/9Qvhsb
CEfk4XlLw1rNhmANkrJ+rJlg3Ie2PqUoFcIXXITbwHNyl5/wnmTvmJIfONdycNkj
Q4ZweFcePxzGMVV+2FGCjQ9xamLERg6JusKHeldxJbKJv0WgVkWwBphoi2TTyr1p
sfYw26K8kHJu8XnH0zJdr2on0YcgoXbkrYxmZ+t0sZBjRyJeyBn6BuQ1NKK53qHu
KCf1dETYNlHhDHwZXD3AA1ZZUY2W4MdE0fSdmmmGC+vF1eWu/a1eHxifbcakMTbw
cV/By2PmOmI5lguWWlnY6wRS9tatS8nf2px5uzoJzIY7/FLlyiJW5u9EsLiEoK60
Yxsc+62zqb81alysICARaNYvW/+j7ikKjC7R16FmvcuB51Hzv6DkMavjpPR4hqY5
pWLncnMcmXZCnjZCywfk3c5gwswkpUN/kdaVpI6Ljjcx1q4tBaD5Hf2APayOHUEN
USoqr6LW56jemSm3PP+4ysZqraz9Zd7gx01UewrNtfRtntAT4dI5YItAqKrRiQIc
BBABAgAGBQJOtqvpAAoJEHuW6BYqjPXRvAgP/iUR4489UoJnf4nEtMZnads8J429
geGTuBghtJFuym+vMKAVCD4gBKNSfmrHRdVLCE6pXqyKLGgjBTRntAWkfevbiFvq
Et/uyzfbS2nlShsjthDJpdgEbDNVAXYrWSGHT6Gpsh9YYfLtxAYC8Pk18t0icG1k
/dovcYnMQUqvKc+bGNaryjDLIrZSuKNe00dRndWKGWym8c3IC2e/Rj9RU+gmzKsS
+Iv7Q+cdDI4g5AFBvAbXzsvBAePk0+f5PgK2PuMO7LfnDEb0JcHEWx/0HvEu6tUt
NRzs0Ld3PY+o2OR6Ze0oHo23T6tSuRD0nd8803/GRkxWaPDuh/PbhwbR+if4X/Wf
fcHI0T5PyEj/eq3VVpUZUTc0g/VZOaucn0qImooAKNBPopqBrhBgesF+PcurAJMt
THx6KKx0C1ne66sNUd9RNEkaw7Bb+xplzhdEV/SucHN06AiE1WRdcwCG6iexoHs2
R2oQCoYZ6UXZSvlbzQmufNwWWRQkPmwEguPudgZQJ4C7iQSR0looVedSB5h+QMef
+v2s/kF9ZFmRnH0Fo8AsP026LrdiXYwkqXw6OE7PHA2GIUX7599b+/tDQeaagkIo
3fRewLUZ3ZDKGH17tbAMeYTRdC38ngM9/kDWA9VIbvGmP6Caz7HNSV+2h0EjQiN0
9JnjiuX22+OvEtOmiQIcBBABAgAGBQJO3Yw/AAoJENNvdpvBGATwi9QP+wWOi7x7
xlD87N9zzN9ni1dyjetRjHRKMDIlar+3gPDgZ1KhsNu9d9mLugiV6yDsJeR3m78j
1ArhdfRcSZYkwtoxvqBa1o5+UgeN49EH0aFstaq+YzlRaLLjCAq7diRjgrgmtN7C
6qVraEu9xrWO1RSnMK8dj+30GU1GE0gMjgny53gtAhZ5q1dgTJa3vgHd69LqR/iM
E8r9DYJDEm2HlFiZPIDssUJUQIBmR6DyuCpNQK0wChp39UPZZ9QQvddwu++TKMsu
D9rU42EjiemjsDVX5gPAAndZisWFCRgZhiPdCtDKY+8lwOEKK70k1U9aeowHY9GC
9Op+QB9RYzrfHaBR+jZjqosM6w+qxk8CrQfuBw4Ve9vbsp/Tv+oO9HvMv23o9Qs9
RE9emjgN/CYoHN5m9+uSa0iFm9d8o5c/KPeTlbKDIewDXaYyG+g5mTvWCw9ho9NA
KSOM+S7sf2AZBzU0L5ckBS1M/qtjNj/UcoEmjFsbUIVGdOzA1wRJX1uAvZ9ZNql7
2Of+Wdl3KKi+cfZJNjjqNfg1VqRou6VDqca1R/MQJmS9jtndrRLLbIgd2zlOsB6k
4nBR7X1cCvTZVnBAJjMwXn6ri3Zq9R2cfN+XiBEKfJeADadZiovbs7R5gyg0AJls
vHSqsVURsupvmh24zgq4oovvKtjOjqq0jbTKiQIcBBIBAgAGBQJOrWlZAAoJEMGk
YHJbUcvPDsEP/0Hu7A0hzbRUVEWkFsL7QlWlGyDujF1mnQq0dhv1upKeuIGbR5RJ
mxkLswb49EEZ99uYPJW1rxJLXMinXOO5IBVYZ49WGye+2JH+aVcOjZbDyT9Zo+ka
F0UTJQGv8Q5l6uo3nPymF/POSOH1stz8W378ZOlqsOUOVCtK13H2p9x9pGYhoumJ
tdcMIUsjMsm46tQq5T67B+dlP01Sh+IyYbfmH4nV+6qQ5GFKC9nPHkLp1gc9+YIl
3ZmAtwuWPTIrY5pU3SjiWNhe7Y5AAyU+xyoIr4Gob3wTcB/E/tRvdThEOuMbk9UI
/RNHhvw2Vg0gD1WfM1LSiPZY0myATDzQGb9WB2g8Gp76MhE4sOlqVMFhQgRCssEM
6QIswShOzKS16OoC9oCFWBx9LccS8NEJu+4ZQ1mFqfg+o9ssFrUf9v9KhQUMYS6E
XH2MgVaGKeYZFD6wh7C7MwNxH1mSL/4Wo0IVsqxQfrOLy/lXLHSDEBR4vQEfLA+F
SZ5btlKeoyu3v05ROq54717r71oFoJBIYZSA2YrjL3ypob65+HbOhFHbGrE3Efq7
g8EA8xFMa/hqp5Gtpp6i8DxGv96qlrYEPSBKTrkzdrnGz8CKUPLxzgsdFqDMAj0g
WspJGbY8B8wy/huMttbzBFLtLU3EYvp7sk9QV0DYdr3xWbUuM25wGBHBiQI4BBMB
AgAiBQJOkujrAhsDBgsJCAcDAgYVCAIJCgsEFgIDAQIeAQIXgAAKCRC9JbEEBrRw
Sc1VD/9CxnyCYkBrzTfbi/F3/tTstr3cYOuQlpmufoEjCIXxPNnBVzP7XWPaHIUp
p5tcweG6HNmHgnaJScMHHyG83nNAoCEPihyZC2ANQjgyOcnzDOnW2Gzf8v34FDQq
j8CgHulD5noYBrzYRAss6K42yUxUGHOFI1Ky1602OCBRtyJrMihio0gNuC1lE4YZ
juGZEU6MYO1jKn8QwGNpNKz/oBs7YboU7bxNTgKrxX61cSJuknhB+7rHOQJSXdY0
2Tt31R8Gdiot+1lO/SoB47Y0Bex7WGTXe13gZvSyJkhZa5llWI/2d/s1aq5pgrpM
DpTisIpmxFx2OEkbjM95kLOs/J8bzostEoEJGDL4u8XxoLnOEjWyT82eKkAe4j7I
GQlA9QQR2hCMsBdvZ/EoqTcdSqZSOto9eLQkjZLz0BmeYIL8SPkgnVAJ/FEK44Nr
HUGzjzdkE7a0jNvHt8ztw6S+gACVpysiQYo2OH8hZGaajtJ8mrgN2Lxg7CpQ0F6t
/N1aa/+A2FwdRw5sHBqA4PH8s0Apqu66Q94YFzzu8OWkSPLgTjtyZcez79EQt02u
8xH8dikk7API/PYOY+462qqbahpRGaYdvloaw7tOQJ224pWJ4xePwtGyj4raAecz
OcBQbKKW6hSH9iz7E5XUdpJqO3iZ9psILk5XoyO53wwhsLgGcrQdSmlyaSBTbGFi
eSA8c2xhYnlAZmkubXVuaS5jej6JAjcEEwEIACEFAlW3RjQCGwMFCwkIBwIGFQgJ
CgsCBBYCAwECHgECF4AACgkQvSWxBAa0cEmurg/8DISxLLXjs0Ey0fBq4zUtkimC
a5+ZgmXqcjqX6YgiWf0UCunr+Ud2AVWokp+bmgFBKivpYePifEXsHjv0eRjdL+nk
xFMEHPTN/NA4QZdKPn7s3nQspJoXW6QbOufy5fFrcf2PJ6cIflSmGiqWXFu6x65z
Qofc4VLTyr72cm5uAVJlAHjVlHy8EmiH28xSNahaECl2e/nuXlFVjQyfwbWK5Riw
jaD2EeoxJv58/D0sPbSUnROq1Jc8M3WINAlDPIrkzJE27P3fTuhoByNucfBfbn9i
BMMJX13Nnj0tCu46oivVHOJO45zIMh2MWM4RERNq1uhcqi4u/MvB7szPYRny5gve
NXEgIe+81mkw7j3CX+Ea+pJ0111hL00Qwa97RilCwxGYnewcFiLma6MmJTUK/Ewa
zbYy5FIdKq/AaDE6GI3yjA0RIkSQFCg/54YEpCZRBrHvf05aaTJahl5mmJSzrP5B
n1MZUTNuNUtDyQYx/PNFazo2MtUbZ/+oLaWh3O71RJAhrfjD2HbruJXirrEClz1Y
KMrdEn+L1XtcyzLamnG444hEresLZHgjZIYmBsjc4LkzwY8dyopyIgbKCf+2AXdS
SxsEpwdRzKH3n3vIA5k2895y0q5Yreu5051PfQiOk/ApBb9EVXca4ezUDdAmVbQW
auEUytvWwUCcFwXvcoq0IEppcmkgU2xhYnkgPGppcmlzbGFieUBnbWFpbC5jb20+
iEYEEBECAAYFAk6nojsACgkQMUfUDdst+ynMPwCfV/KhhSoyR+Sw7dOcN5DAl+So
GYQAnRsVbrJus/5iTRcxSES+N+6NoF1OiEYEEBECAAYFAk6ucL0ACgkQ31LbvUHy
f1ckCwCeK90zAhM+hs6ffSSoYeQwYQHc9B0An2HSDPHHXYg2+Am1PkVHc1ZkNgG9
iEYEEBECAAYFAk7djE4ACgkQ7To545NnTEArMQCgjccuJy9biWdxyB1+CUZACgnR
E10AoNsAV9nJOkomhFEyX8WeyOXhxsVPiQEgBBABAgAKBQJOqReQAwUBPAAKCRCB
SuR8IUhU1sDhB/9mWyo/iYiYr/PsLg8+KFfmTOBL0DcQysR6pizQgRnEm97z9faa
AoMZMySHr30ZkyhCyIeBJvAg2DgUFefV1OKFFW+ffvrPUSi8kphdjwB/boH7csA7
hgCuA5KEWa/ucvdpIJrKHwwYNJsaLzpKVdAATniAAWAVyw0uz8WZu+cv69jIf1MV
Qmbf6XMIIEQzwKIK9NJFyQNV1FZDdYpgyrBtzcQMWa2pm/cDYyKIGuHZOEBgpljz
c16Y85NABWpdZA7WTGEXtw0z5VFZrO6lthtlzH3Tczjds/3ld4yjSR2aN5ClYpKT
qk2kMRbXiZpRCsxBgePoqXSulHslNDJn9+d+iQIcBBABAgAGBQJOpxk0AAoJEJjl
3MgWR7cqCAkP/j4nGwE08W7B/0EnAnrpuJVlTzizt5BYoZL76WPdEISmn8W/VSpi
DGVZYo+r8ep8/8ypKNSNRWgprfUI1WlGcjhaqtcXSl/9/uYVI40t1+U7qHc22fXu
kdBQsGmBwHNTvT84LXmBbfzo4LLXv8PmNzs2cSoiiFuxE5LOkDnN2lM7qv+7Umo0
x2dekcd/c5oLWA344Ng1K0JhVXeZwx51BS9E3yiigKnRs8fOEm2S0mp5xFrnRANa
5n9rLejuJMq7Wl+uKrJWEoBiIKYMpNcZ/aTIfUsDCHS5ms1LQTg+C3DxoR+jMOmH
BxS0XQGUpe0vGrQ9BqgI0JUur/IudQDAecvljMSvCr1BIf36kmE4iL3IagEllDDN
eHK47cTqg0BCzWIF7qIxJ+p4DOUG8fvCA/5CnPSTS4Db87Z6WlawAHe+pOT9GGjt
eGJ1pMu/uuiqtXBtst/dig7KiJXrlfgscPLTgS0+G7zFalRG6+DfUfBsJ9z5MXq1
ly1wNaC1ze3r6xVaVoOVLAS8QuEdDds8gF4xHMUdlJTBwSKKDcgK4FghO7G3FckO
J1g0yHr1COnua5mSMBkl0QMG0C6wd9ZEA6gc20qzVF7I9YwwYblg4p3G6ffEvT27
0XSWj7q74dlMOVp7HsorguSWXtoipex3IIKtD55ysUBbJUoIbJS3k+kNiQIcBBAB
AgAGBQJOpxoBAAoJEHNBYZ7TNxYMUs0QAJS2TZot61wpYqHc9uEglIbwyS2yhNsm
5KCvxdZy9uzyVf/ihtc137CINbMDc84SKA/avlbi7DbhUCCt9K07R7Tg+gBiQWVR
IrMjVBUSV72gEHH7cHm1hq/StACuUK9D3KiSMpcABgiayN19LadENWP4HH+uxsyl
hp57v0dLFBO7/1mUvv6RWlUaBkY2vs/Nfh4qsoLhLaol34YLh4e4B409z2MXfkZJ
3U7dLXsx7iRlP645UUbITUJpV0auI7NGdMBCSUs7o7TpnWGuOUFnlGkkN3Qf+8/b
qiVH7PBwAkxRvLDV4Px/p7bKAsTbjj0IrEMtb66lh4WLic1txCLClLr9TAbKu95b
tLojAVOiHOp1L81dgBJMixa7I/xiONWWDrD+xvseH4DPAG50tszrGBOM+zpNzDbV
Ck1u1MC9Ob4iW2M8Kf1ZdnaEQari7VpjDTUJsx6xlSY8GXcjzhMsaUV+rDQeKFR6
Xe7714MytD4EuiwGWge5pTHpxRH/KX6YWSpwAJQowrnJLNJBuC14CoJf080IE8UI
2y+vBxAWqj3p9CspvwJCguMooI3gxowaaAOw1LEpOeV6pWFw/4vx60gpV+lfJnBe
ArKlstFaQ+qk5ih0KRns3WxXwjU9I9t1jMO6tVBvW+MVMp9jPjQGBrxuNcQZfBxh
vd/s0nC9scW+iQIcBBABAgAGBQJOpx/5AAoJEPu3V2unywtri6UP/0oAOuwl/W2V
pO9qEG81CuIytTVOth2XnqztZTveb6POlvX2m92LBsBrppFicKPacxSoDYXR50Rq
515HmiTqBxjMU+wufLmFgAhFaIbAGEXfjt2r0gdyzaQb8UBI+afWCOtOlgz+FBMu
pkIvF+kv40uN9uNq1ZUmBhWHP4dRL7tN6J1fLkx5SG2SHITAQmTRVeIdtrd+Fgui
ITkFN8Jdokb0XqDuBGEoF5xtIejkYLx2ga5xManzBlzQMhQW3qK1BFjRJxDS9auH
GNbcTlYEqD+Bz4JEbYKqmPjVp0WLd9XLP+TfDww++BVScwaMF9pJEpV3S/BWrT1R
bViN2k0CkLoVUCKAS3J0t+I8Tc8EF5RRm+Ovi2S6sVBm467fq/LYE5fHpQnkciQd
s0+wG0l19g8MrdcppYS8cRTtzz0H0KYlRRxenuMm5Zahv4lD1MKYBNsJ7kqyDCae
a6I9wJKDcGbbMfb+lPAii4IPOt8zj7EWCAgD8JktrB/4Wh9Ti+5s0eUveVTQnDj/
J99nh364JF4WXtQQ7PweybAgx5efSqGjnQ0TMkSaBOe9tG65D5ovnyLQX5ybVY52
79mQtYoqg752H/NA9BtfWhzoCmKODN7BuBqfdlXHRcS/5JjhtuG65hR8uJLH9eL9
3lypY/i9Wj119o7YH7h/v6VOSFy3sElGiQIcBBABAgAGBQJOpzELAAoJEC6na5wr
Rm2dQUEP/Rmi4Iglsk7OZ2ykUO7Mse5tGgidNudfPBy4eudFQT6RirG/vLOzW1k5
rkpxNcmBSFQLSWFejyyMxCuDHflStT+dz1g1gggyc7PXHeqNrOq969ymAlPTuYPp
/P78CO4xZWJ6nGX1AtdQFvS/t85Auj62lsgkXOXqQ1y+7HL/84XxZSSm4PMm35fk
VfEy0HWujt+wo/fV+yR2puC+8BeuE4bT69WndvpLPoBIwabWrIF1pu312u8vXtl5
wedaqhYniJdWVynsZecAiM6aok/mJcXsQllbIeh2O/cJKZ25BbonJsZQXraOxxSo
VSr4Zy8KHDydbAJTcdyQSgVZ01wBN/E6lJGPKExaItxnpShkZKHmwUyfBX9kAyPU
fvu4CCILinnCZHWAM8l+zAgO8L+KIotWi9ACSYmTONYs27KV6hID0sXgucWGXkNx
hYQqnEkvquIlWiHJY6CHDANuRPNi5JZNZX6I4jQeJEIwJD9sRpqXrCOYftfJGOVi
QLUW6iXS6ABsoa45IfRKpErspSunjLxOpzTOPHU74wj5j08AmxdG3GG+HATo1rq2
u2aoEtflOC/YGnq75tE2lXFuxKGBcFRctHsuEtYdoifGEDQTzthNfmfvBskBH9Mw
Yx1A8EruCSbhh5rTW6cxxQmLebhY8YMBKgs+1GQMPoeqsF+toryuiQIcBBABAgAG
BQJOp6JBAAoJEDjbvchgkmk++sAP/R6/dfhWsBm90JP1cWCtbWONdtAyMBs95fpK
ibn/h04f75pYbJ77CQ5QrkpPxw2somJ7HnyK48TSAroT3Qv93ztwzwAIfV1K6G/3
Aymmb0kyZi7kTI/lzjDPc0aqI5XfNpneTwxZsaeba/JxPvhynWQFlzURsRpE2D4S
SZQCEj1gnZQlIgFGiqJtaKctrX6rLLn7WK0K2Alq8Cf0dI9Hp/D0nlkZe0EkklRc
SD4QfqnKdN+JSteW7tG9/wCntHvMz3kRyaw+YJzqGeJf9wNG+cwusbMH0hnrH/o+
XrjLd5bHi+bPffQePxQJ32QSxhuA4Zk1ByHBLoVV8Tvzkr0W/sjeoLi4tJ7+Oh50
c1fD6VL2njcgaVF8PKbCidJzJMZRddzS7789fbYuB4KsG+BqYZMDecqIcp6imzP8
s1beuBMCu6WN5uHWOOjm29aiW4E8fOp0javx6Q8UGYH/lEKXQUzVu6ETTGcAagUS
kNgknEzzfqxlnttrq7dcPpEPfRHzzNsiK4MmXlQDaItOSeQuwpQV6kySvk190I/Z
SG67tcgPc73bf04P1bWh/OqREvOlrpHl5crRTPVVAK/cKhcflhDE+PWteOn4gBzi
vh1aNCR8JFPRkOYu25Np2uRe4nBAZUg5Nrh26nVGlBQapCzTv9YVUKFP/o6SMUMv
KgTDw0oCiQIcBBABAgAGBQJOqAplAAoJEBzlCpMIGLqc8u0P/R4b1YpJXm5ma0vE
ZoLrnpNmT6jWlxZIl/br8SB4wgHLPova5T9Gmd5k0RlpGfspOFoaONslqYgaJV3H
BN8o/iZ3k1J0apmn2n2aoZs5h4FiXHVtHw2oxH0jqJ2uFGxx899Y5bwUnxKGbaJY
nXDKh5q84Hef/SMKMVekFN8x8l8/AsWWWoeJVSIribCaW7R6GpC6LXNV2hkRoepG
wRcSLwFQz4js74AcIRVMMtA5FZayFdJa8b1Xe748TtPRARdtChu05QAHYb4jjTsk
ZXyGxTjO/+JSHiRkjbl9o0y28IsDMxDhtRu3f7i0I8ke4WAOrYiw/+04+K21cOwS
/kZtM23p2vwAOf4aTIH2Lz2meWZrzjNnai6wxFDNcwWuix29SaY8jt5drv4bEQIh
WBcJ/G0B7MczG68bBG1OEJplr81JgrQUMh+Bme92+Z/CC7ETUPA8HgSyx3ww6gTL
8zKKXWZVgXTH1wJXy1SOXjx141TRE5ynFoOyngT4VysyxzzktkcmZ4oBl77sp+3Y
VU8C7diBYdVTy6BQNopD7l2q/NDWInoTvwVd70OWeJjlcO8JSIQMWqqGDFYz7bc5
SfPMcqyZuAlPTbyws6ahhDBZIbJ77lZmrfyXAaFb2Cl+OhCzl+TN98AWk6KxbzlV
GeMqL7fv+MRYK7Ako10n2T0wiUWciQIcBBABAgAGBQJOqBDYAAoJEBW8gzRDA42M
b/cQAICuc0+urnB0eUk1SjwHlxDO8U3CqSG26arvYQjXeIe3bJ4ePU5bSmFL6bMS
yDZ8TGhdMuQRrLD9iKXMnjmBQPPdnrdQrOMlYblK1G4PohVdnKoisPA9XBX26X9y
TloQ8A0W2wzbM6mnyHErBNUrz00wex7mK7v2mSlAsTF4pbKBy0YlqwN7YZVnNLKm
YJfQ9aLmbtHydte7xnsLTPm7EVjw/qyWhdZFXqnhbwc8RJMBWJS2DQPMpr0HeJhS
IU0jmg+HDu7V/E0lFPSCVMQUFwGgECgj7Asvk+WFWlBC4tkBIfXmsZqg3qgoi5yP
w+vqNCH+Caxsbmgh+tANHonghyUbPgPDpY9jeqHRgafTnBoA/ja3ROIhXWaFgb77
g7VihPuviAoOJBIYxrYGe4rIXRZiqQ6i0NH5Ddw0C96LQmHjjyE9a9XTYa7Megt0
8JrzUIYL9mNUWW8FppV9W48vm+m+M/hoNcpjOK+KMamTslDiwiKdQzEVESubUKzK
Zqk4yLN00YcMqqFDIi4UimHZEWrze9PMNimWleQjTh6qb2hxyAI4LmPaLztO9oxz
BWOA1wIgToVp4qo7g+7ULMQJ2FA76a10vslKjy0uUqVobFEEEmwhVOsbTqq6LzvD
kIQCKNbvkB4/G/Y0H4f7ft+LCsdAvvo9AaoFo27HTmLLIK5RiQIcBBABAgAGBQJO
qGiUAAoJEHzG/DNEskfiOZUP/0fztPYXg4BhNFHwvcw2urfLPU+f83gfDB11k0De
H9qXM7tt1CYq3xn8EODZvZ6XhfWAUs9voUiFXV4/r8LSRy2ibK5K4L7kZVksjV9y
zZ7fvWejTYoAUA6R+3zy+9RtrDdQqWHuaXIjHoP1u692ZejxgJh4gSbnMJNEFu1n
+jLsokDouDj22t0paQJn9gEaKRamC9asl70P7jNkLKe2SOLhebASEguJNda/TgIM
F9zVea+HPxuEvDOjzekE8k/hNwNM/Ha2BnqrpN0FrtMVWUX9yXc2HWlcjxQkO7NU
3LcekoGyNbQUwwvLOKWxMmGO2UfF/Ibl6S+1oidoDVCFlkWLEEdDrDhhhFUylz4v
Gl5ageCfDL6V99bH2M2CDI5SnpWOnSrhIydd2/grPj1dESt7MXZmBHi+8DSe9/Rk
j3JLlAgluP2g8JX+O98DQxCEKOyWNBxEo4gLrEbbikg2cmnvEu6GmEWRaRXL8wbU
DRh+vbGuR0XpTV2CJJVOuS/SEzTgUFudRW+D0e6hDZTvEjqhDToBxPr+85+3F+Vr
SgNFIl4LXcVGyp39pL3L8VxrvFu1fvlAlFhnK7kFlPi9DPptFG1bZ7L4kIbt0j4B
QjWVud8GvPd3edRDeKs1hISiT+3RfCbJjuUPqVgRB2zJpZ8PC3/VSAOyqeELKu3q
cB67iQIcBBABAgAGBQJOqHc9AAoJEGy6iiQ5GWj+V6oP/AxgHl9h53U3qk1pOUnq
7+lMbpriIXAkNb7h9WVEzgSFQsIylQ+XDrMbm08gdD7NS/B0ideGaswTmCXn2xpM
FnnQq/g5NwIZE04cT3aCa3r5bC/A1LMALn0o8VC9AMTvRv4YPoaRueLS1mRO8BtL
la1pWOnaHe5PTm1rAjS994jhZbgos/ZrwEyHaaxeVVxRypNcVYYxzJfdTUNnFhIL
wTVLlE7oFEuBVxhZ6uesYKVwbKVDTh/lAhbwaZpD//EsVnkvxdQ+9zPL/TqHbSyB
DvMzo2fLX8bNkLp0Wm2b7bEnPYb1MHl78lBYtr6eUPjM6ziLza0UDMbkz8hFoqni
Uaf7Vnc4NRGCH7S2mqiRBTS/rxIlb8gDIGYE7d1izqG762Pw+j5ike6snWYEpJsk
i2dblmpfYxIMrHcHgmDeLklNyKf7PCTrA6kSN1KunRoO+7ttyE91FddvmbwVquew
TQcxdPGXegaw7SLWr46Fx6AH5Q838xifTgfXuTjWLNWTAGWIBlWIFz+Va7jsgjfL
C/e7LpDdZX3t1KkafXvNIgZ+CuRfR+ili0m4pvlJZCBMBbg7QleOgG/U6WZTN8Ts
kTSqJxyWsGs0CiyBUilQpOcqljgSdsRFevXucUvSQ9mEjbm2+y4IvjRdghSSLgZw
sX3OBRBjqgtsCIW3oDKljmX+iQIcBBABAgAGBQJOqSodAAoJEBvUPslcq6VzkGAP
/2pTXGslPi6KdKwBNB6UXZu2zKwKspTmLG55tYcU34TmySEOMSJJc9PpeESbmxOh
Yfbh+WPp/ZPcqSEaSkrKXfoUDa239q2dVaCJcmDpwLq+dvh/xRYY55O6r7FQsl+C
HK5sCt2GEGW4ulYENBXWuMraBO4MUUxVslVTrnqqR7SP7OqCjJiX3kaLuNFZU755
xR2pVoOK+Zv2jki52x6a4wTBH+iQS//eDJAQVottLgGaqOhs51dVSBExQS2WbHUY
lqYRRvku+QubYIEhiXaNOF0VyjEYA2NizSBP9hSZ+hTo+XTepk71mYgt7RMIYpTR
xlN8PkvNW2HSbeDlr0UbUwe9sS1rdIcBOGU+prkEPUWYZvj8/3kNcc7tR0b2LfGC
JRiZhdTs61JmocN6FhXsmg4xPZ9O2GewHA+tz1oPMmNLwS4aYau6Stnfk2FlMm7O
qWKJqTEE8Kfl8wG2R8Myips70UzkxBCABM/IE4LMbM9opCzLpmPopV7EprXK890u
gwtLFx7TdtxdecEo+hrPtcbRiYD68ifMJDT4/AV4tNMVoFGRiuuo4sY9CLPoJFLK
h1lCRW7lkznbSbezlmOI/2FuQ11F3g9KI3PGpmjYj8+UrR+TU2jyMW287YZlGSgn
RkoGRRyek4SqRN3M4avAyTQXjlSU7kTMmu4GL52BtUysiQIcBBABAgAGBQJOqWIl
AAoJEKZi849r7WBJD6wP/jOj8zOFdLC8tpkSE3jKUS9xbbnXwkPjCFjfynAElvuJ
2CjrP9Nn/MFVkvH3QRJxzpBQ80utcJdr3IwZhj+IBkEZGk7v724dT40cKGwAhlE1
1jS9MuvvTmhSw8uGDOF2MeeadEyJmjXjYi1mnBqhi5K6V9YKOLSemuJ4vXJflcyh
y5nn0G/PIn0KZCHdEwnhdhe+l93IhJ+KiJy81UUo4z0rou0O5+UhOlyFUwSOi30F
cAy4tYCoAijoxhM4sJ/s9uSmNlTHnoidLDv+D2hNoC1ZDqAhilXSwlRUvbhtvhmX
+xoJXTuiK1lwJNRDRSmnRzasjV3qz7b6hNuIHJt8IMP8Zh3YLLAVO5HJoHnUu1fx
srSgVRZjGgVBO4Su1SnqiOUbtJFm8t3oT+FYrDo9ZtK84cB/AkMJcdwZkyOMafky
TJjkJuoPDGmntxag+NOg1+pE2syZ4FLMHudLOVmMZ3mlssUEwb1WluRnSwPrwOmi
zTjo0gY5I7vfx9bIDzPklL/FiMCLK7nUlLTdtrgCyjnHFNntZeNZ21IkZrjcn4J0
0kVS+giBs4k2ftQA/T5HW1sWHn6+cSL71yKA3jkyjFkvJp4oPkjeLAhdUstJPrvy
3JqpYWBR6Jcipb8wCSxXgwwKPy7Kq2h+ORwac3tyGdNpqqSH2DKd4HIiZ3agTdld
iQIcBBABAgAGBQJOqX7QAAoJEGwxgFQ9KSmkwj8P/jNKq0ydtjTwN+tkKMwwmTnH
Zb0hsS8sTlGMStpjyp7Mq/L4c5WnZX55bAhNC21zI9HaZU/2ecq/IqSN7p3Ezy+D
f1SI4oBf9Z/GSTytveu/Ht9EMoMOtxtYs7g605kE13gxfXxHULV7XGcvJrCzrb7G
/RnTTRQSTpcsrpH5y7RVFvEonlSeGrYpy2XolMqh1k0UrNZjC30BGGoJaan3rjZ7
5psFCkX5gxx9KOFFubwNYpuyJHuFLIULeaxmbZTDKR5e0YgGpH8BqEXCRoW+TCcz
BuWfn17oin2ca5U9h//lh7xEiLxjVow+3Rsh66oYRDXK8N6WuqD1CcwUGY+4M4pQ
ZiSSmyK7yF9rS4j3+Lt9yexPZDyj8g1LtNskCepA0fMJJCy+3SfSYxWUlglGYqfD
PofT3ltzLD3KiNPCH05Mjy/LsFeoPh36ebvhytUbsIvx/+K+qkahn+irt8K1vubh
TB5QOTbKPSyswhLsHpkItBitwZ6ziRdslDBtOOJ8FAI0/9YOlFk2uOHCDP0pyHeR
q+SWwnbzXTEhIJsJoRx6d/pSjaGDACxTAcSQQgNmD2gj2L5h7K/fZSxbz4RBe1xF
O6uxb4JHSTI2t4plIKxMGZCytrzJH3PYBqR71tREhet5CMFwyMtQxoPfF4Zb4uKy
w+snvcO7U7eOk+YeOVX1iQIcBBABAgAGBQJOqYcQAAoJEKVSa5uzzU5qiq0P/ihM
yAHisjPDRj9/lW05uObdeFJw/RcODLC1xCnTYDdvko3dKgnI6+ARRZjgKcJw73y6
L1UbwbPUiFRemdYyn+vmbA60wkS/+quvqVv9Fp31vPX0t25VSfSZrq6faPWA5gqB
VMSLLA8M4snP2BKB3T0v12c6t5/AyvfxQ+3B+NFPR9zOMZ+EvGyyuwcEbA64jXSG
fnoFnYrob8C0LIA8oOPMyiqSeNYvcXErh8bKtjbNSAQaAo+NytkM3hoUFpius+Mk
23jsJgy3xhwJeKR5JS7F8O6GR6cET8DhcVS5EW/fToZmhGwzOWved5gyfjDgmPDZ
d7wndUl3i0iiZw4sDgAjihtlsRYdjtLDfND59esEX4lZA8ugh6fiDsnlzvdZxOZS
+Dq2nOt7G04ghh/Padfz+abVAV/oPg29JCrldrO+Hi/kYnMVGosb/Ikz+RddWRM+
JpO4HyPr1bn7RbqNsyJ0e4pwuV5VrwsiCWthmZ12b5g39XzWyA0xT9X8f102T2D/
gEk0QylfXyeC5NDEA0I4M4nxOlQ9RnrJV0ecL1wdjAyy1zasTPvRzLh/smBV+AyR
+9D5j87Jaeu0xXFGxPvWZOe8bTNiWZRgMtwjVXYDLI899Inf92hQsIxEdDL9sIEB
Ds32rXNcISqqO1VDkhLRpQLOney+2edGswm0WaFMiQIcBBABAgAGBQJOrVYBAAoJ
EHuW6BYqjPXRLY4QALhD0gJE8KqrRQ88djyIZLPeOWQJZEwoL87z8wfNvY/HhlSj
9e0Hkra1VD+g2Y8z3nklEdsythELQtx0CWiQKs1Xa27jB6XD165iddaP+RcDx5JJ
+nQPAHQLo3E1MeTszC2sWDdwhNI5Z457zgqZ+OdTI0RuOpI1jQVhQkuqSHxi1Umz
h/N2wgZKXU/c0YVmyg7rHcZLSboRjf0Baumwr6b7ktthpEVvTJAaUzJAeocrHklP
I2K3RuAjXRkxYypxjj6RKiR5owftMxlY+OOEKu6utzQ+0b6oO9fKGy+dzyvIgXtv
lcO9xiK2P7kmNRZXC1gycAE+gbs1XbmQeg0+Y7aUYA5Md4ELueb4qw9t+wu6Vk+h
9DdauQ98hbI2wXORVs5rdBN5HNLfZ4C4sRWYMNsj3pzbdAYrOTzayIwwBiJFKKmO
fC5AlhctVgEp9fd9SCTb7rQ+Y2oXAjnZrlKEAD2pQSj8FE8TJ4Bj8m94F3fVX/4X
RVyxorTmOfhUUZ+RGk30sfPHY8gvk4kF5/GWaeNEV4Kjv7h6L4wiR61MdpaqK6JS
7bAXZR3m5qPPEwaym7+5E0dfYJQ4GC9AUYYkeyP04832cvgLN+5QZ+TT5GgYZTOY
a8jdGCFn/+SoUNARCILG13xEt/dEMJYhD+tGRD9mzUXFlocfSdC83WaIpOxbiQIc
BBABAgAGBQJOrpyLAAoJEKnBdsx/rH1WdrMP/ArQ65YnuQJ0IBt6sA6MKUkgSDCj
r/7RSKslS0uW6hYoZbDNmL6DZH3CStF9i3B2mWHLMbW21t6RemEdX5oxl9Rlry8w
NA3gKNvFikjUJeofi8YhylXwtWm6jyxO5UtFbwNXPF9H/9pnDJ8W6Z1MdS7OXFc+
endNaPYlTNWXDLi5J6w67ExzfeIby+PV+um0vEhEL6gcXtbQjROmxt/MklGwVDVa
ceBQ2IWHTHALUC7nt7irkHMYdwJtAoDrIIAWpKkZWWc3qMiTBfghh366KGso0wCk
tbci2xnIb5z4vYlVDsBE2I7H9ejsF5H4w4ptuJfHo0m+2wPKxgeL7TNAMmmQasIv
HVXJHR4bQzpuNjc1xvG6uxUi+geGFAn5b4eV6p008Z1YUmAWDMxPbQ0qlb5U3YS7
BXOf3+D7h9noJUFXtXkuHKZkMyRORzZJJ/AupMJLw7fiHVm7zJe68ka0qSt29AMh
qG8UYaCXtvehfYg/wrXRhB6sGJeuAemG5BBDbva5ZQSMFk2XC1UZg+pAzSH1EzHL
LfRcTJbpZUiT1Z1HSe7SJ6oco7pYngZuoH8GqZCOcLcraMSaqM3xuNpSsidTCVKZ
bSv5VsUbo5ggJ9TLgqpMJrGrPgqQpMNW5jtw1aoLiRZobzb1sVC/3O1jhZRwHxZU
WhObmmi7GmRE1waUiQIcBBABAgAGBQJO3Yw/AAoJENNvdpvBGATw3d0QAJkUfJqT
W9cmoRzZVH8ouyuHEEkOCZDqFeqGlcQpF5oWNP9oyQa/0DozWN5rMGnMzjDpI+Qj
YuhQpZDBS5yD3faExmmFtL869K/mQunGv/JCPcM5XbuOqEKkMb6mH5z71q9gSv20
4OFhIEQE6p+J6RlEUNctl5i1A/Yu055iIuEPsSH1SEGGhYcrzbdQXleHAeRuTtVp
/EoHVfnqcwVpbUqz/7bTW8C8uM/Ad1lOtcZUlBfiod4oPhBfNYpkx7BAqnQr7eD8
GHmqQQUrMAWmHyy6C+JtHVNYhXe6jFeL8/+KhSOAfs1J9fT0PsJnNnDGZBm/2cGl
RxzCRUCoLMHPU3zHFcNZROlTjshYD6apSTPX/gAT1m9YT0cN3lymGslBb6jWk8yq
JERH45DWPNLj+zQCfdPh8Lq3/u6fwWnvWCflFr/dxsv4gVrQzjpyz4jWCoDoer2B
VCnLjcjIXszU3yALoSwE+FkGRoeT4ESwKgcliTsiFf1m6amxpKAtmNzKW4GcZGAk
rPf4PO5+Rk/mtuWxwZAgXA9HJ3v/OoveqpMpdrCecV2BWCqqLrXN13+HWuTvuglt
CHiN9r14uzg/a1faRFOAJrvfO7SAB6ZMFFS47UPdRLd+jo0NdBvm2CfdNNgdTnfw
GzobEPOWIUcQh/559QTi2TRRkXqcYZIxfqKCiQIcBBIBAgAGBQJOrWlWAAoJEMGk
YHJbUcvPjPoP/RIFI59+YzTZuIMNHIKBUQz9fOkCgtNSLSGUanxONCzE2banbFpD
ZpCl/MF7N2YKfwKDZn7i28ifQnGrYqUUR22iPNjPcxwuEgI+a4rzo9BcSiJx6xm+
SOgvYzvxCypOM37nsBbtRRrzm2+jQlRKEg/OguRSwz7iWx2/SIuMbMaPfkf7/Q8R
h7/HW9wRRcqXNE1b+hlr5FOo/kh+HgKIX8+B6Z9cK4XBQysxTL5UFNBoLU3utbAA
vircAk1cCszLnQVXT6H0wS68PJ2t3R7+muohOP/6Ds768uO3cUkX/ErqvNLRZHxj
VgEoXxo77KjbZITjmHS4QBYOwkNJbDIoHx/JWxo/ojVUgxbj7oSaEH9PFmUcnmEl
bB81w8M02oPl0E0lp8j+EwmvEs/5e1t26EnyEBq6BaEpX4iPg1MOiUVbikws1mDA
UgY47c1gFtj2pPqFkSMCaHZXQB9rE33x0DW3rxBO4vMPOl6fMwcO1g7jIeS31i11
OP1QSCLvHatWGbKh1Ep861OOnwTwCLuSFgDYaWhnAG9wH0q8jKj20qxMeyusVM6d
06iKB7dqZp/9WcXgtzGx3wGMdZcz2hTQn96iv21A3dReuzDkpxc82sLPCCr/NMt3
HeHddZcgf42nx6tiSOZmEB8s9043DG2CavfyfnjBh053zeBqe+e280LUiQI7BBMB
AgAlAhsDBgsJCAcDAgYVCAIJCgsEFgIDAQIeAQIXgAUCTpLo/gIZAQAKCRC9JbEE
BrRwSXVKD/9Qxen/93iU/nuidcwLbLyBp9PVqn/G6ywi9dH7eNJ0kIdFpQVM9jaE
3RqEIDIFCrym5RrrNpdyjmMjOxWMsZV87+z2qa8FMrD1o/p5NTvvtEuywuVBiFHO
Hu9qlFGnjEMEu8EYG/269Y5HHp21GOH57QnScopx7xURj6OJe/U2KlZ/5FW+DWBV
sCMGdP7lFsli0gOGiDK4EWDXgQIqC/LUOjq2D0ev+RTi1rpkERROHXwijt/S+vUy
WHjKXbK25Q3KZSWQD8TEE206E4mr8HTztKYbBIuYJGijlVxEhgrb10t5foHMOeYE
b6ZETrcisoOR/9kIjBntxJtloaj6CqgSkiq7mykh7efcktlAacXjkxH5N90BTE1D
gXVOuNbKDkWjfRuVhhTPr7m1BtoOgFtxIRX1sO3pQ6ELHTfdOt1Ogwul57ptQAp6
GxRy0GV9hdk/aG5nmAnGMg1GeUiApMBMEBcX7u8yGDJn2Ht4BEbos51VHCEgVQwZ
tEIIxessudB/qgAfJWexlTX4lYA0YUGOzLJ9E/b53xOuWHM30WggZiIqMBNH0Kkl
mgQsW4ot8o4GxzsN8QGmx26wtPS+XNHoloZp7vw53n6WPO3zw4Y3KMJEhvpWyjQi
oRq+0Y5xgbxHmA+ExX2f39sIhWozkpYl//iZFrJJmnuRwfIlJvQ7qbQhSmlyaSBT
bGFieSA8amlyaXNsYWJ5QGtlcm5lbC5vcmc+iQI3BBMBCAAhBQJVt0VMAhsDBQsJ
CAcCBhUICQoLAgQWAgMBAh4BAheAAAoJEL0lsQQGtHBJ1U4P/00KXSAK/E59FQHl
I3VSB/VwhcPnD0lPszEgh3gmaAPzeoIrRHJ7x6BVVTO294Sth4KBVDW5mAtEXXEn
PNKTheYApwAkj/V1hxls3iggEUXEEeLOWA/COFVeYal3CqNgxQLSDlWxw1vtKJDs
3HnHWrAmpFE6+7Nn18/e7rqHNoCAQe25h1BgB10Fx73Zwi4w40fniTfs67W6mSmE
n4/PbP2R5+UpboOsPKjj09bFTRhvnlj5XObO12IU/c+uhJeQtKxt+SROD4QvrZew
WhOSMIyZQTB3/3DCcTRwGKENYVkAijnzA0Om7BK/vpBlAmx5KxBcA1FQO9oi5555
WQjHr8BOIXNM1YbHloT3PyjGDm1NbAxqmgnrES5BN7YhO19nIpJo/6h9AqDFnoI5
8J0NqlSXGj0syeECE73IREPrW7lQMr5/R/vTJHU+2+29jmqmLFD/K5/9pNU3ec5J
1M+4haCdGfcD05erQ3xfKYWjCDyEmK4XHlTiKC/q1n2opIQbpWUyE+YoYnmPZ0Ds
Or4Tn1pGL79A5aOBkZ29smz0KXxLO1rXrTrFIIlG35Y04CCxcNwrD1vCREjhkHND
7/Ins5yIoIajzxc/YPs0rkrP66XLKmoOZ/a0Kfx91lucylKXmHChmjw6f70lKLzH
I6fFEiIcwQa5iO1FgLbnnRvaa46nuQINBE6S54YBEADPnA1iy/lr3PXC4QNjl2f4
DJruzW2Co37YdVMjrgXeXpiDvneEXxTNNlxUyLeDMcIQK8obCkEHAOIkDZXZG8nr
4mKzyloy040V0+XA9paVs6/ice5l+yJ1eSTs9UKvj/pyVmCAY1CoSNN7sfPaefAm
IpduGacp9heXF+1Pop2PJSSAcCzwZ3PWdAJ/w1Z1Dg/tMCHGFZ2QCg4iFzg5Bqk4
N34WcG24vigIbRzxTNnxsNlU1H+tiB81fngUp2pszzgXNV7CWCkaNxRzXi7kvH+M
FHu21m/TuujzxSv0ZHqjV+mpJBQX/VX62da0xCgMidrqn9RCNaJWJxDZOPtNCAWv
gWrxkPFFvXRlt52z637jleVFL257EkMI+u6UnawUKopa+Tf+R/c+1Qg0NHYbiTbb
w0pU39olBQaoJN7JpZ99T1GIlT6zD9FeI2tIvarTv0wdNa0308l00bas+d6juXRr
GIpYiTuWlJofLMFaaLYCuP+e4d8xrGlzvTxoJ5wHanilSE2hUy2NSEoPj7W+CqJY
ojo6wTJkFEiVbZFFzKwjAnrjwxh6O9/V3O+ZXB5RrjN8hAf/4bSo8qa2y3i39cuM
T8k3nhec4P9M7UWTSmYnIBJsclDQRx5wSh0Mc9Y/psx9B42WbV4xrtiiydfBtO6t
H6c9mT5Ng+d1sN/VTSPyfQARAQABiQIfBBgBAgAJBQJOkueGAhsMAAoJEL0lsQQG
tHBJN7UQAIDvgxaW8iGuEZZ36XFtewH56WYvVUefs6+Pep9ox/9ZXcETv0vkDUgP
KnQAajG/ViOATWqADYHINAEuNvTKtLWmlipAI5JBgE+5g9UOT4i69OmP/is3a/dH
lFZ3qjNk1EEGyvioeycJhla0RjakKw5PoETbypxsBTXk5EyrSdD/I2Hez9YGW/Rc
I/WC8Y4Z/7FSITZhASwaCOzy/vX2yC6iTx4AMFt+a6Z6uH/xGE8pG5NbGtd02r+m
7SfuEDoG3Hs1iMGecPyVXxCVvSV6dwRQFc0UOZ1a6ywwCWfGOYqFnJvfSbUiCMV8
bfRSWhnNQYLIuSv/nckyi8CzCYIgc21cfBvnwiSfWLZTTj1oWyj5a0PPgGOdgGoI
vVjYXul3yXYeYOqbYjiC5t99JpEeIFupxIGVciMk6t3pDrq7n7Vi/faqT+c4vnja
zJi0UMfYnnAzYBa9+NkfW0w5W9Uy7kW/v7SffH/2yFiK9HKkJqkN9xYEYaxtfl5p
elF8idoxMZpTvCZY7jhnl2IemZCBMs6s338wS12Qro5WEAxV6cjDVSdmcD5l9plh
KGLmgVNCTe8DPv81oDn9s0cIRLg9wNnDtj8aIiH8lBHwfUkpn32iv0uMV6AesLxh
DWfOR4N+wu1gzXWgLel4drkCJcuYK5IL1qaZDcuGR8RPo3jbFO7Y
=rGb/
-----END PGP PUBLIC KEY BLOCK-----