pub   dsa3072 2011-10-18 [SC] [expires: 2030-08-22]
      270CDCD35B9D7E26C2D72097BF53AD52308AD4EC
uid                      Sakari Ailus <sakari.ailus@iki.fi>
sub   dsa3072 2017-11-01 [S] [expires: 2025-10-30]
      C4E18128781ECBCFBCEC07AA7C0476FFD34F87C5

-----BEGIN PGP PUBLIC KEY BLOCK-----

mQSuBE6df1gRDACOy03Qp5aCEy8K/ypk0K/9G1mwBxp7VEXAu2GsM4yVkDoFmBXf
qjy5A8K0xT9WAqHqAU9ouz0RU8dFxWeqAgLyKZdEDIlzTzMQue8LX4uT3Ip8XOiP
9G24c3MyxxrArcWemtA5EdRHiVcGw3gvMQVKpdIhCeQ5oV6SP5tmHNbv2yN782kt
NOGGJATBadUaib317/gWkSXeIDD/whTOJBV0n2gIUAzEUpCLdZRzTPkKURSY45mq
3jGMGVc5Zb/EBmKFef5sf6nKHEix3MHPI3rMaiW8FbD/I4o9eiq8hFCzrBaSpFbk
MPloXHfTJG1Ay9x5DvOW9mh13oRADNJwdFkM4KfOpmLjlIBfBKmRlesVjH1qXFuD
7iNlNS/UbN/oS7sZcoPfRYHrRJ7qFl9JaGvTgI5JkA3otHNmuZtXPihSJUu0k6hs
ib7t/1/oNGoE0aLUiBqPmNMvXDkvv4h1NecNaGw4MxPmUlpGp49DVyHXVfYuD/5m
5nSs4O4h9EA6CV8BALkY3NIT9+1LwMXYDz1CyFEdEGQ4998ZoD9It96NxKLfC/9k
Z62cCmgppUpvormIwmRpS33w695Cqc7oF8Y+qAwRHFOUlC5J6I3g7aGO7923ClyM
NbAX+QicE/E6dQ4cX2W85HbXS7070qARAFOWCRc3J2EAR8hdMphtrhM74+QeHmFC
wmtvehCSXa/uXiTZeXw1BjVbU6YF+ZxVwLdlYrXS6itAsZsjb1xe0B8ndqF5fW6U
4sHDFHcCbssTAWH6JkEafzX1fL6JotjtXJa+rxPxerHa8ow6h9qZcksESqs5wAxd
YRUaXAs+Z9eMJVm2sh251BiLzEfepomLEJqcGLYCKjVl3t83bBDkemqwH4zRCi2u
Ko+5Lwv7MEWOkCvF4TinUk4veMFPdH7ucSWZxMShcj/k1RWGQslNMkfFblyDWk29
Vc1IVqECYPhxf91mLNdVqAPzNnXHYyAGzVvwcqU4BmwAbdWsZpUAEYe2Bmu/6rOZ
2GV410U/ArYAlPA0LFED0BcSITn+5gxHGPuWaQf91cEEqY3Gqo7mdiS4SDY7WSYL
/AkQz3wcrOGn2EHtBV4ziZiBkCUv4ICvHMWfgGkn6gPAu5uZeYR2L00XR0GMlPLK
3SQqu56tosnbgNlNahblQh26+gDqkWEOHPpAvuXAfEUzSZm099pzII3/vwHUYqGG
/KT01fn2weRFaUY2fGAOP36N4RQD1JkRaSFSzCnRiX1fP22bw3FiNSB8rlfzqPy9
h0RGDdcfXSmk3gDxBz1YNZY3jvEa7z/im3O5XrRQBfruP3cRp+0n441cI0tOcc0o
gHEC5dhGlWzMGLY3hUbuKgO6iiduhYlG9+ChugxFPy30HTMT7OzMc8jtpTQEyZbJ
Lx/cenTzHi4toZf2v3creA3N/HqxyGcV3Ccp8/0+retOwdEYW1WbF4kCmXn4Ulvx
h0qCy0kjw2qjBaD//yQk5uT8dXIggRdGtL9Ge8Sx4PCMTbbJsuPE24xaLd9jiKd8
iR7MUYNoh2v5sfGfms9RuaR/1H6w7ktfmbxaQM0HPYKQ66RdwFSSzfH6ZqZ8qkdJ
i7QiU2FrYXJpIEFpbHVzIDxzYWthcmkuYWlsdXNAaWtpLmZpPoiXBBMRCAA/AhsD
BgsJCAcDAgYVCAIJCgsEFgIDAQIeAQIXgBYhBCcM3NNbnX4mwtcgl79TrVIwitTs
BQJfQ6otBQkjci3VAAoJEL9TrVIwitTspKMBAIB4tjuntTObaChkpBHFVFbvQ7oJ
4J6V4/DgwBG2KihuAP4j2cA7T+S3SV0IaHJq8QIiXKAvZsVTvFrrS/28KgHlD4kC
HAQQAQIABgUCVcO60AAKCRALAkTEDQ1DHFdOD/wJxt6q1d5uJ2vaEczQBFlL6+9k
BOxNnMGyru/ooWsqyNuBgw083SHLY4tcRdRVji++a5KCxl6jcYSSp35FtnEuSmrL
iYnvQLdNAsWtx6Q3ZEFkSHe5mLw3hacVk/LuihVPEG/Lfc48ioxOPMcLbporjlvZ
5mGyDgS96auZRzGSr5/b0VDWaRKB2mv1FC904XQ6I18PJPvdH7z1qwpog52dvctN
juXa08dYOUbZMS7EZsU+HLsPXLChuesr/niR4GZ9JvC694faktHVq9n5sR1gjuKv
sgehfIeKNaAAv0UdVvxsEkn5y3AGGfdiSJpobiKSIAOIf6G/f0XLefgfiQb2iDJ8
I6zqOzOlOj/sKUemHjpili++mGOl/o8H3WyCwppj88fmtIanDS38PaTDi5uVTws8
uaVMKzXhFTIwBjS09t3X1Xab1LrYTneNOYw/53CkC4uYih4wVxsL/lTyppW2KnJ7
PghzjdGP7FNLY7Y626iDbLgnVpkYettYSN38p+Sx5BWv/rvdDEdJUxHtbSHh932O
NNlTVCE8emkuDbhnkqLL67cMz7FCwd2yeZSSarUKTIbTFA/Hm+Zs4o/pBZoOZZ0Q
ESYOjctR2AQo3rxCSWMxcClIFA3BxB1g4eCxOqURJgDZX/kkKz276mKb/ikDviF5
zQOrsG7Jri9bnxEWwIkCHAQQAQIABgUCWfT0xgAKCRD7Nz1F+LNtKJkGD/91XU0p
4xMxRvu01iR8ZeajjFY/6YcxMthZOaZpbRPlAWaExKuI9HCdg5YqY0jIziVMK+Ee
bd9EyPgFpAjxEfG22og0Ix6rwg3/2fysylmDIobQwSv5LvHsHc+r7Of3e031MkQE
bM5GN6nhLy9vatnp8vF/r/RZ1mYKQFjwp3Fa8vgFDkhJMOXB4cHx7WI7CoDbb3SQ
9zRkXkkEi9LfHx2tHkfVmgLv3q3SElPEWW3HpiojZZTWDJBec1Ra3CZuvJbjkH/C
5c8UysoaqYPQKR7D34/fk/OrHeUFM2eqkHyp1IkWU+7SAoipQEo5sWxVOjY0Xrce
9MonLPi3MFwqQbo2AVYSMsg4qpcvwzuBlraD1X1iIZK7qhwEVSZ7PcrjkncTVuBp
cMI+8Zq2s1vPzeQsXpfTjtJY/KAhCG24Zhm7UC4FQtRDvIFxHAZL22ky3dTZ2pd3
gTk/x+rl+PrRjNZ/ky0EcYsuP2YZVv1rX0Mfc0/5rGq6GaDh4TKB5vpUEwTHTbuo
9n4iJC7nyz9wLNkHnlxCxWQzO30srk0ZElX/OnBdILzfZd9j5V3VOOzYAcA7Txz6
/5b5HEKANd7KrAQy/94XIYcSSZGR6HGZQT+kdeb7O5dVP8tz3l+T1gR5Kc0YnCHB
al4IGKYu0t/BIhZkA1fGs+W9ok2iuRc6+lqEVYkCHAQQAQIABgUCWfbqPwAKCRAI
Xz69juThFUUqD/0c8lcKu3GKCfAeiepbyqMcuEu9SUKLo42ZKnQTzTBptemKAWwb
AoY4MsUqNNAfN7SIKAfsbu3Jy7gRTscs7RAVvCSQkCml0MCohQc9PaGjhYXg6XGK
foRpy5+eZXDtsw0vOwn6NRUmRcNv4JEpbIIzEyzNyMzZQHIJh7az+eqzDarfm3lS
kspQqQGcP6ZAx7IsCNfIgaiSQuaWUjhfWiBMSu2Z4RC6Su5z+7WvmAFppzck1oWM
mMYhRnajqyXqL3q7Qm4Boh0pyFEg5uM11SVNj0IJ6DxXBjvUqSC57UQ8hzzcg+hC
bGUl5WHRZH0M5+9RDvA1faAnIuPOP4Y6Tp7cZlRd8YtHXfwDV4HtKcD5DEvWi+WY
KYxECbD9ZasJzsm43LabWt23ZbA6uhXLM/to3VXDypcGGEbjAT7vSV6bUeiiHw9k
eE4ACx5mtCN8OgD19FTpQrfwfc/1D+pseWf7Fa3Z6XNWnaZ3llbhB36rjXnxVlL1
slzYsujEqZPoAadepj6RrS5ymrzFm0p7+8AEGxyFlYeztnF5ENEvH0hTeNlmYUJe
2NCXiOxR1UPlGhcVGDNcNvJKMXY/8PJ0USLQvlux+R+8ax7iwdGygalS91pYlX89
HEsP4PUevbvaTu2xspBStk4mlxjX9aiIE7l+MLgvVkdudTFMxQ6RUUM6kIkCMwQQ
AQgAHRYhBDpaZgiH2ew01mL7JwSwjI8VJPr4BQJaGXd9AAoJEASwjI8VJPr4q90P
/iOYkmEDcFJ+jR0H9pYQCBGJnQcV+u0UvI3WNSRRDEhMAbgK3tmNY1IhxXrUYHm/
0Q25YzrCyqDPDELMQbjRxtmpKfNhGclNe0xf4GO/3mFjYeGqIYwxF4gm3CyCTJMg
QQkuBboRExue94CcQMToRcOWSfncuH4JuySiAmzoqqec9u9tomhzgtjXZIJSYC5x
fQ4y9uxcF0pFvLu+4k4L05wJQw5NScT3LJBWk4lELt0aiH3ydAMb6YWVJfmOcnSi
GRivOE1aiveWTiHwv0StdZr6D1h9/0cMc8KtM5t+ZuOjmhmL93eVapzO4qWj9s39
wJU0ME7Ms/BYRm/juDHk2sVA9XyjoZ8TRJaOm5VKV7nJ4fMrRa1wMysVzENT6Lo5
wClKcQdUyL2NXqE3z8vfTTJV16caX3y25G8aNKyMYYvw1R40qvbgWJO4TQVNUGUA
rSNbRfGnCa+dr3x2DSF+qfmPmpuoK8bGqb0yNEuUeGKTpYZ/88sxXnw0PFA0KNdf
XDnI4bHs1/Y2HVMGLa/y9TeeaURBWwR5Jg9VnC+rntZnMmtO4h0nj8Sc9SACsI2B
uCViThz9dcr+xQl339H5/H7iprR5/pSJpmB282UlSLPasV4RJfP+hZX31wqJxMN7
IJ3LjIZ9R+lpBrHlk9Nq+obzNqzP7wRRQtj/Pzpd2XUquQSuBFn6DeoRDAC7ejcd
wULXsYwQOR5GfZFWdJyk6lmWqF9sMbMSqpRNS78x4eKSpU1yFWHJW487ruurdZkv
git+665EtTbNr/s7lBJq7iJPh+MMFLAKKe95h0v94sEfDqZw6Y7uL1kM0d7n1m47
CfJBGYyfKHRvcloSL7K3OEWx0d70Bv/x75kfnAlXYHA1dc6NBBffLXBXTwnkSUL+
qr+hgq5/M/1ciwDbYPQRp9bPxAPESPs2rFpCZuhZi3T7v8BTwJWrwSona7U3RCj/
0VNWeh8M6FX4d50B3BxyHfeyJGf5E70GsapwiPGrYJU8B8idSdZKR8FQsIjmo8IT
ge5wZeQIXDZWSdDE1Q7QakX3QXXNslM0g/i9dFkpsDK6grL5A6w6M0J85kPaHuj/
elWNTZ6Pu7ud1PSv/OUdzyG8AiYCr16Xn/HiwQhOVwb+MtkSCsN3F7KV52uhfUYx
eEwc5YFdKRCmwIisXBQcnLzqINu4SD71hcFjNkYmI/RjSu3mMkau1Lz926cBAJT3
CBtvnHxN35x3QZmDGpnMA2aaxT6L4LdXVwUV+xfdDACn2rDXS7PHqQ+vnHF3YUds
iiQuvnidAHbFBK6RsVx7qnebOdj6bnoRuP2CwBDaIUndxW8MUODfGipSv0rGdiM1
komJaWXv1wW+gNjabWmuYhcbdCLMym5fRuwbBDeiRl4cZX0XqLYLg8iwTOPmlh35
wDToekMvo+OENTBkiWmCOEIcyj5R36olsbXQooxZMqonolhxJVQ4bS62MfEFjUO/
38PaBif7V4w8S9BO0gWF/oE2QkJOl2Du+wKxLNZ+OohWDQoSYecTvKaqHvHDoE8c
onRNRd+6BiUS25gmaCTOJVJaiILYJIIWVVbvD64S/wxZaphN3yDfv7C/pSasjMz3
4n7UkzftSKXNt/Adt7VUvvZoi77TBI+yC2yYmdHi7Lng5poIbnrM0ZtN/JrctJzz
HrJigwwgjzkwlGlS0SUL8XDrUK8rW5oJWfP7z7fVdRhkJIZXbmkai45IakvFJQVO
pyQ5K57W3kFTNXSdQ/yvuo7XcsT2k37xPdcdiMGcllQMAJ73vhfLEZoJjE5AUJiJ
o3Bk8j0QAgvS36B7UdyKVgwTTSPJqri/rCvpHKW9L0gBmRlq+eP2OEAaP7XS8LeT
yRq6pBQhQVsTtw3YoiMzlujHBQ/PqA1+0Jum39uR/YTRfZ2+JtdP4O17HWULvWI6
8FfHS4btxQAenrv0a4OLueZx7UmmuP2DtMpQW22FRyohtu/bFgcZACquuTJ5/lFK
Eq3S8WLaxFUut2NUpEBA8ItrxRIcT+UZYIwx+BQMLZbIoNtoCvIAjRlCKuPK6RlT
aC+TyGqU13gMzDaHDWjzbQlzHXva+lPi9LofH/9ivPPIL0TWzfI8mpjD0MbcCmvq
pXPM3BYhMzT4SBMqejmKmpopdVaz4hVzhq5Qfb/Op10dTbOtbBZRg6hj0p9l1p2z
1wKiV0aHhBR6BK/akXgG/OFo37u5+3L5ngPlz36leKa1HMJRflytV+twJcCAJ/n/
trvWHJK0QQJqSUF5Gq6Xq/kAqIoVAIiA9z/ZXFQx5OcIAoj1BBgRCAAmFiEEJwzc
01udfibC1yCXv1OtUjCK1OwFAln6DeoCGwIFCQ8JnAAAgQkQv1OtUjCK1Ox2IAQZ
EQgAHRYhBMThgSh4HsvPvOwHqnwEdv/TT4fFBQJZ+g3qAAoJEHwEdv/TT4fFI5cA
/2xbzxz2smaUaXnYL9HF43XHFJsLhGe21OO58mczPoL2AP42OQnWD6DQgUugtq/0
6RODUkmcZ2JPySuErgJuTX6mE/KZAPwOr0AqbnEdTn80VGjd9A59FTzDqgDaZaGv
4hMTg/5PPQEAlWOXQnYRiLpSmoUvj0jK/kCN9hVbFyUpqlmmjE+qsZ4=
=O6TG
-----END PGP PUBLIC KEY BLOCK-----
