pub   rsa4096 2017-03-04 [SC] [expires: 2021-04-16]
      F29F26CF27BAE1A9719AE6BDC3C92AAF3E60AED9
uid                      Jerome Brunet <jbrunet@baylibre.com>
uid                      Jerome Brunet <jerome@liltaz.com>
uid                      Jerome Brunet <jerome.brunet@gmail.com>
sub   rsa4096 2017-03-04 [A]
      69ED6012C16BC63806060BB4B5120B04D4FB6E8F
sub   rsa4096 2018-03-19 [S] [expires: 2021-04-16]
      F4E159AE18F3F56D5F1BB71BE6FC0F1C37F2DA85
sub   rsa4096 2018-03-19 [E] [expires: 2021-04-16]
      E0DAF58B25CB029F6BD5D63D9E5E5F5C576D768C
sub   rsa4096 2018-03-19 [A] [expires: 2021-04-16]
      516F27E38F9B164ED9EDAB597369CEF85DF12043

-----BEGIN PGP PUBLIC KEY BLOCK-----

mQINBFi6zwYBEADKkdojYGJXFi6ENdFwJ2dQ4Y0x4a+RUmOKcMV6A9YMyck1Oj9q
yFuUMTUJX0T04wqeEkXHqOG6E3NECr4lmxy2aVKHn4Fr8kEweN7SppmmMQXqILfY
M3iWBd1ii5/hwdU5odU1muYWwZ6kAHOb2ywW7j0TGD9WWqAEfo+6LwvfOkKZoYhc
JlEpEDX830BBoh0hAAXg+akuEh+HlrpjDWBNgjodeiqMVunAOoBc7+FZBJihhNbd
HFtc7GtLHbuE73QhXHfWAMMBmQJ3Bsw3bu5l4xjgLL4qaHj1ySoKqSPLUB+Rcjgc
DaCbPIhZwcwtY8NGbKwgS1IJhi8j+Gr/F9FdfHp/9h4zdXV279Ab4MEcImmDQz6l
5am+l4VleSXzN0/oRn0gyhuOwm2TkmoxR+m7OhGWguKL2CmPFq5ypIr476KlgXvR
N2X2+NyuY6Y7i66ca+xwl0X8EeNjwMRxnJxQ62nQBTJ1xBiNmx4P3AmMT1FLfiU/
a077ySAJ24SmOh12AOo/UtWMILbM0hEexkK4LWoa5+9miNAq2dOyz5sKkzggeShV
LOlDbOGGT6n/kYox/rXx3C4Q8PF/HnEFbOdPO0oTPZ7/ke1Cef1lorc0TwOvwspw
ZRs2aKVhu0YgpyTxSUqVSJB9fg289yDFiZcUJByuXhJg4GjBHzbePNxvDQARAQAB
tCFKZXJvbWUgQnJ1bmV0IDxqZXJvbWVAbGlsdGF6LmNvbT6JAhwEEAECAAYFAllE
JO8ACgkQWTcYmtP7xmVcxQ/+J2nSZ39kHP9gP3+bDaM33E/xdqGlkQD1cHc5iEYh
fpsd+5wUoWIDrZ8CyRVRPNZVN+12ZKHdEJFvVcZk7NgyWp7wwyNcIsVmxWdQdYW8
xmqsOjVRW5PI/x+/aXuEBJhDEaC2hCVGp1vew/5YSvHz2VzwSVcg78ddGE1P7Cc1
IBZv+opk45WMYtLAIP5bsdnZmekUXQ9pNautrFJALDTURjASU4HTWh1GHKi6YRDL
FPIP+K+uxGiuZfKwmOfF0Y6UyTDb8GRzzv+q9xM8qGEoGnt+EuGZFnFUOKV7cAUH
FZvXWHb1LUvMY+mymCBblNqL3PwQZBe3UJW4FyX9hPY2CkKZU9Debd5QhS7LA+wD
m+ilZR/KHR1oI+v22OXCmUTZ9XwvApk+4wF7eSHJj/Hv+Vuj4bV5cX6eqoMO15Ga
PQp2vGnHG+QMUXZkDup+LpuCz1oAK9A/ak3kXP9zfYyAr/ZHTNdwANOizg3wejcf
UEJVDvNoePp/P7UaWjYbY3/B5Ijw0wAixtOYP1DUHl18JywkDFT604EEVidKDQiL
tNxRWeBy7Jw3vKG3/9S2P62KeA1j+JuceZ/O3CuCLARNlrLW0uIKrtwFVgs90r6J
6Q71r12MM6oRUkIuBsDQ2d2AsqjQTn510V+0hxMGzX2H2bXGje13gxY1ii4e5Y0J
6bCJAlQEEwEIAD4CGwMFCwkIBwIGFQgJCgsCBBYCAwECHgECF4AWIQTynybPJ7rh
qXGa5r3DySqvPmCu2QUCXpfnhwUJB75L+gAKCRDDySqvPmCu2cpEEACq0b95FqXv
OAz3dSFs0fuUSG0M+MvZGBrC2y3PyL/RbKLjTNkVuXwDSXcIlqLNjIEi6StvcXAy
qAoLV0dNAI5j1/fVxhDYwXr/bmDOUdBLAChOSEEYD6+lryVVMsqgJL6zHt6B2gJ3
CBBLhpPnQktdXCkZ0LTp9wqSMBKC2Ma48SR4AuU1l4RkUg5uu9TBRsR4cIvIQ5OV
4hIR8vVKTJxZfdxQTk64TADruzYPIp39p0boeUbIrx6Pi/WrMnvJT513kpV6DUKP
4o8xDp/G9awMRs2e+Ju2as2CRNkXEfJlCQIYvI2eog55DxV3mygee7HYz/tiAXJW
nS1xw9CYeXeV1k+Mm5m94GOZZmLLwaIQSY1fsKNKbK7zzabokR4OP/YkTaSquIXR
k+kq0IM6wz3oY4xgkxKyMouMt7JK24TEor9ve7gk5FzYyEg+yFceqBvpxiNyCFuw
vxZ4E76yq1JjZg8fmd5nVIGqgkX+7C9qnEDGUoJSNz8vo1c6/vCRxy2j51Hh252z
ed/LqzbvV0RaWN7KsecUCvWQnkPX3k1U6XGrgV6RQ4B7Qh6GjnAqEEl4S+ebcbv3
fdVvdRCzAtKb4eBgDPUU3OromVmoIstJEBu0Z77uSrgzNv8AIvJSHyDWcncMkz81
DlfGuJlG59Cp51J+OGuV/c7+VbdiOKA27rQkSmVyb21lIEJydW5ldCA8amJydW5l
dEBiYXlsaWJyZS5jb20+iQEcBBMBCgAGBQJY7citAAoJEBaat7Gkz/iu1ZkIAJm1
Z5kkVUcfad4VZcAcvuRtwGs5hM2UzWHnwWwIciPfnW12SA4DGV4fd8R4t24AkDXC
4XHg9XtRY36sli3D6YssTqm1gK1royZWM6AplgAMe7ixbRcTOdBjEffOHapJAptp
PaQr1FA/cj8G/z8/YGSUcMe5hxck+0un0K/ZZwmWldD8dlfNocBnmH2gal1kae7J
hoaz6iNuciT6B1h9vIkWeL/N+LNTLsfJjKmPrzP0Had3dYC60fVPGolE6Kvf8EsE
0G8jTIMSe9ITQ1nsi6Im0iXI8jQVa5plKNa2kN0TtRSSceIdJgT1yGz6cwCHpy9Y
BIS+XUaNGTfrgmaLlR+JAhwEEAECAAYFAllEJO8ACgkQWTcYmtP7xmVPVA//U5c5
c60eUWdLf0l7TQvaOZPE+FkImGkfXSymn1UFW3xmbnU5Dtj295LPAZZqEm2WizOT
6FOlbBYLSkoIWAHoU7eNYds5jd7y7JIgURdsywHJ6S2b811MmCv0iJidNC8wXBH7
UkE8qh0JjiVr8jBLGTo9R6oyzesAmGQ+98MmfkYgYECqehph7jCVE5xqunsrplIb
f23oldWYtTEHqE4iEHVYGezd0dtaCdAv8TDcMMp3A1jvW8jr3LQMtrTGntc++s8w
JjjujH7Sdy4qtGiiJOjG3ZDhzSCaTM9mDn5qTKT8ljcuTC8Go0AhV8oN7v7sBXHP
OZpHnUq+yH5TZhkhzWUd8EYMb5RUfnhtwnfgKb89Ah0YpOUZdXWxxw9eIllPVk0k
nEcGttPJoZq1YhgF8IO2QkwQJ6dUTGoC1AfNobXnMrMy8qgn492TyqH42uP9UFXl
g3nwO5ehNuwWmuhJ7dlH9yFt3LSb+gC7QCHjTZzEd77T3LuH+YilnI8yc/+4W8RI
m8IF7xeNOjY2m5Op7qcdS5BLjqsV8TGuHJC02BQpQkkJ/EltDlIzaHXkSUXzOVGH
en3tOVRd+ldEAjGX0npIaEfe+zWymKQSpMPVsOH4qag7JdkVznNRhwqT75CacIdo
EUSuH+851THU1x7K/j1SfCSn58ag1UXLEoP98BGJAlcEEwEIAEECGwMFCwkIBwIG
FQgJCgsCBBYCAwECHgECF4ACGQEWIQTynybPJ7rhqXGa5r3DySqvPmCu2QUCXpfn
gAUJB75L+gAKCRDDySqvPmCu2e4mD/0crCjOIEkFpnYn1TiWFTgS1dT+AUoZrC1l
AsxTrG+uNbarIXcZQFdioeTCgB8VFnao90P5+0FR7T564Cq3pwG421f3hHntIHHe
chleBIO54OaWXsXGxN57mPWG9u1WJ5w1oZTfu5cwBwuouLafJVhwDnuEVnviJyQh
hSDcQ09Vjq4YU0a6kbgPp7vI9k8MqGvOy3gwyKNRYY+ISBLX6q6Dta01WaPfKG5y
yTC4eTU3VeUx7a3GoejAty4NrPi/WG3l269c0iQj78A5fwDpKwmcvaD6VuQrEHJG
083+r9ii0HOO4rcF3Y15d1fgfxP5JjIGa/7IJ0eOczSniPCIn64uC0XVc12FnaVH
oGGDTuQpzZGCCJJBTL8Im/BSdXh/rLqNTVel/xZg3VW4pAmpE9Dq+BbS4rWKMOHQ
3OwQCkUskgIznwl/OLCAVtXr3n5EoVZ2pSQDerf1N3zyBKMmu9xrHFgt8uztryhX
0L7vE9xzWj2FDaGLmHd2bGsageHLmGkGc1qFADVUaIWoAMXTSbz5fM2Y8IXOFwLu
L+UvIEwHFTOt24SinTr2KcHEbmA7Td4vai2bmqMe0a6b5IKIiGfKH5L5jClw4TcO
NBK6ThMKT18wxpMyexvqDueEIK1OGXrz8UbwYFY++GdasLqye8d1A/NZ7XRjjvXB
GTC9pQIICbQnSmVyb21lIEJydW5ldCA8amVyb21lLmJydW5ldEBnbWFpbC5jb20+
iQIcBBABAgAGBQJZRCTvAAoJEFk3GJrT+8ZlTa0P/ApgwpvNhHSsPKGlchd3HZpx
Ilk5pWZSlmt5VtpBlg0TEHRsWOg31avzqmcWvYKOZ427XK66quplPMf3nmGSuJh6
9eGBGhDZfjGVFXR1WkeIjuORxRrM1UUsR8UL30T02F3amY6ihE69YJ2W2cwhpm8H
uS0veRP3uSWaZ6OrGFOM+yepzUeXeJAmiuG8EfhquDIFbCXhjqJPBTCxGnCZqT0D
eYBjSFkA0uiElr+jRIZjD0Rpkg2UvI9LzoeAYLot0Cev6RqmeWK8pd/RGQM1m6GC
fHJKev/UyV6f+KGSXTfEe1L4NQ1cLe7HlToJCbiT7BggHkMiByXpQqQH7PyQwYl5
uIBfF7wJsa7JTPbFyF/XjGIgSyWZ+lNGU8wfdlFxABD/Hauj+NqefbucyK8UhAY4
vrXf8qZ57bOKIpGEi5/YgnQwpCHFn+cCyRjJHhimCB63pVWEx6+3YMOyNO5utfhm
yyvzAsdZ9fwse/fKo958RqlI6KkzC/p6REIIyGODf+vqJu9tEUMZad0Hy2gfnWXp
LXKiqmFISaduqMgV1UtJCnPLadebwTSfv5Tz6nNxUUIQywW9t8xKZAL7EPxqfDso
1k3pXlOj3yvC5zcowk4+gRendurXJ7jbJ0w9EFtLubN7vncOf4ifckxwYgViAw6T
255xcsLNOQFU0+Ksvl6AiQJWBBMBCABAAhsDAh4BAheABwsJCggEBwMFFQoJCAsF
FgMCAQAWIQTynybPJ7rhqXGa5r3DySqvPmCu2QUCXpfnhwUJB75L+gAKCRDDySqv
PmCu2ctPD/4whv8oL06W7Rlj7DeTJUabKN4Co9aV/eJRF5yBhiD9owRseuRHQPam
HMZ5FfHqgkDBnB7pzJqmF2JUIlHzROMZhWEBBZclHGE1L48j4QxETwGA70aItZYt
OXXt4OWKtn6J3Rrj/seOiR90BSshVzdHUo17lfD5azTndcMurLIgohpGr+MUrkAF
x6Jha2sAn6k5d5ZffnfUS2J8Bn0Fkhl/j0uD/5WodOMWEmgzIT1dOo+AZzySUh+q
y3wF1OlfWlSfqo41F7GMlZu64mel+REpPFMF4/VUpSe2x/sZ6BMs8R+yTzU8+uuh
8wbon+VNrfPzfOQKUWC0Bj30RkW9ThBHoaxG2V47bXUZmEFg3mPC72V9Bill0X8b
/N4xeMWrev41h3hmL6dCBen+PtH8R7JAJgDgs9vCjHuwQx5fhAxHtD31IY9vjC10
Y6DXlNFWtuqRg1ku+6zKG7vKk082+UzFml5Te5mWnHtwtzQ1JVGQTpgBbeBTdvnb
lzdh9sfnJPaZfue8BgZRo9/C0K6vsxitGyK0+vhb5122hI04buXdgB+rtVsBjnkq
CQHSKorUso4sQmlgFWXvST6hGORL0kcKZRE3N3IkaFbtCDwRxBBU2L0aItUeLoYL
OX0gyHNWqpf53zsdnOYVjzgpFlEtCN4+nc4XmhIIKBCYRx4ncZKdS7kCDQRYutDT
ARAAvlGH8CuRqZPRNzZxfXV1b7khIcHD3+0UtDl79wm+hO9/gRfxQrFFDwXAXzly
swcozJf+wPwn/BSmNC8rwvYt+jx1lQmE+tNtSPyIbRhfdAkj9up4wg9TZNMoeUfc
GlcwMdWM3Tg4BL30+issUsTFwsZkQpfdtjEN+m/oyxVfLExt9UITYZs7yYBmJOj9
k9WnFR4sZ4D+FnvHBME2cyt+3FF0PfNi23bx8Jbg6+S+6Fi33aEiItpZcicjggTT
xBKxauJNcfibEhluC8YSHteAroKMCYa2up9FY32PbemjlQ4qD8yarVyu4fh5W/PL
zp5zme9QM56lysXstgZG3n1e2B6o9evdC25rBAy97sjhb08jlwsh2A3825tWVT2e
iZ9wg+cuCAZHEqxLsuvLFUlLxEPTO5B+oVkKbWDdiRv7TDzQHt0/hCHUuMIgHB0z
hZkGSM591uG5Nq+yWvF4NR293/ILj2birJ85NrM0xcNn20mTiC/2iBRgerAU9bK9
Y+IcVgrFSWbizq/lrrTcUoEWvtdSiMA54vzZuzdzYKGSxQINOreSy0sWih3kQ2X6
/D4SgaFG0VUQZHv4C27fjnThVx/8i59beZQRNBdUC1AB2v4H45dZ2uW7xexIAVF+
CUJ5LsiLFul8wQOuguJQEblBz7o9HrIEMYOdKBJ9MbT7NUEAEQEAAYkCNgQoAQgA
IBYhBPKfJs8nuuGpcZrmvcPJKq8+YK7ZBQJarvasAh0BAAoJEMPJKq8+YK7ZlGQP
/R0s2kmTLZTZivEmWuBHuLVeUH9y2bb1Q6QFIGosRFpE1vnhktJzG4kKpYXcxR6x
+FtbfKCDNSBI2rgBfYF6a8vN56kMH3dhWYr7r/JwL0luK4xYM/GbZCZUfGEq/94I
hCI9kMBtQXfRfS4JubzdmUQHrdCbvGmlq+YLRzn6M7n/DbHgoPH8UPXZYcTXotic
QLW1W/pPHHyNf4PrTcGCfTRY99npm+rzK6Hfh3ZKHmYULMWICnGJPDBetUaHMWWj
z281m2uLKYwlNQOCCjD4faNNoDgkWWmsUJs3/TM69lq2WG8PxZ3KlMe4p+OS6F8E
79UVVps6xDC73yNldqsryC8P/Q/wiqfeBy6XqEmnGo076wliL897M/y2KHAEpT9V
dJSM6/nk4CfhXoPKMo/5cNjex9ZcVdoFUIKqFV3pVwoWni+JLGAWujJkqCQu/79j
4HbSlM2Bmb8oHSf7zbEoS1OBNzxi7+fbjRWI7+NbcE4d/uG6GcSPGNvIaoDNI2F6
OaY4tspnT4PmH/k/k9NQPNq05lN+FDs/O7iQdoS0cKWPFDImoyVxP4Bbvm/XkVPi
bLU1hFqVXZaaaE3xEQ+Sy7vYNVv5dpmw4s73NnxoE2tibVf7ykQZnBThsvPWYW0G
aPg5wB+cEjmukuPESRJlwBtb9/8L1ReHf/30VowCsEuNiQQ+BBgBCAAJBQJYutDT
AhsCAikJEMPJKq8+YK7ZwV0gBBkBCAAGBQJYutDTAAoJEAFRo5MEFpTRV58P/0pn
N9GrRej3UAh9PcBWlqYYhJeOKyWKVNUbMoCCt+xuBACVzytUmtBN+InGBM15y5eE
UhDZli/41mCReA4QaByVG/xNwyzFvj6/ixAyqnfIRigch55w/sI5k5QWO0ob2msX
aK3xVNUPP0ZUtV9z7kS3/qj3XXKH6SuBBOSBtCTAR2AO/cWxPBVtFg8ZpVpwXvSz
QjWrXfkzFjnuvFxDadY62qUMe14ya6uP3WGoSbRkQXlX+aN197Uu+keZ2cX76gHF
ZKVzES96zKCuxlAoJoV+Ikh3cJVlh9pTXoWoiwe6r3oimjoFyYUsekIT9daxgO5O
fWDY8egxr31qqe32TItUI+oHpVi6YjGxlgPdiqV0sGP0lFtE6n99+LWAN/1rsniE
lV4D5FrK/lOYcNyFzjPK1y58uw0wgz8WVMiqbgDToKjU/x5r1PE3pafs08niKXIf
f5gppxaPqYLpRmaI1L4MFkqsSxSIYsFGXK/ZmWYuhWGK0RYA8pZ8/tcwCmuL2M5K
Frbph0+bBJlTYVQi0orw4k2kI5g6ZCmiyRYbV+70VFdZXAtH139rs57DjF7j0/wY
4Z3goy4z/NNF1pao6uH1ldjYaEdMn6PP20NYycYLoztPG/Q7OHfX16WjVd/UZRoS
NALreeCUUw+g4spOY3Hnvm+ELVEEK7yR5/VyHpXgiyAP/R3pA2K6P5UPzoL3ul2q
uTfww97sd+rf28T0sEe06p5uTLjcRRhFdAJNagLoL9Wikji+x2qHBzOgscedr7KK
fO1d51wFpM/9C9OWJKVbngvOofcxoBsVMM43A0LOly2LhxV0+hG+MI+jmyPj2j9m
rS971bhKG529KOwkZVuBlcP/kVvdZSUK0I2+X8s7V/4qFf5q4+2BV9JRslXkL2NH
Jz7mTAZCXEPpQwDMt+RwFNLfkM+02L5H3duSSRQz/YY7Sra+EaXNXX4iD1FGsmyf
uyR8IDiEibnbnIQDQxgW4ZzbmZThYqTBDLcmL911OyKI5TPk1zK9lshrj0FLEYd1
hw10jkL5vppUOKmq3oXGYBS4KrWMq389TDOGP9v6LyMfcxugrAQ2i4Ht5GM00Iky
TtcTt4yeQZzKS3oWyh9PyH7U9Tu5ZeAh+kSaR9sWSu9v5h6oE9LiLYSicD1/CmrL
JJH0yhNRxg9VieGVCctmdNLkp0v/rvTbr+ehVyzpIhYVkhuU6931P6ClXzVKesZu
c7vSyVWeOyQ2lg+Xk+8dUlFSFe0SznwGbitVccVFHM81RrkC5aLx2dBjDqmQ9+H2
vi0byp4eKZtP4PbXoFeBin1+w0sX+c92/w33o9wCleX0WG2ZCfXI8kDpynWI4d2x
lJ40dljdTfFpU2U/JV/mlYeQuQINBFi60VYBEADZk92YSMKOcN153oETvnQEQmyr
+Z+pQU0a/1CJA1UpFWkGTcdUe48sTGiV4h6f5UkeVi/+ZtDKg1uuXMZul40/VJuS
CIiQDepfdXGam2/EQNW3jIDqkFYtn9Zgiy+f6Zn76f0bRBMx4lx1CBDN73ZrHIJY
OvVgdhggVrGD6yaZHbkXsLCO+AKEf50Le1Q21Umr4BwXc22bU3M0zCrPKKbxIWg3
A7D18NtAF99KjY2c6E3ia5P0b1Yo7U9/LY+Wxgv4/vd3+Ex8h6Kkdj/u6XzSOFas
e0Zc3BXxleGu9qKdoVfOWj50xxmG4CV+XaZLy6gjoFBnQ70X2a3jTnfO+PkdiBEb
peWMIuzOJHKt8SpP1B+kAyrQfw2ud3gdfDVkObv+ilnt5hrGSrE10a4kWpRqQFxM
MYfowaNlYmNcddKr6rtW462aqpu9V4PoaY+sWKPw14tY5w404m12wEkxEcQzWD32
c0HbNdXZVlsVptgNOi9zBOlTGTOVA5ahaNewdPQ4zxGQPksy91uLsyP44WHbs8QM
KO6v4mo02Z+7BiBmYqT3DfiCqlXuPahi5DOIHRwMGpqosbgLIN5hb2iz8aRvZ2Xp
pgOm4S0rW61ybGMlCc4FR9nJVhuKhaywjv7oCMNk50zXItfadnW6pMc0i8ByV/MT
/UC5r0uS0EJY+Lt8CwARAQABiQIlBBgBCAAPBQJYutFWAhsMBQkB4TOAAAoJEMPJ
Kq8+YK7ZkvkP/2NjqaKHQTXpLmcbvzHG5cyWMWP/925Az//cW/vuZJx3ndXSO0uV
p5JRExCzsVKMDYa2dKnIX2flUxNcTeXHEUeUp2M8JfPHeTi3nndMiv3DvHXFDvgv
JqsY5r4zj5ji1CQjU7BqHY2GJf4auAmL6N2ZoV1+JpjAWeYvx6eLrnnk5WFVoeBU
ANHCf+SZ7r2g2iFVpYw1cr0PLqJEf73n887KA1VFz4ZFI5AvhpNbNIF7a8zgr79L
7Kyb2/wzF43Ngose49E6FH/4CRZ8uTlbZm8megjELYqtFw1HadIbnUyK9b9hghrA
0OjqqZCnk28oxFqGi2fy8RTBL87kEm2qK6eUBMpastQhOPcSD91LigisJgP6nDXL
rJtzSKwEIPWjnIAtAxrPcvozBa70iH6FhmTwKDNOVEWnciLe2v1v9Xsbyj8mts+2
W4w8bYJmm/IS4HfQMFBFhdkMuPKHyv0fTHn2Zrv1yNW/rEpkl6SwoqtL/xzPK41r
nRoXoh1LEOtglKqjz8/JBXY8VBVYYW7jufGPI4BuKdO06HAy+klrcWmhoj1bPjF4
eJhAHPuCNCTqKBnfK7ENQfjqWK0TrxxaJLdWBVqGGHVVW0HYrBeHVJCpwbwKbv8X
bBNnGs/4gFCJZg4TENwtkF6j2EeG5AUYd8aAf7YfaByr627ayDkVPlsriQI2BCgB
CAAgFiEE8p8mzye64alxmua9w8kqrz5grtkFAlqu9qwCHQEACgkQw8kqrz5grtlz
CRAAimu6knHSd+alrPbQsR2eoZXUWFPKjfsPCNLBchHm2rD+FDYoVdb5aTZAu8mY
GBmgLj/luAeVwSoHk7OFv/YpreFf0+IcWn069JDye1/AB5SMomlTiKWhwc6B7Scb
RaHnD/WzAUPVAKXPUq60XFkB6jFyyYsFPJudVUiOB531oTkY9Dx1UmVbFq0TGrzr
BTYfEJrI6Zfqh86OCXGBRC3BPUTtXVr92U+isZiwOk5msbJbX3fHMaiM0hIxLx5n
QCUiqsi3UOTHVW46nVLY1cUOWyh0X8HRG2HbZzcFStf+C3EV7izt129J9yRDJaAp
g4SBlutVDJz74wUqZM0Dd7nd+JeFzQbtuhDajIEO/Q64JkzO3w0QFIXYE5kVjhAg
eOU97HP0gqyaYBjL3v8MIxEJsGYBP2Ly6sD/sPKVhr1+n/nix//xpdCf5kuZPgz4
i/GNqlVz5qL+wfMffeFR7SJ3POAdVMOyeT25G/E/opuyAWWFTl3Zhfy9ykuQ3TFQ
m4tua7JKA+NB47AqMeBVUuvCVzRBpjGsHBtrMWgPiPiLYJYMOJjz3aNaWknu4fag
iFIFQK3klnaQxjhE4PTRMMvNoD2d+8OTZTJxjK8HAIANoegSojbZZBf0EUW00Wgw
QnYlKMStnQVV4IWnhmNfgkcj5sOgTJBXMBi8t4vACiprmny5Ag0EWLrRkgEQAKQz
acdXgzCCgj921WXTYDTzh0QaI6ZjMLJ13vRvsnP6de2VhwzhZYt8jbc8rnE+pGHf
ZotNqsJqe3xep6S3MsUvuBOFjxCaSCndeT8DAnTWRAGGjIwy6qrZKlND96UAPlcp
iB5EKqrzHdEcJUBd96oO/1b3DhLC4UCp/Poa3hhp3CUv38DJsT8IrduKaC47p355
spbceklKsZ5ZYSRY1mD3bH3MfGnttrZ6rxXWLbra0KHFTDGgzd2zd66T1VnsiR/v
A1blEPSWVPEA/CetgKXSK9uHHwRxOCdkGpdtAsLTbdeNGDInN1KOnkwogD8wUJxI
0ual6+diKvZALFDm6446plHl+nqqoCSt+cyI+fdfF6GI9neeg53fL+Akvy/FMTGA
SHord3sdQgZcAuzR7GktG2AaJc7eje7zd53ukXVKCCwl8F8Do0MMuqRpHlO3XTrh
MmC8zqS062s1QsA+qyiQ4zgG+NcnTGRGorltTcnY2MyVMH6jtAn8uGUHMOgtcgvs
pn5Eoaxhbm+BfgDaV2AafVLlMdg91LxNjiyIcoI1qOTd+tORFji8BDAUt66yeD9L
zS9cE8i/F11CkZ/EW83s8t38hVQusEV+zqi/LL2Gyo/XHlUiH4X1CpRbC06J4ScY
RopK8r+z/H0E/sigBcYTBfzHK5BniNn7KeK7fF3TABEBAAGJAh8EGAEIAAkFAli6
0ZICGyAACgkQw8kqrz5grtnXURAApOn/vVL/O0jlmeyLqM8SvXj+DJqTgSgZJ4J8
FE5SPzF9heMkyl/KYSjw+ucEuKs2UjZLvoyk24XzHpq1nU8w2cDIeLp7VOUOXD9O
FIPE2Gl+S/WcmJiaCG+Qp6n2URrsDAq8+GebsWm7BO8llrKk/R4VKvA2EV7o6dg5
LG7cIqRGNRrvjqNKN5gOAF90w0TOgDn32qf/KMxXvHt6mHx9UJBL2MFIO2ml0LRl
bPxdiibRC3LO4iE0fh1xscQI9LM7aSt4LBDHUblpwo//SCZJT1swjNtsqIwYppgA
sjImi+tghqudcSKgm3Ns/AbY8NohmtFWhfaV2XsJ/juTAmo0m2KKFBV4Dq8pRs+S
fTJvOtrOx/RtvuEaWaa6K4c9RmBnTGbSetKfXSemyL+sf5WK5smS1c64L3ageNxu
yTzyk7a6QqP13f1e+qxpGzSjUhekKPSAxwsCoJb/jtnXiaNJOs2PvRYSzA29TBks
2iaK67Vvm9iw3ASsg1JaRh/AelcnHmQhMdtpese3yjF21bmjUTvgPk67di9Pqz/Q
aku4pPymjUlaZxY9xPwiGs/WlfOaTtMkoPzufoq9wQOZKBPicW2Xh5O8rcJPSqDn
+vOm6fXSmKGD4jwYSLghbZ6t0VxQHRP1hKcf+Vq8l20uKcguIB7FV6waIePxsuO1
f2mm3nO5Ag0EWq7+TQEQALXuIUWfOYkxYyEhdGlsPmK5VfbyCO24XsvU3OBhV6oO
f24QXXuv5JvuFLNU54OozjyGTKvZH6Virmond09qdacl7L4LUXVvwmbqbjW/oVm/
/AuM5qu4WVewnMdetxCNqspNxZ3SuAGsIrFu+AO49XIFVY5w6gg56zioY3qarx0g
xcj+IhpyPF1Lmj7Pfyk7C0qshN5Oj1vXsJV0WC256+yEh9UvDT/KPJLzBAtYBxVd
yGykz57TuNgqy9pyGmZhJ23Ze1TYSawJYo4n022OOrCgx26ypOaXN44yd30/FV3A
JEq2EyhlmZYpj5ciMFaxNd9PtRXlSQJCFx+uD8Tt+hldCRckZ+buviysA8A4TvFm
3AnWHxO5M4m8Bolxcbe1rGRCfxj/6yFryQ/dxFKiU/i9vNWft3Xshm6ORgQVcT7K
3x/JTQyf0F56i7cRMaI3WM3qwQsI7//tiWoCNhnIUh3pW4p8uOXhvWl+RUbreJ9j
/D5ZUyVqYi95Bbrinaf6MB82eegB5ThHzTaQKICGlzP7gGLdMEst3GcdZWr90jx0
q4eQg4rGxWOXJVDE9YaahaOhHPmeGmEUxZ454ze/GVrPvRCmMLVC2usuAC3y84lh
KuVSJLgKQdca2AdNoQCqYeJuzJHfaMA2GOnW19If2VMPVcE8MKCx5lHa0eWaT81H
ABEBAAGJBHIEGAEIACYCGwIWIQTynybPJ7rhqXGa5r3DySqvPmCu2QUCXpfoFAUJ
BcodRwJAwXQgBBkBCAAdFiEE9OFZrhjz9W1fG7cb5vwPHDfy2oUFAlqu/k0ACgkQ
5vwPHDfy2oWsghAAo8Q1LLd70SU40ylYNxv7Tyw1punu/HvQ8OBfjs5vuiWYuxDu
KgRsWvuYaarYj1d8sRAP/umFkZWyubBhHX+uynQ+bMkkjOufmGgjSL5D57UfnNLs
EAUDEsFOxLFs1WLITwZuuYRsmhK51+Klfe2HcqEpEOsJFGiH0mvvCpztjBm6pnWd
mV0MPlBqEQykBT32lZ23FX0UVUo0xh95Rf2XS2Gs7uGx3roicMDXUZhsS60zJnk6
ltxaEAfj0bIJLQD8bZv9YiUmPzwECSDyjjuk+xWuF3tFo8MqCmWHN4t04Nmf5JUH
yM4wWOYZZyDBZ5uSPUrimjY1q8GUixkTRNi+Z3s7CCJmmaHJJft86YJ0FuestlgI
dN1v9tmsmCXEkbrV0uJ6qF5Yipaxp4Fv9R+5kqSgScc5DWzROT11mXwu8oSKj75C
A/88cZbVbi6A33tiHsBisH0fCBIyuwxEeDnsA4t7ItgOvaE4pk6oO1TM9vyrQiyY
fAcyDiPhqrXZ1Tk5n2t3mXWBZxBraNvU1U5XAkxSvCLJOk9jIUUPlAya3rVD8ahY
C+4XgUlQQmX6IAih4o7k2F4YunABP6OvXNwI68maOTpxZs1BZ2SrFsvTFYOVEp0M
Dy1zFZyPuA/sN2vY1hugQf7K3I+OljutvX7uMB10WICehoqhaqJo1UXlk0IJEMPJ
Kq8+YK7ZQkgQALKfxX7VXOmf2Wj4HNxgpaRURf3nCcfocToALx3yiecU353bog6a
LRmQuESkhvXo/dqobyLhJs5g7mpRO+Pt6bUEyZTgTJ0FPkslyUelHJA4jJTArHZG
0WOO43Vnq5QuuSG/c5XVW+6zkFlMdnXTCf8df5VPZFxOxDw8rIfShIT8LdV3fg+A
aXmjUcmJ0S76ihpNBPgJzMQstQoe51xF5npbhdH/FiVB8nM1gSEgO9RwBLJmfaRm
lwX0p5Hh1+V0Bqu1xYb13EGcPNgnYNFrnJku7QcUAY7+tfriUYnvg0TWItwNsRK3
uq+y3B3mCuJYKa7bwOLCN7DiyiJldaIHu58efuVWx8EfOIPv/L4JtT9kJ05zWjRO
SySnc7q/X7nVKnl/ozzvOugeGqccXtcL4s03jsyF4iKVxOMrOc8UJAhEKh4NNmXx
i5uqG1jWEf93dx8hfL3qq4e6q0TwRSKD50C8g8/jskQfzjFiRLJjnEJyU8wVYTca
ujd383nqbKd5y2JFA4jYvRiQ3fEEKBiMlPR9zpb9J5epgBSTBNSH6cz1pYi2sCfE
FhbPwfK1tlN6kkJVXgdtR/FfnFYcrc2sL0l3H8BlxTr3YxLeqd/mBCyVZ8wznhc9
QW+P+LXeQoih8qnwaTX4IfqWUh38KqNt/Hp2dNKDpj3oyPXE+coi73BnuQINBFqu
/msBEADMQ/Ve93RxhSHtXue8OMoBcefl9zHCugIKEivYPa7UlPR+gZvOnaoKjyJB
NXJGYXY9Y/sSFj6DBtoKg2onyiFK4gq0oJ/148wLAyZ17HEc1ea/JmeZt6cVKOHi
2PVEmKFg4UAsjglQj7aXibFqSKNeVgYRfRz4DXRsW5XSZcK5yLGXtgNkhM73pg0J
jHi52W7rYzJR3Zt37zVR/QBoYXe6e9/+0zlmRnDjuHoy0IamwCuBJ55DT7AwrRLs
T7Ozf2cZyJXhok/NPRPyARv2JzauBpEtgVrDwc5V64gsMoaEvxcS3hucx1SQLiHV
VM4MF4IGsXCrRS5kXU319ZchJmeadbx8+PxXDi1qI2xiuP9sfYCQv+snVdIDCJ1o
bJzXXs/IIeG2MlZrmPHWgeZCea2xTk+wOnAXspaGFN7hKm0iaw1qQZCEi0bU9ed5
Bn/ynHwGESNWMka3eSkkL29EZjP3DHoYVagtjsmRRdKY/xlqTmUW0tZy50RPrJuD
tTPnKJe5vSCkavys27uACJoKiGUSHM+SmPfki7/5O2zyFiFsoUUlWRKOPunle6la
Tvk2Ez9p/d1qZdUMoW2U0NQWSNnSoPFirjorK5a4ttnK7u1NoUBJiXGS/g5k57K1
mmyVTz6tZN/1PeWdvKF7nzKeEIvlCnjwFcvv6/JbKCm7ST0QfQARAQABiQI8BBgB
CAAmAhsMFiEE8p8mzye64alxmua9w8kqrz5grtkFAl6X6BQFCQXKHSkACgkQw8kq
rz5grtlVfRAAhBmRZl00ouo294ZbbI3xeGhTerbog38K0KhQhtEo0/D65y+v0FOc
onCM9/cHItdgn5Vq5+RNbE16MfuXGu2J8F8GUIQKAUkAOl5XbxESdHJhr+dDdvVw
CrElaBNvw08oyWqF7T2hP0TXFECxh+NRzj8aLydFFkkMsihLvxl26HY7lHy68J9S
zc5/6JSA7WTxdFS3sm9l+6qe4zBVgwoFCNkLGThRVDPVIkHJmSOxt1z+FR5JBSdX
vpIGoV8Q3AAgUfDt4sAjZdAdkri2HfA+T1DtVwMwKSn8BGTpffdsomxEYDuLNHho
jzuxAMM6BlrdlAniYGx0kYEr5zdXUJYe/vo7jcM2dxcL0VC4wim9P8OkWA0vTlOS
qy8M3c/aXDTVhurQyaNdwoBx4UXAAM2arjZwggzpRSgRvTnP+ZEuzOh/rX/dEGVX
Ub4whPA0hfWVKXGFucaVdFoigxSeP+/xcrzeJG98s57aQqP2cO3RJ9d9BdcbLr9u
7S7s4H/SGdlKVVnMDbA9C/RQJpVol97z78BJPIQPBlkhvSGCaUggI0v2Qh5e++Lb
UP4707paalTOQuE2E5pZcgXtsT31U07R5NOWNXK/Ywh2TtS8telpU6Vyhd9NZ3PT
3d7U9zeBHbVo+W4vUWWQUapb7FenZGL+1yZCqkpSmNF65GO3LXqujn25Ag0EWq7+
jgEQAJpN5GtyFoawAnTCqzf4WMJ9PqvFX9MbG3O1qp2SRZypvVZDc02+s+x6LI73
VZsm+rMOyqqmbksp5cPeQ3aZEFtwlkKxmA4ZWF0m/n/8CZXCq2OLBL3RqK8Eiim/
BVsPgP67M498c20R/lz9dubavAXKXL+s/wztPQKChBqZ57SVpZzMGGsVgWyVRh/3
2UT7o91UkdS/HUYzzy0izZh9GkW/PO+iZDMw8/PdgpapgpPLdOvnfsUqCiBz7d8w
e5imW+QddgIJ5LA9UQorwVYdysfORwjwPWtK9AtG8YHaZBJQCr7tQbHlwqIZsQmE
P3AY1lxmLJK3A/fiBnTL/dheTML1t04IsEmkAOyI4YQzncIWlYl/A6lcFx0tNLui
m2LfbMeTPB4y8iamjq9e9VO4KMny/Us0ayisQiNCZs8nqAn/IyBHtqOHMxsNl27u
KuKaRjY+7qPtEP+D+bT6Cup38PyXLsVoOODhv5LLpq4nNKjdXiieFnca/+H5KlDq
t9ZTtwr7rIEsh+18duNewKPvEcT7x0LvMAB1Y96g9AgI9ZIuOJz+86jO4egHi+5Y
LB/iLIFmJFxXmVLDHcC8BJMCcDX+c2FahQqENjBO/+EJlysFbXs0ldjCh8dhjRNf
W+SU1YG52ZNRNEH/QuydCu/UN7YjTv5i/rDt7UP+mc9OVW/5ABEBAAGJAjwEGAEI
ACYCGyAWIQTynybPJ7rhqXGa5r3DySqvPmCu2QUCXpfoFAUJBcodBgAKCRDDySqv
PmCu2cIKD/0d3CAwzGNYGKIhA+X0YpdnRXEu07yIYW/W9rcddTqmON9wLyWOIRO/
79MIEmrxrPOgBPZ2FDq0AGSr0mMVC3cq5zWqXvuJjsekMkXgZEczf/5M2yO326hl
LjPJf1jC/gJVKA46ge41HRXzK0KxuGXQBmSVSFdK7xNe5shAO8P4yyJvcIoXzyCd
omMEhOPKsOIv+uR7xD479CzrjhyayaQF+E+6AONpP4RWVPAIlm2THSstjIyIFMfE
W60784DobY+0z+w2MXDvLMMjIawEDjDr5iGrrfluf8p9ZOaQQiP0bmCZ+yAd930m
W47aSWrmIZi5sQFhLERmxDJ8S/h1clIxCHRWeSxs9ev5Cg8VsaDYNlCxN7hQKQa2
cSoO7oV29qCUcAUm4fXhX36rYkrKsKhGIlmGI9Tb+f1WmgGsg0DhI32HBMaGfvXo
q7FqxJvhtXDZjzuHjHWbnXTEy4IiRHpvV7irttbtUffwvSNOyWoClz6ghA/CJiEH
tIlrJHNTRnaptEwnNOnzIS7172TNLyOrnEhqFOzPH1xH1qbcDCHClXNEZt4U5zl/
ttxHeXSR8Bk19IiOgrayH1upf+64uUR18KIis2+J+GIbqRMSGx27XrgkVw35Fdlv
1/rMOKXON6Ohchm7ucsH1+UNHTvpDSnSzPWIeQx5PeXJKNLvaFkw3g==
=2o9+
-----END PGP PUBLIC KEY BLOCK-----