pub   rsa4096 2020-10-22 [SC]
      B85CB46F29684685D91DA581C5C5D164F2B206A1
uid                      Suzuki K Poulose (Linux) <suzuki.poulose@arm.com>
sub   rsa4096 2020-10-22 [E]
      5E1CAE126779729A805613CBF24F6A2D77301767

-----BEGIN PGP PUBLIC KEY BLOCK-----

mQINBF+SAC8BEACzio+Zqau4cGDsYPUSOYVa1wMq7W+s7/B2CqBzspGUHvv6Lenv
pWMjLjmUT9+uDWXqzsCfW5JcHFMGqzjIl9URcZlReBqyLYxf4dVR+oS+guGmfx9k
ygPwpPpJ5NogetN4EF35CSommp+D2D68r7nUiCzLge5h9nvHpM7dg9Toq4Ym9hm9
aO8pVXvDHSPiFwOk1wfNCzgOqm3kbzEBchLy4niRgZtTk1THcY1jn8cG/vPje6sY
mQgLdf75bAkCF9UZVyqU4mTsfg19fF2qFgMjeE9zdXE7WoBKdTKDtFW0EZo58exk
dUo2gpBEodzwYtNzU00boUvQBe0Zp5/e65DRYbKIitJPMt3M/cfsfXGJYShDpTQT
odkiGsEd9SJiLJZfSGBkZbE165UyEMIb7MtCfYtUc6qcuDQVZdxZBdisFBQCaVyK
5ZDwiEp1lNrRbxR1HbWCcYoGn9L7LZIxaR4MDLzicbXjuDXMl29PWvYHH2kE1o98
i2QQIsAoi4fS8eBpz4U09vdlN49a0dBJzeb8h1xDQC8/7Q8OIDLTpwfd1IMZpGrV
0LozI20SkBB6vWW02YmXqez5clXGSenzCFGNmfPk4CnLuTja2HBHG8EMDXz4pe3R
VI1hqgWjrBJ4KR3BHUDsJEtnYKJUIyPzs2GH40LGN29daDjzMAjVtTasJwARAQAB
tDFTdXp1a2kgSyBQb3Vsb3NlIChMaW51eCkgPHN1enVraS5wb3Vsb3NlQGFybS5j
b20+iQJkBBMBCABOAhsDBQsJCAcCBhUKCQgLAgQWAgMBAh4BAheAFiEEuFy0bylo
RoXZHaWBxcXRZPKyBqEFAl+ZP+sVGGhrcDovL2tleXMuZ251cGcubmV0AAoJEMXF
0WTysgaheqEP/ivwwaiFmNUERC5EI5K5QlOljOHOcaqA4bTCdvRk74BPUW9MHBni
BggwbffSlrL7oy6jP65W78D2Pq+izVb9rjRVFILMNFHTtFePu2njo2E/M1DdMDi7
v86O1Q89jcdDk+l2VP7xyQQ9ZnQqMTyGzLP4P3gMVbKp8KowQazk1meGuH/WwDMA
itBuP2q2bd09yekc89CemOFRfR1WteocJA+wM2NHYlxYcMZLIFTuD3TdQs9ny16I
ewws7zOdkpa4+VpK9E8/PF1+Tb0JmVgVU9PRLoAwqVjtJC431y4ywyPKQG5wKpaL
RI7N+UVCR7gfRYpZyRhKBuRiYPJgsfJn/pOCsy5+mnbCvnwEjd11zQfg6q/JVBNA
aMyLNNLk3SsNY1507Wshc17LbdyBXFikUyhIXwBczRasU5gPq7ZB0zav+gGfg4vm
NVX/3JoGyCgtgS6/WcVovX39uwsDJVaISKRlmA3CZHo4upC0lwMK/gHceTdSJuBF
3gNRSw7GEdJHW1QWWnvl9yrfzRrIw9hIoA+XMYW1bkNGgo7ch5MNwH+3e7g8WJd+
vmhaM5qHuA67YH74vsJZYbdGYAjn8UHXSMKsQvQDkw1mQCnz84CiXV0jaHhzyvKT
UB3Y2js1sI7KjQtuoeEzzEUBdKqO9+NFovulrgnblndxVX27Q2Xx3W9iiQIzBBAB
CAAdFiEEc2CiF0Kt9aEXZ8HBOc/UdV/i1bQFAl+ZR5MACgkQOc/UdV/i1bTP/w//
bduc1dFNahmT519vM1Z5+r/ZwSTq67MbB1bN8mWDj8lXz3qEfK5++qN9xle9E78F
5pUIQDiogR2IF/J8q+Mhz5jOEzy9fkxv/xPxwb2dQHa4xh30PIA6Jh5D8biEc6PL
OoGZjAXT/QZXszHSRDN5OV0SeX3XrCDFBVAFN95gUjmnS3KF8N+OkDmK2UE+nzlG
qgeKX/QVz8bBQ8FbYNN/EZq3KY8enWRnnnJPnfrUhKXOhIlOJIHxSqwyVDlSZ9T1
/BFkWecZsGZQb6LHVMXtrW2PoGkBVDtfkUheCnR6tEsjiOw5DsVXQJaigsD/uDe4
7yIwbGuEcqEKePOKS834zoWuESxNUHiDA57B7T90a+DvhacjyT3EHWPKHKfA0ygI
eME4X80ZABnmGxRYvEcfu3T5R6nBUPfdExUcO430qgHF+sLTpQ7uJp1qPtMty0l+
V3+54U47wiQ2MJJTPGQ8wfX0hXtKplLu3AfuYEQz99nc8bxekY9i2k3RGhMf0DpA
UQL8v909VPneA9ifNa+rLeY7Tyj2pkkODaHQOuRBelA5ruYIofx/aFQWWQM2a/pf
L8VjOSYMhoQ5QpD7ji4TBVFSh+Vp8vSazWuZYsrFktc064pooITYVB93oS/cunL8
k7i4HsVu2Pa0XshX/8gPJQeLWEkNSXJJmJ6iN1Rvak6JAjMEEAEKAB0WIQTlESVZ
/JbFL7c8s7Zr1rEtAMhe8QUCX/WU3AAKCRBr1rEtAMhe8Sg3D/9lN6vwvrYgxQ/f
VDTw08aNNEYKaIi5a/SngM8HLY0G8KN71pP8y++u/VSPGPyV9qJY5Ss9KHUrTYuo
xDWATxWPixAPib3Iz1X1Y6mtxtH0p/3FqE5s3tsPpvz5U6gc4X1nH+JMlZlhkCtV
nQmYhv/FppulICno8TtvkMDqTGvkKQBSeNoEwDGm3lYUv5ZFtnZMramEgr48V0CY
l4zjsYjlRFrS5zuacpi/enFq28pWEn+oegBuIpMCpFWz3WMSMcx6MZFzbYewFvzc
uAvj8CyxWpK9MrNelBRXjjUPbxegw/L5AMs/xvw3UUnw2CxMmEQ+UQaXhR5m5sTI
4FRKFpX6m8Y61LUGAiawRBBw2akUjS5V+4+VhCxV0LMoHlIVhlQz62OZIV2Hhft+
J0VNvy0/omYLOThbv0p0UxPMrZH4fIQwVQvqUiIcS2A4MvTl1f2LGce1X628+9WB
qg0RPVv3lNW6eNg9LB54xt3hqpirDSjaI5cZZgTI6dS+6h5oKmM8ndm8hDpx8lyK
omk1i8xX2JUcj8CHtARXR1NVSiJs7h/NiaxFYwAfqRpQbqE6Lfn/hZ/NlGyPmxce
iwLcUf+LtDfa4DfUkFPKwczrKUlr39rNRm8BJoSfJYjNHPft5f6DRKfBLi0I54Gf
K0Dhs0lkNBL+nM4VQ6f8KM4iBop9brkCDQRfkgAvARAAokVTZLyeOgjvjyfBdoFh
F1wHfo08dNKby9LpOj0l8NVF31Yxjmsnj0WnNoK2Dk8M+yFgy4R0Ru2IS63q9Ele
IgVQwgayg9VaiYlHu+cOWYfZvM0URMPwpEsUTDTkc2k641QxjQAsoHj44GQPN0r1
fAgNKCHoKCLi52CHS/8iGR11BRtCsuHeT3qVWaVvkbkNFiHUVvrXwrko+Yp6mwsH
lZGGcGf6bbLx/ml4yxcFJGOICcvGVwuKLZLa65UZ0DB9bl0MGHgZ9/7CQLEY4STN
yXqhkWvU11jRulWpxvBco507VXE7kS45lOaq43kC9fm6OO25ZekBWfXVO4OLrFRz
5T8RW5N2rGIU6FRdUhe89laXPugOVC531Dz68AxHFQurWYwmTFucU6+oZ9L8Mnl+
kJJnTLCohdiKz4cnbBqBoQ/6X+fWIMHgvUItUHx4faHpiFW55ijsukJEWl3DCAlO
OhcQ62jpBlhTSTIL2v2Am88xilry9nvD9NB0wPCv3m6VD5f5JxqZnHY0AlQLM631
vQOK16EaEE+9S+qQCCb9i0ZoFcDP19dOYIP1LbalwPRtLt6P4FQljMwKGfDUdedN
ZRo0wu0y1anvkwi5qSXtJCBl4uv0bRgJV6GJ4t0SNAYFByPrq/T8+MkH7LEPekzz
TIWxf+aXjHkOMB9W4i7f41UAEQEAAYkCNgQYAQgAIBYhBLhctG8paEaF2R2lgcXF
0WTysgahBQJfkgAvAhsMAAoJEMXF0WTysgahbcYP/2T0cocdcYhMy6b07H/G5xEj
/dFrHnYThgwYLFdgeZyWPNeEgYu5pyKdX0wMcoVrD66cONVCBWfOX16nogtzLLax
8X6e5lXkP4tviNhzOH7CK/6EeK3m8dYOvG3DzbsSan4m1lGUVD8iuUqccuU9sp1l
xmHqqyzrlX3fMwzkLiWhLXcbtb6HTDKxVf8DaVbaHWDSuwmZMHrl6QrxFMZgdWdM
6KNpGNx9K+amosliKlylPu3TLiSKjWvHA5W6COqUEAmyKA7u83xdVxlaQh42IWKP
Vz1EoGripfV2z7U373gbrsePETyk2sV079wbCtfavyA+d+RftvCeucWmJ0iktwXd
8m3IyrgvTfLF3UDslkwoIDwWP8LSdy5mmk/t06y2MXmQzKoMIqJ+V/IKw1ZSJOuE
3U+XRh4EVg1nn1RmCtj5VTbDlgQeCJvIUv4yAIDTOsS3QPxfKXleFlcP+cUS+Dex
yUlZeHzpRrYWdBdjaPFHzvN89P2/qEcPwAcVNkpWhwo/rXXGF7oHakvE/pFQcsb0
IeulnU2a8HBkdiNn8GG84FJ08z1mK3GlBnKjKLCfwRZtxZ8Z9T/FhHeiE5c2v4zw
NCC9F0Ko3fqo36S+oDGz37e5DDFG3lD3Dqzyx+BB8FPdXlPw351etEKpb0uPbHYm
iVkzH97AIAuH834bGJOR
=Nzsk
-----END PGP PUBLIC KEY BLOCK-----
