pub   rsa4096 2019-11-14 [C] [expires: 2021-11-13]
      E2223A758ADA39E1BC8D7A77C7EBFEB68865BA65
uid                      Chaitanya Kulkarni <chaitanya.kulkarni@wdc.com>
sub   rsa2048 2019-11-14 [E]
      449B563F8CB7500DEACD9F5F9054FF216E76FC8C
sub   rsa2048 2019-11-14 [S]
      B804575A6775EAB5ADE3FF399678F005A87DE480
sub   rsa2048 2019-11-14 [A]
      5758470DA164EDAF9AE4B685F1C90A3A8AE446B0

-----BEGIN PGP PUBLIC KEY BLOCK-----

mQINBF3NwUQBEADFd8+ueJCDrvzsJlPxhILtacNMtFmnybDCw8U86uGqU5qftNrt
zs52EUggeYYly9rJvvIJnYzoTOo5ZCkyW4+HmBAYdQZOPpXIwsAXJpDmBAEba9kh
IcMDVSSzc3tSlTaOcBLEn6+XdBt5XZKEgnK1qcihjNeKWjPIgqdFp+ZwUNSbY5Lw
Iba8wzWE04FDSwy6VbUtT28C6vyu6X3qUlGrOKuSNoZQnYiMIOiTB8C2vrV3UZS0
m0XaaCqRMVUgrXC8/WfyNxpM8u9/JAoLhJPcVdDlCXgIi/bMxEo6n7/9wO7wHTRO
XnhcrrctbxTiM3DejjFWeCBxzFSrWMgmTM9Np0S0UZvHZ5v7JMyrwmlqMcsEn2ok
pcng0grlpoKkdI8Z2aN04aL+TKPJVGk1GNStfzj/Tj+vEI/7uuFrIrTl1s580Kdd
o85Dx7nQXQuYuMGIQayiJoF7SH5kTOr3tAqxqRO6VfqOERGopsnFIQq7wkg00S7R
XMC9oqr4PjwNicgMcLT8xambBX+Q9SFK4Zicld3fi3SajhgCnqlJ/jE0jyw8BZi4
qtO69Ck80WGnRla3eiwpFDJmU4O1/WbdjaS7IUtFtT3bZJLWtTG8ubVeAMYDZCkw
T1qKGlrapZyA6zCVfl6Sog5perZZYL+pLm9TlH+lHDjB+15yKGfZGnMdFwARAQAB
tC9DaGFpdGFueWEgS3Vsa2FybmkgPGNoYWl0YW55YS5rdWxrYXJuaUB3ZGMuY29t
PokCMwQQAQgAHRYhBNvBHS03O0o3VfUC7GJRVmEKT2zABQJd0wGxAAoJEGJRVmEK
T2zAMv8P/iT6/JssIymTcQ7N4dHOOVxRriZFNSUdEfLz3NvC+HEcz18K2o+qbgCh
t/1JsCC5AYE4ZMEsx45iH57TRsBLzmJBWrj/44Pxw11unGcwAYoXPwpttbFdND7P
WInlwORaIrY/MR75v6t4mYjYzY1Qr0bLQH2YYps6nWGqN45IniDFxmgVW1Rk4/RL
zJ9eU2GCtfCpQq5ZXHWpLbZhsMJmrPrhvtEY+8UU2mnXWTR2dAyseSjDk/LWRQGV
ykQKAhg4VGm17h0fhsmo0I9/iP3FI5RnM49spuxB1uHFSFGK12YpjHHyJqGWR6U+
CS+8Bog+SL/8nKBvVsRx7FzdOAmxPpeNDSo4EsdVEnVve798EuXLger7XhaEZH4c
is9rU4dnSV1NtFA5JKkf2qXz9XGo6G+ReX2Jx0l0NU6be/dFv4nuVlIhzOZsUD0P
LhEmEUtE9eYMzUxkabdtVqgLyIZelN33XG+vvehN2D1UJQZF8aOc2iLMOERNzMrL
KcYUiC/w8dpJatx1ms/0yj/UIQGyQzpcewjM/nNxDhmn/pN//uBtWITcSOF35Y20
BPwha1JemRlf4gWNv3nTPVJATZhChttjp5Zsw+LYT+zQPvifQ2VR33wdBxrxa/vq
knoCIwyLjWag8V8f+DSz2WNbC0NLXj1e/Tw4sLxeNKDyVFtAUe7LiQIzBBMBCAAd
FiEE6fIX980tt7OLSJoIzVfjXFuiBmAFAl3bL6QACgkQzVfjXFuiBmDPUQ//XOyT
GHIz1ocOQBnHjnovaKdTKnSV/zi9wSeeI6pC1M4epy+GOrUPU/K6TN3wj0XOwk0/
MvnpA9U21eRc7s4wr3+HCU5i7u2rAO71nKXFk1ZGyD83RIy7JTeDSzKjGGrQHbhj
iOO+I9Yg3OqEO5TC+kFGom9eRMRJbvpG6zTUQ2S/FxBu1oQqurfk5EmdGezl2cYo
5JSk/0YodbHlsrrwvXmU8SMo+N5I2VtuVahxFoOrFEAYDH158+3R0oW4B0EULtzE
DFNszLM+6yykUODB7U1GujJB8IFcX2TRbNi+UXxZMAOi9ybBXkHyE3oNPWlSMChX
yaj1zJ1OyZesLU2eciAz6qVUmuKvnFjbYUfepYk6NAt4EyUDUQGNKU9Dd1cgEt1D
keOHKhwJlD7rlby+TqPD7cZpQ5Pt4ihYwngefoKosULzqw/Z2+I+Ll4Zse2gie1B
AY2Dvlm3dSFItRHHDEf+4VrrWjPAblFdSNioHN+0HLA/iiEjcLbqEqpsKE741xL4
wDHV6buo5yFlDE+1tO0kkhbeCLT/No3HFkPIwbO/QLNNvpOSN7z9dZVTNC1nSikg
ISfNDj8GrlQbZgGwqdB7mxa5uNUbsG6FKfVOTQwahWlfAwU4EBqcrwGVqpw9q0ts
lGEOvU9Yz1jtFDHCg1dCskpoPKO8PfQ93RHIf7OJAlYEEwEIAEACGwEFCQPCZwAF
CwkIBwIGFQoJCAsCAxYCAQIeAQIXgBYhBOIiOnWK2jnhvI16d8fr/raIZbplBQJd
zcQnAhkBAAoJEMfr/raIZbplXSsP/2LjAvLQDdRXweEu4Z5K4dWdVM4hzkFZoAF0
4cMYEvvlha+D0IihwhvsjJBzU3qnLmg6Ayk5Xz8gHruFQUtJVedEHaoYXEiayR9u
9dkhfN+3dOTORIopOxwIlBaULnNHuSqdnYsKXKA20NIlTB64YWfeBP3KDC9gOS10
YO5IV1C+uYxBL8Aray7tiL1u9VmlJX8XwzcRK9irsBifG1eWLjJk64iuYwJeAkSE
B/1oQtyl0dX15KNCKJsWu7JOL3BxprITw+Fu9ob3A+edpdkIzzC2iGg13zYqPrwl
Q15JLjASlX7wEGuTTVVZduXeeCc+Y68SYjcqcqQPgSJ1yPuAa9dsuueLNFLVJyz3
D+wJf5k3OBsy5bZAQdzCe3FVxkZWeQJDJ1wfpuN4UDvUOG7keG/MPfa+sga5081h
/+MemuNmQcOjQwVdvmXQZT84MBEDBep6UOr6ff9uxX/FW1Qw/SbH/9Ru1Upws9Xm
zW34hMziCUU95ALE5URQpU1tRlQUgcZ3e+6dxkie4zZRMMeA2nnORxmUa+Met3HB
6zVt0K2tYrMpDat+Hn4iZW2DVayznHTePQ/cqfOIj0vCEKAuqeko+IucTiRUdErX
Qglg41prOjEJNc3y+Uj1bIFkLBKVf5qXl8E3iyVHL4hFQFGFryibQw1KyKcIpa9d
FcHFv19duQENBF3NxF0BCADQpp0tYA90BCTXLc1EFTdSqYfCENec0aoW+n6EG6xI
THgG/TKbvmOxRobSCpI0Ul/rLnZSNCaSJkdPwZF8wE27M0O2btAEJajsXaUjbsJY
7FaEfGC7o6vTXV/XATaXEudhv+x78qDitXXWZWqvDEtKTpL5rsyPkBIjmXNLB5eF
bUrQ5zid7nkUASMvmb6yZQThz634HtkCiOUW97+OecW62Bco0YY/isQAE3GNOKH+
fT2VDjoMi4BMNZ4BJCKgA9kM4tNWOTlaWDmMpEssNzLhN+fKIB/2c04/JjssSgbR
1w75mYreRbzehrxEbNgr3iwqGxfiuIXFm7i9kGYyWWC1ABEBAAGJAjYEGAEIACAW
IQTiIjp1ito54byNenfH6/62iGW6ZQUCXc3EXQIbDAAKCRDH6/62iGW6ZbEwD/94
I+nEmR3BY4l8LYUvmbv3UAe9c1yKL4isRqVr8ubPXJuyhgEp6PD+MctmztTkbwzW
3E7mE5Az7QYPkK4/JRBC36WFma56pfLYEG40fiRYAqLdM2GiOgWRtQwEWcarIKJw
wtIYN/4rGdMn5SoqXApY09MrGtwkTNKJRb5v9PuRLvBE8BHwg7ZnrOC/MUamAl0L
n6z76sw6B00WEjktdY8DtVusOpgD/D496iooYYcbH9pw7icPx0n+c9ThSwAOlYO9
jFIdfVcrrRjDHmI/1S0OTQ0CMoK45TOGUbq4SXi80Qb+vUtw1EgMOKFOjUFB3j8A
BjRAW3vMILm6/GdmUWq3v4Cr8KMZQ4oyqp9VrygfgoIOGWvKzMgaPLy6B6fyDyYQ
2MUsaK/JLJMdt7nNldMsQxKW7QeKJqNWDFPvqAz462fYGlMJAKve7x7liZZ3yS2b
lImxxkd1DPkG9IAV/uWRZ7mTeuyGiq2kFKziirbzOmavbR/R30Jsiq/B11W+qaAk
i1X/aVjyrWLjrcS05J8GNHqBq5DX9XVl9l+hDcwu6UjXGNJiZPcVIo8vZ/j54kAW
X4sjIcSMnoBo3rI0z1Sx8mMtv2K//JYp3tbssa2Z9r3Yzs70yzwXINfowjm0vNja
0WD0z/8QnHg+IgxN1KIoXcqInul8rPgAnb4RSd+mt7kBDQRdzcjcAQgAoVtSNqHY
/byy8ApSE2wP3eF9rTxPYbuP+FPCJeLOQJQ8YmUoWc+gF4LPwc4B4eoqI1o9vryw
BvfeRhhw+D5+7/Zs87vNLoBIwsSt4N71deR8RSCQYmcqKSRRLTXp/0fFFvWouRE/
dkqWD3mfdrhzrd2yPXdC8zWyj4D2nTnI730khAFYRKscNd+xoBNGcFrWMb7U6gum
AWyAO8qjIcPCdWdmwI91yEBYLW6Ixc+HtP85HM33Q79OhCRlRZDRUg2Zm0lFPyyl
9r2RQYRaYPrp9lkLC84NIQF+9xFuCjquktGfS8cfBUCrzBi5o2ppoVyunfdqpODr
uXNtunhtDbVSAwARAQABiQNsBBgBCAAgFiEE4iI6dYraOeG8jXp3x+v+tohlumUF
Al3NyNwCGwIBQAkQx+v+tohlumXAdCAEGQEIAB0WIQS4BFdaZ3Xqta3j/zmWePAF
qH3kgAUCXc3I3AAKCRCWePAFqH3kgLOIB/9/jCK4NAvR8BNwpxOZntZK3cQaITg4
MfVu5IeXOLMmOYcb4evZS2kqjhFMftUlESzXfouYTNGozA4xWWDGspoKq1eAV+fV
hq+WSwUnSJWv4KnbEooKnJCMGIivBT8EL7y6Vs0uisPZc9Lpz3pAKUJ8EBhRqWf1
JQJu2D+2zruiVJtF2hbJiB3iYUzpJk/yjO/f3A3b1eCVzVDjDzLrEwyH+d1oi/ha
fcmxzU6zCXxp2oR/cOM9XwwbjEQRWNnoPDpa6AXAaRjcSZgptRFqBhsHwWu79b6r
7k5PprIOzoKR6Pqmxvc3KqRy19jnXzA245mVKjNXTNNgFnhVLGNZkGlFhUoQAK+/
n0KL0hm+5Jz+ycmAYCh9thyZZ/Ghuli5k9gro+DpgxrVMuzRvvbze4l+USRFn+Zt
h9fj2Uh3yeD4YaNFuwnxkEllSQ16zU8vIjLT16VnjIXAf0/NBFuhG48jp3lxyBuK
4prP5iPrZlfZUL62Tm81LqY8jgh47Q66SFriphqgURAhbprF9UFBGKclcNZRLwyE
CDnmrpa9Lp4WwgToYWxxJ2eNIu32CU1z75+Aygf5196g32skmOjmhlpCwFc6U5qq
MXwaZK7LyuGTVXTF94MLzqlvC8LylKO3lh/lvF+62kPZT6uCLBNE7dQkzC659zSe
1o1MQ9bthK3N6wRMFk06Lk4B7H1XeBFJviuN5nivU6Zxm/OFs0LiCLIoWZtbZJf9
SyOhxRolF3r0ctAAuhmSCQ5Jpx0Yh/4NhsRpLovP/RrKKTfE7csZnoD44SHFDAdp
IWtObDh+imaAGm+WvAzhxEp3XAa4e0udIJQP4DRUaUytoowheBjXTHPRyunP+isI
Ff1ax3U3hDNz/PJO+t10uyoWJjEHdszHX7/72j0IFAxkHiM1ge7w7NV6UJYjHuj5
xSndcdPFBSNRnns6wiMzJXZHJ+ACTxGgTo0vAumFjtYrmMDlIsO5HXrASjFukzsJ
wXS4ZjkVwQ/CeAq+gswglW63jU+0Cj8zmm2FlwCyuQENBF3NyZQBCADhvEem0F/b
GkBXh7biFdHZfORWFGRMbxyRpW3v/rRz1On+I4GNTZNstADdp9BI2B8VrIBrvBnc
+keiv/2AMSXqtdKPN/ITA2WefhmkPQuBvaAKwwzasPWXyzYxbCEHiE1nqoEjCajg
nCkNKb+KsGggm5H+0BHiBMWew8u8SlSGTfi4KcY+EfF16UCLQbADectDrXzp4M60
CaFIlJo4V2kiyxQQ+TPeINuEgIgSeQTacFIyfOOaK08V38hZ3SXloOSxsDR9/Lp0
NFZsyUyH7LNPc4nOclovej1jSiUoXabM4FT242rWq7xE+JrjCsIApuicuzBOyEX6
oPnhdbrKiwpZABEBAAGJAjYEGAEIACAWIQTiIjp1ito54byNenfH6/62iGW6ZQUC
Xc3JlAIbIAAKCRDH6/62iGW6ZfHpD/46/dA62fs6SG8g62s+RVlYyRRd0siZ/fEo
8nh5okBbFqxRJ0ErrYKNTIZChJ0Vdmh9UimYsyM6hjPOLUdraCk3PazKfN24GTpx
PHfK2m3InRPp5FtIpFsM4Oc9u74H5DX8zn4uz9QpblW+Hpb8oYuboi2pr6aMyKel
8hpyTtAhIUkGQaC5jKDXgpFImYF4wcjmThl2tgynTjFrb6yMYGvhi/FCKc7WzQNK
yGqMDbFzT4hDWfUPEcGGtZtIrMP11sUvB4U1sZ2t66uINJb1mP2raCb8jGBi3qBJ
FD5Dyc6POIUA2H/5Jxk++/JQF4fQwwrQgBww5Usmz1iE2QOG9uUxPgTrV2AQflVC
f7yX29gm3rZbmF32Y8jE/MrwBmruaqAr0GE536WVKof7Md91P6O/y9NTLtAwm1gK
egLImUG30UOI4ME56W0aDWEVpHDwHNbTyDDwl/s2DVeoJ6CXfp+qglxWqPuy90d/
4P56Tk94vMQkBFYnF1whY87JLR0B7bY4slsy+h1wLchJmXtfRlTReruKnf9LVpwz
rfFq0F3vTvnzuzo1AuHP4R5w6tQgj30I2Au3vy7hnXUhzl1et/qSIYQ9W/5rOnw3
E0hSIjoWUs9rFO6jn8bP/RAupvuLGD62JRKcoF4dgwQ57WIr1hpqeaNGEW0Aysag
G1/UwZlNWw==
=/MWH
-----END PGP PUBLIC KEY BLOCK-----
