pub   rsa4096 2019-10-16 [C] [expires: 2025-10-02]
      E9F217F7CD2DB7B38B489A08CD57E35C5BA20660
uid                      Damien Le Moal <dlemoal@kernel.org>
uid                      Damien Le Moal <damien.lemoal@wdc.com>
uid                      Damien Le Moal <damien.lemoal@opensource.wdc.com>
sub   ed25519 2019-10-16 [S] [expires: 2025-10-02]
      913EFF2D612BE1C00CC97738DDA1CDD2C5DA1876
sub   rsa2048 2019-10-16 [E] [expires: 2025-10-02]
      2E791D5BC41991F2CF124949A03AD3A58E415FE8
sub   rsa2048 2019-10-16 [A] [expires: 2025-10-02]
      5C193F07000E79D182727ACC61FCBAD2A86E1FBE

-----BEGIN PGP PUBLIC KEY BLOCK-----

mQINBF2ms8MBEADGm/bI/c0IAN+w4WDvpbbHlN0LrjjvE9gOYZP2GOOAoO+bIuwf
h+LMxqlolCkGQh+i23NvnkJn6do1DrWyJJMB0NdheWqXxsaQUNEK7UALvCUbGFAw
vdOoXYe/GcVB417JkOiahihepXVZk60HbgXrJIuTNZUndh/0CI5UbSNRZCq7GYGw
ndeIWRlDFyt73HSQuAg8AWP4NW77Ob/65Byt2PoyXRpIbU/6ZurQ3gm910fb79qb
JILRMkdAtl2/tRmucBBR0DGaA7Rer/iCf0iRu27IwTzf6bA1VuvnVyAxanYxP7DM
htydgfdXLAosWitAel1yNnT3P+vPFHpJ4+TNQZSO5110UyBUMM/eLZILUQE+mC0L
SVR9Mis7+fwZE408Q2eqM8tchcX4OvJvtUHImV70Nu/8lSeWgjspRtbNu1c8lZwP
EHWqKveDxo7dDvHCqqSSrKLLkNnvOHt5raLrsouPdiPiKCPED4CaGqI8P/Ov8/NU
uNy7tSsmX54AV4TsKoYVGA+8SMCvD5KziQLW0xMKi6oocm0ldCbw3pkBnRTsvP+s
OlFa9NPtYyHVf6qOgbRPPytbBwmTNpxTqmyDb1VZ/t9FxKcvDVSpbtud7qehjkxl
V3UMKybCJx4VVnASvN1VKgM7v9Wk6EtNljnI4b6qEMs9Gy/dWL62sy4mRwARAQAB
tCZEYW1pZW4gTGUgTW9hbCA8ZGFtaWVuLmxlbW9hbEB3ZGMuY29tPokCMwQQAQoA
HRYhBIHW53N6/547ctyKvQ+eU2VSBFGDBQJdr6l9AAoJEA+eU2VSBFGDr/UP/0Oi
4wosRFDqjRfQU83XbAOXpJG3yo9HpAO9u+CFMqbQm81/SwyXvHC08u7yrFq9bN3J
4Ebz7B7TQcnNSIMNwAzoZdLXqYeUqIAnO21ozetsswFVpxaAa39XDqR3vFSgFYjx
NIaigafZbYxxEy+Ylckub/8EqBhvEZSNp2P5wcn+9ls2/R1WDvuJMXWWmFC76JC+
wZ1smyPYIULRuSSoVLfQoHx1qCzwZoxGFaEvl9jFErnHTdAacZbLYIxxG3xLnyZN
5h+VePffEy6Gw4XNpIO+UegMeqXI0MQoeAkXZfE5YsT3WZt155StRKRQ5CpII8O7
Hlu5pcENrFol3MllPN8JgLWfWwY94WNafFmc+UCRnM+EVmuNZKJuQmdkk1C+Xgzb
1HUlEIbyfiNv2cXINZeUzMBzu/qRITv/7F8QpkMb3AL8x7k+JKYpvzc2nCUYWD7H
YXuCOXhHfF3GxiKHAaUqfrvb4DuzhwZp2Y3beVe0YmpFaepGaScblTxfSv+eEttj
cwZ7kEP3dvZ1Q0KgSNX8R+LywGuI9DjDeto76i1bLKhLqiBVCwLoQKCWzrtDX4HL
2zJj6Jp4EXhWjMXUv7C5z6lLdtELSvDY1FeyzlArH7yFEApYe4B7WNAvaNqMZPRL
zcOwhy8RIgsTQqHKqR+lQTs9l9/Byl1iK2qkJk9BiQIzBBABCAAdFiEE28EdLTc7
SjdV9QLsYlFWYQpPbMAFAl2vsM0ACgkQYlFWYQpPbMALpg//TDUG6eQRpvX7TQB5
qJ6/HQTK2kx2imGEXz30yF9ejNqiZiO885HQooIGDkhVttZx67Wa8U7Lttj1Uia/
jAIiizw0HRRjBKjyriRmSVf6rTnsB2X2g7AF1sa2ol829s+S6fa9ErDk4Tj+Gvwv
dV+R/w33dXJolJ+xpBvJf32gInPYb+AW7bhcQz6lTxMxOORQzJSuW+P6067kkmp7
/7CsX1lDp+eoTtVEyrfbi4tnwSP9s8/saXugnXCgwuZZ3wJSl569VorJAvdIXoZz
Gu+auSNeJP7ceFbhs+w0N+ARt1SvoY1s7JuufhEwQhynnpOpqvM8mrwDasQnUsn3
ujlqyUH05NDg0E5qlmr8tZxG255Ejsb/4A96Jboszy0jH5ckshi/xjCkp3r9wiRM
TTSSzl7wK8P9PxlOXX3BnYj3X7was5YT6JTabchA+xFhMM5H4mhPeNhoUG2e7nq0
Ufi0lLyn3NGYoi757iAtZ5PO3IvpDBRHGb1EvZl6WUlXqvrrxjIK5B65BZk/6/Bn
uFzdpiJesHp1jVct9krnFb7r0O87ZVsocdF6znAnAjiHU3kQDb2Ts5/26M3Utwee
OJyxuJV1FKyzK/nop2O6SMTkgoFuF5HHSKrvgKA9yOVTKfRhHLWiQeDAuIlBagGo
a/QEyAOAQLc2ph0qGESNv3OMYteJAlQEEwEIAD4CGwEFCwkIBwIGFQoJCAsCBBYC
AwECHgECF4AWIQTp8hf3zS23s4tImgjNV+NcW6IGYAUCZRvzmwUJCzem0AAKCRDN
V+NcW6IGYK1eD/49MIBUaF3weyT+K3r4WAUteZ18oNoy9foN1gR4B8aWenJnYZ3s
JxpMVxc1LpMZwskUJS5uXr1ODgrppC3uISnNn3E4stAnyVYdNtY3a8P0X8nLEsNG
Gnw0mkKXJJExj6kqoh1wok0/+kHp/KyHjkcImJmTuWL6wa7AA0ZlAtXFIJBtnVkC
yh8Pq15fQLBIHLlVhestAL9ePLNPBJYz0cISGp0PUpKgoPBujAUN18Cf/r/nNlsM
59oip12RuuJXFR1eLToiqqqu/enRsYOlHN8p2+LF03ZqG5TKj+jrq6NjhKbdS5uf
yM7tf8zoAh30M92Z09ZQLgOWfAYTTlH4zCEdwZ6Whg9LCRnrlHZvW0EzZ023zQQS
NHVCU9s5CKWCOi+IEG19/EK2CuM19vVnhiX2fyzQWGSMPhKtgOeB2gX2iF7iKoG6
VkrUV3LgAX8zOjYPAJ8tNGhJUT0f9G4FWb1YlM65K8FylWw9v9GSaQVtGw60d1T3
avXN4yxOL0HBP9KXd69NyDkZoFRY92QDXgst348cghP/G5kej2cPQM7I7KD1ZHFg
R6V4QRm1Z1gS0cZ7hYj3qt3EWpBAfxjcXec0Krxgv7a1FL/WaZRRAbs7+MBxNCsZ
IKcdrkQr7/ctnOu8LoWcflfNOOHEX89zjt4IWS0lJNkhp4gtZx3fg/VabYkCHAQQ
AQIABgUCXbcH/wAKCRBs+MovTsioz/AiD/0XO3LFbHUDyWTKHO/DMg3+3unfmIAp
mNv2VwFHYpEDIEqUTqL0qvSg6HZn8cVviItWTaRWZCyckrUQ7+mFf4IeGTNEhXlj
6NYRDAYdVisvdwnHEpiCtfKMpuUcNOm8dnpLB5RLugz9bHUQfPu5M/dtrynTrMXC
z7eFwrCYpJXDxW8zahNAcWdHD3ZNOY7r1HY8x8QFzWR1dgR+kxbuG0C9UVTgZFal
oJy6rE+zWAm/fin1fD+031p6J4S3L1f2lYKGvOKCECs1/PaovuWpbPJN1MtpfDFL
YefBKi0x0F2hhHvR4fq5ifB4zUAQBlpRiXdmSz8O8AyUDwiLOs7M2a29XOtMLfgy
Li624bMyuMaibKKSWb9II/yCUvYHGQ5uG12s5va741yxn+YVho3Tn3zrMmjn121G
uGeEvS72p03zjFSuybxREh+MuY5w0MyCjMwcwCNoOINoRPBWoTk9DugGuTu9ziqh
X68sVvrLYrL47FUcpFBAqvuv2dh+Tl9osamIsV32e1vXQ5AvvfcynhkGmCLiOTPG
XyxfFYBrr/oiRjVZVLl74gCGsgcg+a37R85CsiIL2GcX2zGSK639fQQRsrMMrgk4
rndV2szK6fK7SqVKlk7Ew5jgXoiC0/j+Envs5tfQTjhbjzmxV9ZcxR907516JEVx
IoaQTlv8zxFMabQjRGFtaWVuIExlIE1vYWwgPGRsZW1vYWxAa2VybmVsLm9yZz6J
AlcEEwEIAEECGwEFCwkIBwIGFQoJCAsCBBYCAwECHgECF4AFCQs3ptAWIQTp8hf3
zS23s4tImgjNV+NcW6IGYAUCZRv0LAIZAQAKCRDNV+NcW6IGYL4DEAC/hfflgRwU
ZU+CXdnJ/TJVrsB8pRoGsneHBl7xkG55RkslC7TyyIh9TT5UA1UHic7ZCsmaxslm
qrIZvP9Vve686dg97nLEkrLv7JLHpOD11R27WJVwHF0XcjzAN9199M1gs+OZSpRl
XbfitjRMHcXZPSnust3z/BrGZRL+3W3WLN3+HpmyUG9ZlSclKn+yEESFhoxJt+Iu
cIOMHUQQRhPaBhgkfpHO4Wu4e+yfwNcUO+a1wIhXYYhC87qEcjn1DCh18awbs/NA
F3jk60Ou/oKiw67SSakbiY6mWKIRxcb786ih+IzLgZLnFSlhcdfFh6L6l5UBxvub
MpH1kCScJyKDh4enSn1S6g0hPm1Bj3KlW2o012vtDitpLj4SPBvNjD35KRQdEHea
FXdbuC0WmFUSZtYoFe/N4EJJbPj4kWePk/y4pavmzhUsBNuphyl/UPXPS4eskllo
0sdLkuY0Lkp8G0CdrXQKJVh7BLRnELzoN2SObBueOf4kNHCmJ3mPQecATuwPdjw9
Iw6jS4NnhK7x96KkJstQYeT2LOM1WUxuvas8zYZAquTD7KiZz8KJ9nUMozkfrez7
rr8Uv0EFlBT23PIRk8fF5P0JuLFvYjCcmEo/qRNL3w6z9V9jwEHD8hPY2Yrgx7kU
sfmQgAKrQNgl2qdElKBq6HM8PO0tmWlN/bQxRGFtaWVuIExlIE1vYWwgPGRhbWll
bi5sZW1vYWxAb3BlbnNvdXJjZS53ZGMuY29tPokCVAQTAQgAPgIbAQULCQgHAgYV
CgkICwIEFgIDAQIeAQIXgBYhBOnyF/fNLbezi0iaCM1X41xbogZgBQJlG/OTBQkL
N6bQAAoJEM1X41xbogZgdQsQAJiDe72E+MYJQbYzpEWwiGPz/vPN6F7m0/vmmy35
M+pkbu7rb3WzIlIoKeTke1JtF107ZMwQlw5xc81lQ0nrVhv9kqeY+N6xThrb2/Mj
QG+7IFqiG7H9kqGxwnbiB6ThoWo/Xz1IYqLa64co2K3dwfX3zKTCMiwQu/Rt3bhR
FkUr6abvhoxL5oVQqNmqjgkgM/MxGdNStQcTCNc69QdWNF57FjuiFBlzey1KZEjM
1Devdigp54B8+ApMhvce260blrOUmaQKZEjQMTNIcDy+jl/6ha0YhzL+SEyvR2pS
PsCjR/cQtX3fEjLNjihPoBMsql3jY7VzdQ7BOXTOY0QSbLpVMk2RKXipZtizdbI5
CHVqTf9fwIYTz3HMdgtLuaEQWDgfTXoS1OEgRGUDXL9nw7lf0YyxNEJkXtTNdYDu
Je5SZe361lwkpB1nIfK2j9rMjKan1VFeoxjQNltc/S01Hq9oE57/mvBLusuqr7fb
OzlKANosSY0nu3bLxtBHqQK6SD+MHme8mZXNrKyCB1A3jTdErFZcuvh1dwAjfkAJ
5OZO3Q4CVOR19rIlqhH4hI2E4oMLLkQTDgHoyYETFtgdL9HL0q3fKSKaGpxO5dxP
5Stxrh5FvnR5+6H41WYjIrNyiFpZk0jIwCUq1AFZdh9FEw+ZLDZooyjr1oAsdreD
1T+huDMEXaa3fxYJKwYBBAHaRw8BAQdAViO3jfa2+E3kBgx9jbekK7fXHEMHNteP
fOFEG/9/2GuJArMEGAEIACYCGwIWIQTp8hf3zS23s4tImgjNV+NcW6IGYAUCZRvz
5AUJCzejZQCBdiAEGRYIAB0WIQSRPv8tYSvhwAzJdzjdoc3SxdoYdgUCXaa3fwAK
CRDdoc3SxdoYdjt+AQDtMgBUmXZza5AZKqGQs/rQTFsVGGwUPkjFOJbApkrbsQD/
aOKiMu9DQcQKQCYGhchPJteZVrx7aYSjl5dbkvdSlggJEM1X41xbogZgrAAP/2G1
+qH92HtEDmz6mor7aCTyyVSDaIoq9eXVOdX/IG+J6FtdWYd2WtDlGZXxSHDG5nY8
fRL+se1UlFhs0WbfLIW1Vn+rleT2aFBtqh0KkS67/2+Bn9BwEuFJkO2xzvCYOBu/
IyLp1Pao0+zHeZwym33jUT6uPm8JJ4Olx/3+LLRHPQM0YX5d/B+3XmQ6lG8tGOco
n6gnkF+0fEEO/xPwp8sqN3DOU60SjjLKfQYD7uDWAY6HlEQqasa5z+W4rqp8SqvG
w8FssEcqeKAKD/J/mBor1ATIkkkMZuepic26wUPaybaCJQgsO7sOqsT5d5PqWaxg
tJ+OGiLm8wh9yyQhqLaEkeNjjJZP44OUUxXZ47WVjNl9KnebKhdykDCte9gUsECJ
cTjURFo3cNg02kxcwjcpZD4AjysnscuhldHmrSXT46/F3QCW0HX9eAAxRpB37TLb
TzZhez2I/dOWnchqxan1Vd2pOSvirtwcrs4GPZ9bZ/0DWkyezvb05aU8CjeoJR+Y
JR6ANVV5X5zUHtddjDa2Qs+7OTnvS4a8N3nHubJ8bYwn4xpA5mKieRyjGaaPVvy7
15lB+8zXzRIsw7OiGQ2+NticjT7zvFF4KRKsww40g90Aqn5+9TjTes5GRXIXyBMW
/5frITWpI/sswluBhlPngK/5px85q+xCnaoRXgJfuQENBF2mt90BCACW6TtZbQHN
RjJgME/ifLQ6ZM6OuWKK5p2mDf76iz3LV9X6i5h6aTZ46m0LYcGdcdC88nRBy+Lo
xMokErvw0Kaq7qL+5FxNrMFtv9oI4Fw0eBCRdSdsqnbispYP1ho6R6+D92e8Fl8z
ikBqJrW1Fk3P0xKxH2eesWJ2Wz9W/no0Y0woRMFwhLFeewAwHAu06/W+CEVWjCYn
3t+FKX5MHTYZtor9jpnGSYKWKIQaqm2j9/QNtchesxeZqPL5+EzqzJBczE0MZ4Oc
/mbZSej6WAxn14xsw6Jtentcgh/WVQgHXLmNcsK+RLEmcNDLfl0dquYexfSw0ifW
lr4YQXoTqMWjABEBAAGJAjwEGAEIACYCGwwWIQTp8hf3zS23s4tImgjNV+NcW6IG
YAUCZRvz5QUJCzejBwAKCRDNV+NcW6IGYLhDEACzm7FO3wDhEdkCn6tTzcxYwoWQ
97m0Clq3zXSPP13RrJPr0nzM5WNFRyCuDezsewKnMeY1telc3gubLNVdN/Aj+H6E
AODWXA11cYRIL3KxuCi9yvrA5eQ8q1HJfg3hN7LB1RN+N/JAJKtUexYT2o/DmmJw
pxw1rQBLzfltiltIC2n20diGe+5A30CTle50amV4nVAw5Q8wO/MA30WuaMILMmLh
T2ovNsVzBKlWV8eTKSQH7wXh9XZDwhNNJrWkK9mW7nH+3heM9x8WA8PvJPR/4WvE
ywPmusjiCFxaEbkFSj0r4Zb9m49gxbyE9o8LM+PmEQSxsFVQVS81ALc0TTRnMr2T
UG22tGY2+8xdFd6nAx8jDZhWF9TCgmM+yG3xvSmB20di6xaRZUUMM0MeMSDVOuHS
85B7VGvH7UJ/95imTITpij1qDHGCAAYZ65zBw/3Iok0yh8rXSCjepBIpwbYLjo7A
SRXbwVzdRDTJavIFXZkFnbKa9vL/BBrBLcaWLqWjzWcvx8pKho0t25vRXagWhyWC
5XYTBoX2rT1MSber+9yjQAi8KGn29XeBN3Qt5cwtogEyh4WqF/vgrTrWGs2hCrrJ
IpeGVdPPjZFGKtkAD9N/Pyn6fHYd2j+WMQtEUCXMLXH6Bt9gDniSr95IpDKthGDp
bmkOT/u8lbdsa31mtbkBDQRdprf6AQgA0z+86vPQNtY+rXDscXFg2PjdRdg8wqM/
Ox+UDq9V1WH/3PUJb2zIcp9jwHXnmwhG8a43tipN0/832gX4U8FG94Lmp60nnCKn
T7/Iq8MVz3xpBStgDWZZwCDSJviTiDEha/SYLDnk/f4gcycGXO7T1SqnvBVSrdmD
DMsk/6LsC5akhfssQX1LUfQVZJQFSrE1G9HiauT9ryj9xD0Km0RYsGBwwP4M6/SS
fNOv4igTyoiFjgJtnP1a7Er4x4kyZN8CaqYZtlCjoTHbp8mR4qKRIzfG5Yei0z/D
sY+iU86OTcJ8reUVYa0q5IZbGyFdhzf0iM3bbJ2qftFtzs+s/e0YOQARAQABiQI8
BBgBCAAmAhsgFiEE6fIX980tt7OLSJoIzVfjXFuiBmAFAmUb8+UFCQs3ouoACgkQ
zVfjXFuiBmCS2A//TfcmDjSzpp9Ax11GFY6SatHxhe20FjmmvS7WSLNOy5ReH1jq
qzPO2o2hWRaEsOs/tJNOhaoI3v31BWcIzQv+pAPBe3j5wgfclfQovZuRD7JhSKL6
GjfsfEmJhL/hLSsxu9c+hkaxj6IKcv/EY1wwksrxkcHlBRhXs0JZ42nL8lSG1eLq
48TvFW4pLhMFhIor2CrcXSwVAQyxW0LpVvJnqIydpQEjDWcImveOCq3Qcjky+ai2
pbKR2fw4JZyaXTSnuE3YkJ9ywiBWk8C09kvW/yeWtx03W6uUU75Gt/Oi+92ugMg8
xc2iMlijP7PWkpCjew+bKqDEKzE9H2Dq2abnQVJzOvJp66W8q2NCG08rMw+Xljmk
YgeaoG8fLB3uAPCqJ1xKtAFIkDH/DBkdYJNixu8U4A0iR06ZPwmNY4vqCNL4TuqL
90AuEAtvsjfPXCQ2Af15tIVWesbIl8LfmRV4p9ciGIgAkWRm9S2K44nLVdgXmWa4
deXRYxr/cKD02KEbnY9yTd5M/KOYav7wkDJ4P/tAdefnrvhyCnvgpsO4H7j1/vyM
nRewMtO7J6+giyJSbM7P7lxM+gdYLgEApexcoVIgP0D8dga6erUFSIhMMl4fdv8u
e6e+M/ljNKwu83GqMWlcp22pSX1PhS/9v9IqNPvP/M2XJZgij2bLJsgZOyY=
=ox19
-----END PGP PUBLIC KEY BLOCK-----
