pub   rsa4096 2011-10-07 [SC] [expires: 2027-01-18]
      227BC5E808FD8C2CF79D7DC6D1FF024A4AA920D7
uid                      Scott Wood <oss@buserror.net>
uid                      Scott Wood <scott@buserror.net>
uid                      Scott Wood <scottwood@freescale.com>

-----BEGIN PGP PUBLIC KEY BLOCK-----

mQINBE6OVK0BEAD4wigCdRRfTYE1dCAHcirKmfDQyu7eI9zsfNJqkzcSiRG4PXPV
whXbB8cRInfi6H+x8F0GRIoSO5HfeA/qv2h+0pOH3hO3zuyQ7H9kyJLdvAoCvEy4
GGDxYW4Fv/TCyb/Vkavr3kgEBbb1cpVyGqnfst1+/8LbdErq/EzHxIukA1pmskS8
ihKqSZyStP048H9i9iyt4dcTuz2FGLq9GvJvljH7nOPgiJJB9bYiZmNe3ks8YCqD
ryFMMXV7rm7bB1Zrxx223f0I+DHXFjELi1MJ4kRFAyF0Yol0N91UkWdK6d/VGEyX
nNw6dYxPMu/9V+G8JOrvmCU2Tb7VtDn2ZJspK1LGJ+OyiK56KzE0exhKSXM0pteS
rPOPNMiWuATJaVsv08elISSHxkvkqjiY75/ipQ10JyegjC2vhCuZ9ZoLfWVeK+Gy
9ByUvuEP7Np7N2xLe/mPowPlTfkvInRZVTHa2y7Dr0iAJ2b3sZsYd2qYJetO/Dvr
fus5QlKYllPDUOZlThf3MipU6TBZPPrTHK3d/eFJN71guN9uKTmwmPk2cR/DK2O0
7B0P/CsPBDESTMmBWVXZlKSo477WWH1ajiw9SV7rBomv9C0BMlbMjIuwILdRbPwG
J3oqIzPNWKXJdUj/uMnvLXPfjZiwahVTipyPfIKjWgl3iibZjJplBdDIKQARAQAB
tB1TY290dCBXb29kIDxvc3NAYnVzZXJyb3IubmV0PokCQQQTAQIAKwIbAwYLCQgH
AwIGFQgCCQoLBBYCAwECHgECF4AFCRzAOmwFAliCjvoCGQEACgkQ0f8CSkqpINcZ
Fw//Yz1llapRV9meDSHrMjUkBSC+eU38lSxvROMta3eFtgieSh++ciqT/5Ngq9iV
t3Z3T7kDw7Cnz+RbSE0vo5TsMkFcS0sAp4BxRtSkMkpteyMV6/YeAcIbo4BBrfXT
2i5DeLqLHEDVfwkClj4K+gLV4wBLWSzfML8Vz2sXPEI3LFrsayxpVxg301JH6xKr
fIyeyWAaaEekwCMLo98VmP7ImS8WHy8u257UnVGEqPEx6I5Wm8iIVBqA8fBw+Nwj
1F5TuGT8f431UHdrzbdKo1Ivd4XMROHPol6/xJO6y3ym64fWUfae9W7Y3jlmDtgc
OiPgGhVqPMHflcgIOh+4RQiACJJxMGxMgyNfTTiEgvGjSqajCSl6Fq//RlDFb1cm
ocDrUduRYksXUCBGUqIYTktLVw7wjIydDLL0dbtG6B0hpNK1i7QT3TSNnRItg3g8
kWCZLIhh3nrC158RoLO3r6A7N+6TbRUreNIY4GbZ2knVAnfyT63owUGDzhWI8G0C
7ruOVtqvY5z34Nv89twTKkMeVKCZF4E3XYl8LHT6lqpup67KPh1HdYbuGuG48lU0
F1MHZRpI4cRb5YMMwaFtXDLMeHQIXlEOYmMLKOCtLr5YJWEMeYGBrAtTiLBphAEc
aoB6WjvgmiMlwnxw+OF5gyGORDoozTVA9KgHEml6alnFRGi0H1Njb3R0IFdvb2Qg
PHNjb3R0QGJ1c2Vycm9yLm5ldD6JAhwEEAECAAYFAlGtEeoACgkQczrZhIt0TF7y
9g//eSIAxtF6xHc4oQ06xMLhUQn7UIfUdr/CFDc7FQtAeKy3dKtnSGbLURVE8rb4
YxHS6+iKP23zyL+M7W/TcxL9uxqgLdPSLQawkfDclIMNeax4+AOMU4l6OLdUa+az
MG3RQeW4Dxiz+wyqTu56Kk6oW3qZbqr1NqWvlh0BgLgf096tUu+/hrFRWqXIwB0N
gPcqZITr/rJv8qvBSlUjbW+uVQF3mj30tWU/gLDYSKGGQZdMExW0K6SoCGLkkNGQ
lJaPHFbyVwJ9bhBF3/IePryK4tXQSHXQD+8iRiIXPiWMFTjgc4NCQek+lebmUKLX
J0diqTFBtkoVfVXprgXIa7pYoj+EWfgSHhXuZUdcdw88vptcjlt1gKxhhlPqAbON
G63uK/tFEY51qMWEqb0mEZU9jLF1OFkBpk1p7zwfJMTMnsI+4Kal+jVt8Eu1nrY+
WD0s3OfGv9RnW3KD/6UL/3goVjoyOGqarpXeV5NtXSIQ87/YFJYVvuaB1pUkGmbJ
XbeIlJP+FbHTwGF4FophDsyd+6eKS29zl0/Y8Az8owTaignZ3uRRVSwVupTA58rD
+4szxMhCKpFtX06c5XNdRfIpPAmAYtjpzhLjXPllfwN1sDdEXZ3UVT0C8GveVjJA
rfmMtEpgze61OWL69GL4FtJGadM13wDTOaOIcCSwHTys9DeJAhwEEAECAAYFAlJn
yWsACgkQ0292m8EYBPBNFA//ahSF0RhyBBJ6pQq6Jke4wGqtS/uXvPZTTSZVMfVj
sZZV9I3Hd6Ek3NF6dqNTWs0Yj3zelR4DvLLjGtnH7gkYhroded7yvAa1lpzNMksv
EtsxclvyU4jil9ImsSfQXU2gPP3BfrzHjNZevoqA8W9rblRFM8mVl0XMiaolORvm
NQ+l0XJZ33RbqJuRNi6r8t9zuibNIH6IRF62et8PVlezbw0Ao7a19/GUq00ohV8A
DiaB0igLQSpejBAMeex68Ajxkis0cZYiEOl5r6rYGoC2EKVirr4H5XZ2m/K1PlDH
Qeqgif1QOxVW1gUS4/Wj46KXRhFjBADfL6+BfwpI6dh99NkbKpDAsZVi+vxKSrNd
xd+hRQq+WeLqoTzgUlzOU8Cubz2rE20AwPhE/WaDpRuuVheAEDORoPUK2NHdtYyL
6vByMqfGUzQKip3WvQQFGUv/PsHXBDT1DuFnLFwmU7Puas+UoRUWunSgEN9iPta4
j9YRlSQ7wzdr6bzTWV9zbTNyD07CkbNWQ/E+eLppkaPImqyjyQIuujgVtnpeSXmE
qDjWc4+eZyY7exAEk3ey7ujUiMei+MMdq74yTBcesKjCXHqXskD9GEraN//HNE6S
V7uv1vy79prdMIbkzptfcr5QgxphDEizdFCGZiPbwFOzouIh3TqlGSSmekfIziX+
FwGJAhwEEAECAAYFAlJn+28ACgkQUfnMkfg/oEQFpw/8DppxZfcS+v5HQcMAs9dl
eJmRiAX5teebA+ILLrKBCdkAtv/kxcqha/OtkRaNLVlFAwQtG9x04ukDyZqJabXX
ePKkpm85/vLywarP5pw9Rl4G05s8y+varm9HWkXmlxxNqmU98JFrw30egIizwK3m
5TPSCuJNj4Y6WZdjIoI5ufSXMQpu0qNsrdHDoKysBQHYltu4KQ0mX9KGdDxtNNsc
gAcSo5Lbwv34BGsn72ngTA+NclcyIXApwY/O9ftzuQ3LMxv6qtvtts1Z7rSX8fa4
7TuDFdh+DczedtJlEkgbpNvc1BD7Y9RGVk+gSs2rkoWgyEu4kqlCD8XIFJiJfkV2
dwmr47JktP8B0TEgespGEuHj5SSnLYm5nXAAK5FronZolRma0L/fmXmJCEnja/J7
p5xMIEMAqG7A/RlFCr87kDOhByy3U6stiIq6sxSxyY5auccdLhJhJX3iYR9xO5fj
9wipc0UheDyg8c4GfgJJCNXjtjsqj+/u2vBwJu7aMTR0uFV2Zaez6iGhSGSO00PP
tR6MSaPNROiaYjtdZO5sqe31E8Ktm8W7/oipHQIAa5lZX0u1mCbZmw/9noAPiAyV
8WhRBBoRroxqze1sQrpQBgu8pWldIGMjhYdpbH5VEzAzB7VhY68IBBUs726fLAM+
WiTukMVN0r/Y3mwSkXnJxNiJAhwEEAEIAAYFAlg+PNoACgkQ68Js21pW3nPgeg/9
Et/4Vb2Zj60ajAdjMg+IZacR1I01AGVqE6iIIVOXk7o3aRkUKq7ydpM0zG+8WjD5
TrqgFYoLbqOPIJftFneD3L6qbdrwhl4yD0JZHy8lqpZQCguvoMWrDkWPiHfdN0Qo
8axlDDK0d/gYVkDxYdQ12x7tMXqwz/+QPDgcijpJtyJwXAEgW7pGa5iS0vmzcYiL
XYMnOE9KnmuJJL4KkyZc0/DD3YACmqWY6BS/HLzMtAafRDTmcLCWliwiTUcYsHlY
q7eHmD4HePfMYZ9LP5R6IU3lmEjfjacwdCBE0VsbsbdfF2Vq/biYduJ0edFvMzSM
kaJAROZl+7AhDXrmnWoqjH372j/oqWEi1cCDwWdFu+nt/+wlYpj0Z9dOX9IE/eTi
o1kri6ws7oma9YIQFX9QVa5Fq+x1GnibqnIBxKStnvTgass9tIBUzrV0b+IqsqU6
vsx6DYH/r42uAht8agVGU1Q+fn3Z3C31R8Utk4nMSIB6jmZwE1ylq9k269V4SQ25
A+AuG1GxGvxV+nmgIwob1WssWFdJA68tQs1SDcEAptsr4bku/cLvIZsYXmyIAe+G
t4YPbyVfuWKCneWHYTAetuO0mLqsseYqSwDwabKbGnbkyAC0XVeRBFnaIwWoJN+R
GooSbcRTqSVTov9RJOlz1TERBxmeALscUm4Rwwn/i4+JAj4EEwECACgCGwMGCwkI
BwMCBhUIAgkKCwQWAgMBAh4BAheABQJYgowyBQkcwDpsAAoJENH/AkpKqSDXEH4Q
APhVpJm3kpBe70qJyyfk5h4FcLrAYe9MaOys9pgNuHeVEQK+bQI8B1MojXZSUpn1
0zDu1yLJw3CoIbulGCCoV9xFTZ9oGal4jB+PI5axQVpJnbl/HvRUcLgqrfgq/xrG
IocJdeaw8DzDVEFGXWIqNTh+Xj3kbiPpCsCmDgP7anQ0Sp/TV2swgoeRfL3k3pbM
d7HRgo+lt/kMwlzflPWgXvNXBoGuVo27KcfLidrkUcMNcFucKe/eVqXh+WsG8CGE
DEg2vRMiBR0515I3fDM81q3Gy7u4lFlAjv86O5MzoXK5brpQhMxpgJwVXh+GR1Q0
txzehhWkrt1QVQKMh5GUPnznnvnskFgfzHhCPJiqi65DDQ8ozVVI96DRklWF1usi
dGY0xX9BwY4giJwoNdPc8iy1uUlefYgQvIYMoUfpqD4N71jVcZYteZoRNh8hX0DU
O00djraaikHfhoiGwn+7MzFjeqw5GJAAc7crRwN+62saHj1xZ9hKlrvj+mdIMU4E
0RNhcfHbBU85H+zUaJqMaTb4dc6qyv6vJNH/Td52gMyotypx+/VpJGiR/hT6bKYy
zEbMm4O8/1NqYNMB7NyqCPuKT6uwoNW7oG680v5l2Q22t/oL0WDI8hXXGr1aNVpo
quG1rHrk8/T8/PsspLejqP/l7haiC/cExvrlibyKqW1mtCRTY290dCBXb29kIDxz
Y290dHdvb2RAZnJlZXNjYWxlLmNvbT6JAhwEEAECAAYFAlGtEeoACgkQczrZhIt0
TF5N2BAAosiI/1JwdB+vzcr5HaaDQ/gK96D+3P8dfOa1XDFx3jsQS+Kxqy9epmur
DS6PO0xc8vEXS1ceGH4JMoHPASZmhB58I6sw4UX58Yb3+2e+Qu0zH4hjZuCgi3AB
zxUB8tJ7cZtzeCXmRkivcVHmXEqWD7eqlI8ASZRrgKXqCJ3eZCJy2p93DePavlSF
UZlu4A+ddL3810ki+5DM7kaOFGmPeQ815BM5oovxkwPo1q96utmlqLT4VS9kRSw5
J+nzsot7vJ0pCnemYIoETPF0M6AWVi3koA06Q/uK9sNzIkRxpyjsWZCy7I82cYxR
2wpgyP1tzX7tGn9jAc/nwlKyveo4cInpNXEZHZIjW+g8q4YHj4g+NjRO8qwFKdsd
bN1dMDedCTYrswu8uRKptb5msGirJHX+Pr6omxLcVCZCG63fH94/vbYWpfD2Nonu
v/1LgyuGzcEyY0s0voHyY06AexvDVI8ofJf7owYg6alVEuP4DnLEndP6A7s2tEao
RyTNDBTlwxUlQsadIVxDwgYJjcXDFHgM2Ar80VFvj8jC5fEE2ZxRnPyQQ/dwGRb0
RILrUagfQr/pr/PrNHijjDjHeDFvS8bGO7xNA2VTazRmHKGwUSbUbUqlZfCAT2Zx
cZdRkCWphcw0id4vDvvWkE+Y6pqr6nxRM+VjxrO37JLxadZaHEuJAhwEEAECAAYF
AlJnyWsACgkQ0292m8EYBPBIjhAArDM9Vkh298JpIPPd4OsAFKO4JUd6/5oROciw
uemxw0UZKKnqoVzbsvmaD8iTJ0XyxdJmMVaTr4gbrDSvwHpiQ8HXK4zxz15PeWiK
JkttyHq22sphRM/NT7fwEvtLs0kdlxqrbbKxDZf1xfKaLIn6mlurLiprBiMNSE6q
vkOmdABTzm+ZARGEneawIPgN0cgGK8yHmJNKUNk9v7DIKBNb3kmxbEdAUiwJ8J6u
GL2tupoiWGzVWfag7CGN40kau/EFCLSVbSCZAoR43wMLELVEd8Q2rwl0LU+sGLf1
KM+ZCqW1hjTcXu94Mz1AgZv0QWHI2ex/0S9hF8STwjbaU2vrkyqL2k6vlKmExqjo
4UgePqv2PQH4udepdJ7mesy2XqWPBuFq3iMem751NopA+axx2EbXMF0cHehYx803
dru7c7ydHY9GN8zuf5vGSoWmxfaIqE+85fGhWgFK55ecyGarKPh4us0BEYxsJQZf
vcfQKY1ugqWuJ1qtg+ObHCBzctfJQLJiZX7CT2hq2YqSUvBg40p37105nSdCMKg4
Q+T4de2ZoZ+UYKILZtuZORJSW/iH5n4qfVKf6U+XAr5gtmMiDFLBmZA8QDvqsjHk
nIamz4rPnznE8niLyExqvGWbXTVD1j/mHLyeMERU48dxlz5mWVtqjlK2BQuPkQvW
ahZH8taJAhwEEAECAAYFAlJn+28ACgkQUfnMkfg/oEQGyRAAh1yXx0SM858QX3LS
QFWE9FXRlt47jGk5mZ1rEfvsQ8eG2ZYdLPIvR7apW1dZsV1TsoRfiwbEQIfFyxFn
q+AuDSfGCGc2KMQNnurYPmAM1sXIxko75LZvijcY/lLlgiZrgq8bHA2s1k9fSS83
P30L9TMNwInMqFzxjBWvkTvniYum4sTcLcz3f7MTI6jKhudV7JrwPKycQBNUR78A
Jxr66uaVSqhfCzuseKgSGqUgeyYlkhqkp5ng/mFU9W9lN/vKuQgWxIuMzlHhefY3
KPK3zXXCGC+BMb5dQq39FB1ezTPlOhRYnzjzE5+vY+dNc7DUZ8hC3Dfr3+dg2oRz
zITLfAkpJVrWtuXm7AENJg+nDSZt0VeBzbKq6NQ7SqePJSQBro2wscpgQnnfj5fw
joDJjiyOTfz1++t/wdf4KoSHmHWwqpZhKaVYBLcqw1u1jWmmRFbOFcWwNZd4t+WS
vLD9c/SSooHAG1ktksNjIHt8w6KfOjDeQUasKQsQshHPHF3w8+d0SPRcPhBC7uK0
h97hysgeUg8OPK7+4OHNXvHmpIdycwwpX7GYdo7ucgQa408SiT8IV/kcfL9SbU4W
E7wGQB3tMo3oLsMig9Sv8aYzivX2zP2WdagyhFZg2whnYDQA827vSm8MWfc0wm6T
KENW59YxOlnX15YYw18GrVKMqH6JAhwEEAEIAAYFAlg+PN8ACgkQ68Js21pW3nOS
FhAAw+eul5aeVq/ceH+zB+L3k3J6LxdL0khgU/K2kl2NiIJOmpt2pxn4Arl095AD
KYkAT2tr27aDfRVh6SaA9WOOwI70wjLQ0vqet/Sn7nr8JSdZgnsBxM/n/RE8LvMz
bOvGlURMdnLS3XFYcL3W1P0usjlrWxn7YFM1lwaUBLwk0Co3mngJ0XN9kPH/CtRr
5SxZQkG0ZifYh1gfH6RBN2lDhcz9pwWr0gpQihguP4X5pCpuEF3R0pfmNAK5EI4n
wXV7X5vTxB6/ICemN5ft6cthTHTNddg8p1FhBhwaZSUdv2ZgeT5FQ74zyeyN4i65
pmBy6jDK2C0CVgTw/k3WiJZu+gXkxmCQGDKpyHFeqVh0kLjOXEfiK9geITsopkNA
mc/KAKLsXfPEw4YclZpTbF7tY//eqe7CkzB4ju2cQl71tVM3edMjp3wFRPhA/rhL
RdauEj24TN+PoAX4SYtShlQHoPfNpucKbQ0j89Y9mde2k9igAp3ofUj0vI0s5sQU
RlxuM8yY1MXEPnKFxcce7TUppDOEQ44yXVgEmldzdkSaS/r2ijD8zpK2ebFhD/No
pAQnqMLjE5EM5gE6jsKHu0ktCJMVdLpo6XvCfyy3OifVgLKmDyD+RkvgMOxAfu5v
xxM32sqiRjO1vc76eKeeeEnn6Pg+Qr5MXHSRuYKpkTZLe+iJAj4EEwECACgCGwMG
CwkIBwMCBhUIAgkKCwQWAgMBAh4BAheABQJYgowyBQkcwDpsAAoJENH/AkpKqSDX
pFAP/2XD9d6CbUIjoJjS8hEXttEXJeryZr4dGh3S2gXZSSHo2nQ30mQsr7lB0jGT
9jyxUer9591nWlt/qywy1iEHqzNS2UtlwLalMmln45roeeNbY01nQ02Gx3bfpG/r
Yp4yIAmZai6oHwVCCmi7+uyBdCcM7vCryV2qHpAiPEXst8ethQtvy3Wo2aUX/Db8
9+y75T9GAuQwJcd6/+cAGIs2REE6hP++i5BCDGK4O+ub3FdKGtJ5mNPhb1v5YIxa
SDFNpwWXT6FfOEhmi4D2AcBhFJ24klpWyh9FoFLkjTJ3Cm1EIkmRD7hpa1RHRpS0
SZZvdq+qbeMSbItBKiHNmEMgnHAUFRfiN7CflFlgD5zgzLzgKX2FSIcyOsKBNtYi
og9UZk6FxVAzby05r0Mc6wrzKQr2AmbArkqFwRXj2tt8HispP8f3VfTlZjqbqdL6
pumj5Cae0q+jn4zyjbta3IGKTuMLvAkPudcV7vHOUOe/YwiW9U+Zc83x2MGbN46R
UwkrZIe9Tt3eys/Im08rr+e0mTiojjdu2rreQcuOwxcnHjXqGcU8PpRVMtmGP5Vp
BYnYQFtbIRBeUSnWJ7LRdnQamfkjO6WW/ijwoqrXGw/6Ik2itJW9uXMbXC04Q1/J
3WDVWjg9zbZavNPI6j/IwVLKT9urkko5NYyvTC3OcDCc19Rd
=MkBk
-----END PGP PUBLIC KEY BLOCK-----
