pub   rsa4096 2019-07-08 [C] [expires: 2031-01-18]
      7F2A2E599343BD672B1959F3D2A694A60F965C19
uid                      Liam R. Howlett  <howlett@gmail.com>
uid                      Liam Howlett <jedix@infradead.org>
uid                      Liam R. Howlett <Liam.Howlett@oracle.com>
sub   rsa2048 2019-07-08 [E] [expires: 2031-01-18]
      654EE64B07C3F3D160D48DFF03A3AFA8188F704F
sub   rsa2048 2019-07-08 [S] [expires: 2031-01-18]
      CE2D1AF77B8CD0CBF8CFD09726E40B796F0BE710
sub   rsa2048 2019-07-08 [A] [expires: 2031-01-18]
      7897324CBB764F14212D4507AA0C23F3A6EDF96B

-----BEGIN PGP PUBLIC KEY BLOCK-----

mQINBF0jhuABEACZup/Abnb8wZZ9KoVVvSvW/ZZpMVEaVR3ElAlJl8J4uvklz8WP
ZQXffO92Xq+AvKy9AlL+vA7iBZ0D1XB9W+s++zEJgdFWMKUk51Y/3Z+Fi1dvecrb
cZNUEENXIPjCQrnpZNQtbGC2lw/GSGHKLaVzfjArybqJhkaROTkzTEqySiXmJVPb
12oV4uFD3dh/kGxg3s9bWPipKlnhns1HFMCnkqyDsOxNvJfgJGm0HkM3I1Us83oH
WrHxv58gJsIDajBZ7CngjCdDoDeRbZ8qbpscA71Yjt1+Oqd8Uqu46b4raLDuMHEr
O+dAV5MF4JxLHtFX9+buwS1mPs/g0SJaPbMVlIllmPZTeMrQh+0r2FhWWljew6q8
KbTEpxdEkJAhuuTU28eStsq+odPnNWz3D+EZE0Jm+hLcyyQPd04tmiphhhqdVjIe
GJab9nCmupfht3HxtG/BBF0q04X6YVTDM36s+Q06aTUjQgP2+ZEMqF/9ZeqaYs7U
oZ1p+lfDU6KhJ5IMOGA/UHbTqWpyYawKG+Wv8Vj8M7u28lu0cNrE5hLvtCGGqPit
Y+YUc2ao5dGbLJQ9szRIaiG6ppHTa7Id5rJBehzQV8yXbgXWCC9qDJpJQOrJBBJd
BVxWn2hJvo9LWacJi2v4jifdU4kKwYuqaisXKl55MIDrT3kSVVJubmhcBwARAQAB
tCRMaWFtIFIuIEhvd2xldHQgIDxob3dsZXR0QGdtYWlsLmNvbT6JAlcEEwEKAEEC
GwEFCwkIBwIGFQoJCAsCBBYCAwECHgECF4ACGQEWIQR/Ki5Zk0O9ZysZWfPSppSm
D5ZcGQUCaW5EBgUJFbC+pgAKCRDSppSmD5ZcGbMmEACSohR/BkL17baa5yvMj24G
Y2nEthGjnQAtjb5p//kg4o9fdmoU1+2jj/Q9z2FtbAAbTarUxC3DpQm4uuXP862c
Nt+XZTCw0OVfQSRy/v3EVBC2AnF2A10qyoU4UDb91eXO/hR/07Bvp8VDBpi/EUlX
C/g6xjMVuhLqHenxYdO4P+PYi275k4uABsu8QYlSrs7xIbEw9lkZ+OCHmvaKUZBH
yzYD0SxV1mOtsDClzmyCzrosSRSoy/Qs2GFZIFaNZCnhHhdOgJrv4HB3DuX6DFYv
SlgYWAGrQYp8qOk8QPo1UjxZlfeaw7ku597tVZGwLjFSdtCdY8t2wQiKrL+1E1hl
Hbx9Rmt7IwIhSbtJaS5aGAMBjwgi0JXPZtVLLE4fTcm3CAAoZi/YydMAPPMfIhL7
v9ZDtjt1AijzB/z0Bl+MCIk6SGsnqwEBgyst1B35LrutDxrNebOHudtrZ+ksA3T9
5WPxg/pLXjElFQLQtPTJN+dqepELGy3cl14EAAlvTR8X0qK5+GPIuP/zwRGeFpy7
bDDNSi+58wvNHHgyGQ8ArGr+miuODrF2zyEAtZyw9PFWx3wmOKj8S6ANHC0wZGEo
QOz4lT+ot/ibEiyyozbu0Ej3wDK9hIQYE3h+LBfGQYTH8uQUCwvdxzZbWsVnFmXv
epgrfweDM0AzQjFkPIs+YIkCMwQQAQgAHRYhBPQCpJzuO4DE5ObDf0YO+ZOSMZvG
BQJdMetkAAoJEEYO+ZOSMZvG5+IQALLFfu1JylASKbk9mGjvVCMEssWIVwIIfJpE
vRKS4u5NI8OkRQQsWF05QuU6ZZzNWyyliSBcJXa9MOvUBjIofhXJgNADItfxPmJU
I2OWdCJY5Ux7niafgjaAmdkvXS+mqZCDPCQpI5FXa4ta96k8XHCiODafLXX6pC0m
b7L6fRc7yvxYIrV4RGIcFZnzOC3P/Ap1tpxny8I5Mfn0XHFlluCROUmdznVsgIsM
b9WdzYSWmsZ/SJsxNO69woxswy5qf7MxAAFUP9HnJFl4wYuydG5ijNWWL7fCgiYY
UOFuTzFlK6RRkI5+tzV2KzAbzhbkGx8DA2sTD9a5Lk7mi39PYzDEUjfM4WU6SCjx
prU1ZQX/oqtKylVOY37ZMDmi+XK7O1QpIjQ0WPjZNuN20XhED9oevkjwKDN5yDh8
gyxMWNvgjOd3PEWmP2VyJ4bXcwgtxpCBxSomBHXbGAX2fA8q0wYUF9bo6M7+SV21
KWrgEY8dfAR5/oq5UgRJehcffIVf45003ic3xsjCLSsQzFqN//X2fPb7zbmK7ZBZ
cbK2k7w9jd0W6HJn1xMGzZNHkn0cNMlkLun1NdHct7Fu7bhJCPnMxZ23OgrJnTZp
p9VEbrU3sstOAltTBpZa3EX66jD7/Q/ZtBmzpM0omcjinVHs5CcPnwUBEuJ9AdrO
URha4BkhiQIzBBABCAAdFiEEZH8oZUiU471FcZm+ONu9yGCSaT4FAl2IxEAACgkQ
ONu9yGCSaT7+fg//Xoj11zS3FXwMf2HYhYjAUScmNk6H0B3nCAssD+nECQUAOHWk
aM0mCaEJSv2IN3xKXFIBUIiFCpg9+ZW4E5y1eIUwTkOXq/1FUkR2umjUKrwz7lVm
jNSPTywk8bn7NmpAtq9BBpcj1y5w5+QpP2SPhyLlgotxzYFqv3drxDa7HGmFNKdP
wFdRTh3AIy6bIeWE/0Q5WTIqbAWFvcIAKeSSzKxUhXC8K3KXydoJx3nFUXcQezPh
pdh7QWUBXqpbIuvnIvL+HLGEcbJB69OXosXsM9G+y1+EbmpTmLovDBckNdrG7teE
MZd3ZTyKsVvLwlIftddP2yeSjb3uC8GaCs62n8eque5RFdVoRDatfM0ma4+5qT7A
YD5syWnHLM1aWK8s5ofXTRb0ejZgI0Qrr6fd4V7MfE4Uj1iVx3JdyFE4JZr2OKL0
F1rPlEuNAmOZLKnZvyeE39xiPDww8eZbbi/EIcC/qRepNe2hpTcPA6/FxLSL/PHX
7345ckQIn4uj+SjwFLXqwo/ygNylg/NzC8kYDAwanYlN5qtjT0s0UQw6FFk40Y6X
ibZ4BoW280DhQT8xPLXIqg4xyWb8qENVfnDoW9wdHUQZ/erGxnl0Pw7trjdou18F
1bzMNetDjvtHEzJyHmSNsq99XHndoaANiFWmdQRa5q1xbLFeTeGSmB/BmnS0Ikxp
YW0gSG93bGV0dCA8amVkaXhAaW5mcmFkZWFkLm9yZz6JAlQEEwEKAD4CGwEFCwkI
BwIGFQoJCAsCBBYCAwECHgECF4AWIQR/Ki5Zk0O9ZysZWfPSppSmD5ZcGQUCaW5E
BwUJFbC+pgAKCRDSppSmD5ZcGXhND/9YMsZVzJ5U7AdJ4a3LF8XyJNpKlmNTi3cF
opcYZig87UYJZN9DdJIoyvUvGnrR4McJm8BBKPVUaztGUr5bzeJCmmMM7nIJH7Ne
Gj/UTrg4N7+YR8XNJi7rlZPhmYIqdudptpcQDxu+NFfsFhCTGEoUF82KtZlzmPC9
Zp5TtefgQ8CimiW1Xow6ZxSD3WFpjp3ka4RWevAPWqtNh45a/R5q0FLsSSC7Ti6g
4sy/5TlNvFtwJkWOcU1HEMEGK0JJZ5TWbDriQmlRvI/AGj/rCubJy0bhCOhGaExP
uve9scedp0rOXbM8SB0cfcYcuM8YvRV6JRqFu9qy1+ICj/gb+BZ+t3FGaM0nTsuQ
WeqPqIEr2fpYG/HQClg6Dgj3F5dT4bSOcV8votoItugYIVR75m0j4wLf0WM1foja
t5z+foq4oOzCpyLIarukeX0UaAf5r2ZFNMfp9358BMaZataPaqmBKtktid4aV/Jp
lCsQxiQA3Y3sYvc+m9qW/UFRJsPxxkX+RsS65u4Cbgg4eq7iQ7grKTfXumbWJmFz
ISKAXy5VFQQqCFCZ5J1nEHZ+ExLl0Ac7tAWtl69GD1bfLW9hrVNeqRNPJHbU7OmA
uN1V8b9bVUqq5emx48C/pJfYaCYNO3GMv2pJm0E2Qlds5Bd9Xbg1Ez+U8bLNm7O2
DZwJNnOOmokCMwQQAQgAHRYhBPQCpJzuO4DE5ObDf0YO+ZOSMZvGBQJdMetnAAoJ
EEYO+ZOSMZvGw9wQAJpSigCV2bGLtIkMaex9JR7uDdxMC6e+BlIKN7FmepyDDVLh
fIwNAaCxzGTZ8Z4TpJ9BISL9oMaz6c/wtJp3rT+tuSE576P9mqEPuwur3c58mb8Z
9YHM5EYkA8X+ujQHgjXvdBLUJBxkcpyC6kA8IDWrvdJgVLIMIuAPCUycDTPko+WG
55LB+gjRw4DGF6342lIVo5iYD7qnX+Rj+su33XKoqsOur9GEl1+UF8kZFe7R6Zrh
Z/i8KaqQQfm/BmCiQPXAPLIKdVMrIgLedUeGfHoSnHyz+krzgf6ktElG+qcd3EL9
4OmlIoRIu9qGC64VOwVH489iwXpZHiogYESrZpF0oAMT4Muq6XzhksSpD2TEWr6/
Co3MdYjLm4FylcY/3ilyVskgw8d0eDGSmqzSPoOON8Y2tB5YgxoSTeD6HWoLzi1W
mqhpqkY1ZH6GZKeNNUI9Ce9rXDO8+SRji5HvkVcPTPQH8WYm1A6Q2jY8ofxaafQE
ie96ol04XLPMqEZnUdUJUhQbfF5roHawLz156ZkIthNIv+QtM9+kAg0/etgGkr6W
/yyeQc+q/P/G09GEpcrktdKm6V4KdYZVuSddrNBaY9tQKFZPISLg7yvYFQiPhgRI
DgvVkiYI9Bi5UvlBBnfHNMNOytgOV8NFxHeOZDMO3npvz1P6qaEejF1PD9PviQIz
BBABCAAdFiEEZH8oZUiU471FcZm+ONu9yGCSaT4FAl2IxEAACgkQONu9yGCSaT5M
BA/8CByUE3YCVUxDvnzKG9ZBVgtVHR79OekMxP8guky+QWA6l7krzaefjYRg1i6G
btJ9Ww9Y5GO3LdgrcuCVGuh6G83ngrKF2m0V2ZBhTaRBXImzfsSscFlFBjzihLZV
WQPrvEpLmtSHd89wnl1Ie5sjzeLqJ95d2rYV55n/7Qs0vNDznU9BkFjWshx7z1bF
FA9iXEPU9Y8VN89W5c70KbWWi6X2AtKaSrZykbngAQYkUokz+qz7w7/UNtUdZleh
lZgvLw5xgc2gRY340OUiXApRvYoNxlsi0Sb3T8OVWS9WB4vO9vDzzjs3I08ewfMi
4zSSJVH4ty6VukNlT4WtsSRz+yt2wAscac7TQY7gR+eLs+HLeW5rZ2L/2DTYvmHy
+2shNsN93KMvehcOI0XVwaclLom2k1K+upeQdjYuw+PZXIM8e0Pm95PlrP9bKtMG
4YyBn1nYJDQttd5Ch+8d1GffBpIyQcTHw26jwrYLa85KnFcqn70aZZpKT+Uz0TPG
1epooZk508Y7kXbeO1giv6waxnfa+qMnO0CerOBbdEsBAuVeV/ZhZaW4ezdmlrvX
ZV7QVu9YWxf5JUr/80GFTzEAyBfgo5vvGGF69+Svhd9ZjQBqr6N/7wCetuDgmuy3
zWsHJsem9E1oZ9ds4NGvz9J9xnRtJ6C6m1h4TfPcgiReuF+0KUxpYW0gUi4gSG93
bGV0dCA8TGlhbS5Ib3dsZXR0QG9yYWNsZS5jb20+iQJUBBMBCgA+AhsBBQsJCAcC
BhUKCQgLAgQWAgMBAh4BAheAFiEEfyouWZNDvWcrGVnz0qaUpg+WXBkFAmluRAcF
CRWwvqYACgkQ0qaUpg+WXBmqog//elwWptdafCWBbTcZy4e5pZfHAOiPSux92Xou
VrF/vMYtar/TC0N/mLffc8R4Vt4hjWMZUtESefwOGVXAu7Z0uILMeJKpsN5QEw/a
qN494hPYM5boCIE8h2yJgLyH7E6tjy+jzEMkduTQ3ByZht1v6RoLFqhxKuGJvGwv
Bfo5gP6CeUZvvVfOOTrQROkczuDobOUaeoZkkKTg0IOlrEOi25qCZq9GJif8St4Q
zHXOQolDHfcdbIcGOSH/dvQaLQb5zyMCMpXpSYhw/9Ga205K1kd67yG28+pztxsJ
8hyqb4p1J9jh9480Nht5XFwUiGZdQr+o3uXvCokF09JGMthsR2RqiPUszjQ9eVNo
dFQu01PQYPfrbIaoTJonYqrx//sSSa4WybxbwY2/ckgOzkLE/Pa1hqnNSag7Duw9
PSWbfy96zj53kO3qlDaG8pkPHFJcBLxXNLBuGlpSvJBBuL7nUs1qHl64qGsF44zI
c2YzevgfxBRdcuYGYrercjS0lWzrHij/l1NMl2/QF4fKriDtrhESSnaZNjzx2/ss
Xgw2iCWHPnWD6iufKVBqQ9cXp7oGBhxOrMjfFXNgu63bcN5dS+ot4evQx6bd0nmn
Va5AVaKSI6LCqsY5/z///4/LWKV5Q5uwvdcJM1yMLlfiCkG3VFsEgBU+LkXzeoWB
XjzX5nKJAjMEEAEIAB0WIQT0AqSc7juAxOTmw39GDvmTkjGbxgUCXTHrZwAKCRBG
DvmTkjGbxhxwEACqQ9ZPkpKqxlsWacn9RYmW+TEFP3OVmBhzfq7/RB3cOGIqcN25
KLkPq46A2z6p+2sKTj7HfdlVJ8WCDlaFmCNuUHc57O4JZLv1dtHqW5tf0N6zSncP
ucrGi+Nu3ACnUR4XaMFasfhNw5mIGfPRo0ayO9tpPHa8hnoi9OwaP8lgwK5NCc34
ysbSnhVGyhXyuEW+tjAtJWGPs2sVRC55yZVj8InUEq3nsClfLiOX4TEGmuKGf7nR
+3C+8ELeXBqU6FzvgPjQCYLaT++3v0N3Ezde5emNg2earhA0nJSVOWNj1oTsvqDT
L81/lmkjHPbmu21YNpkUyv75zdsEtxNam/G3zrY5wg0Ayh4b6iDuxDCuNTPwvCsk
b0tVnq3TmBATC2ScCjCbMK6OFnZf7PoRzvozPmEMsZE3tJZC6YJopvkDNFXMyvu8
NACDRSiKUae6hfjY9MgXpRk6wvVvSKCIqrCROB+8PO6Po9LR0Kur2eo9RiV9THCC
JAXc9aZg8PM4XZbp8qCLl4hHupjMvRyLmniTwL/5aZuiBPnV77gwJ8lZomo4Cprj
NdXq0443sBDUw5dUOI7yq64XttjeFyGIcfq7MQh62iQjyY6bzTjSAUewaBQJyio7
iJGTreLBHoetDAhZ1zLAYYvzKd++adEPRuyfuxocFqo8oKU7KO521t8/ZIkCMwQQ
AQgAHRYhBGR/KGVIlOO9RXGZvjjbvchgkmk+BQJdiMRBAAoJEDjbvchgkmk+Z+QP
/ReWroSSpcg8+KmGhk4XQi2wMAtgTNq2NMtiI0yE4TmO6D2pu0hPvwOp4Br/iRyg
bpA6oEz9L15Vqdlm1v/AcIJmHKKRd6dY06ryknMsaDhL5xLN/9nYhJypIis58DZc
/zMCZah/8le3bv3ZD5o+LZ2nIWHoRDpZm9ykI8eglbnuqmgr0C4BqE/VPYsKcRaZ
tKarx+XtJVZDu8sf75aPnbIiOHSvk+eom5PJEzjSgFjhJPthi36vVo4WmNJYUDni
x+PxpFKjVaornpnyt/Ii46vjfNF+oZfNxeIqgVfTnj/tsV6yLom5dspk+D7XjquM
N+ku4X/filllVuhJSHB2oj5hYgAAlbSiB3/LZQPml6Dny8HkSwAMY73mrEV4r86V
HrFj2bL9XvnA0LLAY0vnwnC5uuNOW4a7C/SIZ6wO83EXzO3ffGK5v7feA1Ljcv2M
ccoNt07LHk0KZQ0PtcIrcoPPpA9tpApq/Za6GmZJqcaCykZW6c9yL+1LiH8IJUwz
kxM8GU6HaxD1INW+Q6uVS/vee25Uehz7xPO7q7JGcHHn6apEMAL0pkO/+WtLkWAI
9hr6ghhOHNhVIWTXjzGpP74ZZXyQdrZ4nCf2IFhCWaMRUthm+qP6LG8gHUgHye+b
ycYirH/dB7ySnFPDpe7BWMIV4tZAW6mi0QZH3cU7VNVJuQENBF0jmq4BCACdJZRY
u+SVpBZTVEajmW1x/4lW2jOSHWT9OfUGBGQrZqzIF56GCyzE1NBgdogoVEnJ/9F7
JZnPs/eL/JgE1PlpchjUng0iA+Hd3qJiDUOivkYt0E3WEoFPyzSjLhvppxKNUZgI
YVIts299OablplZvd2wbTE0BL3Rq9bCZwe3DFRfo0f57tsMhgh8Do1TecQwOx0Mj
ui4Wg1HBfrsqqUGypDR4IzqPjsLmYXL+AKBREM/SJp3mhZTFEXIgsU4sLMvx+Pp0
wJqYgGiezHlTEh8ZcW1U38hV5ZfcYH/ijSJjWpim3PgP9s006Yk4T0dSFD8/XsJC
NRk77yKvighEM1rNABEBAAGJAjwEGAEKACYCGwwWIQR/Ki5Zk0O9ZysZWfPSppSm
D5ZcGQUCaW5EcAUJFbCrQgAKCRDSppSmD5ZcGWyOD/48F/oeCp6kzjB7RE0JNVw+
oG8gkyRXIcpaTx2poWozy9vbOkSNwcnSystKmdByKE67Ga4cdaRjtoENT3helI7j
gtjQbJXCz0S5JBJV/hHEd0KPNNwu45JMvrcNPcOeXPlXNnDjYvk9kfqrIIWYzIKr
V6c3EdmW+hG6KCBwxrcqQBuoWvM1DVxrK5EYYOztd2pDcHABm2sG/FmJYpYv2GAr
JeIpWam4xNxNlxtLNBFA1jogcCPHyI7oKSuAWSBVQx0fFha206lDBiu6JYVGIMt4
lbW66YiJJD4rfHmUzhPhur1X3C3wEzQyPQr7kEzTWX9b9N5cEj4lP3BClJp/XJWv
5//TIFZDRRl2WEfgaz8pdqZS9PymmElehLdx6GsApkPciUJBqZMslRkfA1pWNd5R
rHLTjDHH9ZN/VtDtZnzOZ6gdBs0yurISN6j3Y/I0CfQGTxpZ+zZn1qUqU7KIP3Y4
G7UwTt3iymoPUMU9iNCxkjJBhHT2862M4XtoEkxmcXvFrJ9MJ1NbExhTNO9GUcne
G94E3nTzPT6som5AmtVS1Vj1aLHHHiEav6QsEaWXUIgnyCK9dqPBvohg+0hCURwb
jUtaDj2FKuTChXAMuVeLClmw5+FwNqSVNV53KR0C4bG4kDr1PpPCL525Yr7h3Ydh
8CywlNXMUZTk/cWITOFalLkBDQRdI5rEAQgA1OzLHxT9qfMbHgYz6wKljfFYklqh
zDHL1rq16kJqpoCDZpRMKb2p3VJ7j/ZOxVEAEBp8ANMKAvlVRrlQEDQXsCuSbslT
Qz1dBQVniAv/U+mjPwRkXY6HkqMeX5ztYjz8FOZxTl9sfZu9vgGRu0+wj5FTwrsl
71bKUShuXRYBLZiDIB/OftMXoNn5ASb5VHo90tQ/853IauvMggHIQsbxG8sImBfD
UVXGM5pUGBlNHacEcWcY7/68P/3UvdC3Wvh/mhBg5m0HDtyQD20Epnu6EmkX3RhW
LmEJS75yFczSUaWh71REfQgdEcTnJmOQz7MkV0KZtSrDeHoByTaoq/ZlEQARAQAB
iQNyBBgBCgAmAhsCFiEEfyouWZNDvWcrGVnz0qaUpg+WXBkFAmluRHAFCRWwqywB
QMB0IAQZAQoAHRYhBM4tGvd7jNDL+M/QlybkC3lvC+cQBQJdI5rEAAoJECbkC3lv
C+cQpRIIALaISKC9woyCzGUq/Sbc4Ft30H43EH/udR/lJbeIta7iUBgFMIetvTg8
wFfyreNAh5KHok0aozUosf/Q5z/uzrocHTCQlEVTr/RGTj8WPlkE6wcvjK/npGYs
4ov30B/eBbKk0rda6k55vYDN94VsiZS+cxoMubCienqVFUoMjwCSwmIXi/WIWYpq
Jh4uZ8hzV5i7jzovBeZYVpVu16kJCiGPJpZ8og2l91D8VS6gdu0Dslm57lbxtHnl
6s1ppgsEqrpBWue7MnoJJs7IAiLWKfPDu09o/AUCkHdYCJ71FyTul7UOitUyV8J+
fIB5PWVGc3fe8XvdrFyvLuaT4t1VoOMJENKmlKYPllwZiXoQAI6Urj4hF86LygGZ
JsX6ngf66yWbtSE45X5QA7IrZ9+YvDh5v7gVQkRX6Eq8jR+6J3/CLYmYmuR+dn59
gl5GnuyeqoyA9UzpzQuJYVDmknPa9hj05ioE+wNsCSTLHpgs7EAKO2AK1nxPG3Vt
d3YVe4G1x0Qe78GGXEDBQgstUZQ1QDe0LdH8qGJbdyf5NwWyeuxV3XlfG6N7F4YL
aoYTfxn2lqP87v3xbpxM336f/s/JVjBspFljPiLUMqyyMKBCAyoHX35FLgSD3bw6
gYnDr3SJjadQJQ/Tg+yB+bK5cABBWTsaHTl0Eruj9vozR5CIpWSocQ8evcsdHdOv
tWavjlTwK6F3iHxX3yp9kYVBT76HMxXpTZkbxB7iBhTLmD9NdwYPwA9nGNCjWsB1
hpx90xglQZ5q/pZd2ISermWTe++iwTgvNOtw8S0DVPQl0ZJAiqdcUQ8CZOxARz2B
yHukbzZDHolOm8kN0NDuOfuq2iFnTQLajHWnoyXTJ8W9ijggj5GpkzWS0ZbHSR+l
aXpV383ICTQkFuL/+4BepxO2mdVbu32KXhjZAiJ1dH8Zbpjf7bd1TjlfocsXzjUG
VVkjDE0xDskpyoc6BVcbtoLbc5JsAjLSuH0JCHr/beM0cI7e00Qv8qSo0qrLXkjp
KfkHml2UiytHQaGX8x83F33InxgbuQENBF0jmuUBCAC+DX2NoOB80jjPCLapa5C5
DZG0s1BGPjRCFmPB8m/aHXeQ6mz5a30mqpmZQ8QtoCF9h5Fsy0zI5+PPJuySXxbp
Y9nUeV5iyGUfetjbxESXdpHLdsfgglST70Jnagk33+jGAXyJNvJVEGXGoGz80nAt
aX8ZNivcEeB1TV7rpKrfebB4V2WVFnHxIpR7cp0Tgb1yXmAFv4IS5cyyYoXkVx6F
DQgwK0xiVAiHIDZOOUyJDzn01wThPEGb4/3QYwKsBNU3VfNeKFu3iC/kgK6Ojo/n
6BPku4I9v8rA0AtetjcJm4xp+w5Job38zj2R6Isy2/be5gFglGx8a8/mZufq6Hzx
ABEBAAGJAjwEGAEKACYCGyAWIQR/Ki5Zk0O9ZysZWfPSppSmD5ZcGQUCaW5EcAUJ
FbCrCwAKCRDSppSmD5ZcGTmoD/0QK7yXqUsDU2GBNJl/8rrxVt2F2hju4/8FpLje
IyjfZQXwcn5vZzlVy+DM7i6wtNBff9wQmWu4My3D2y1dB+cfbAWGUVjhZAu0hYAY
9tjsTscA69NOuhdRag82LYwg+vDZRCSJSQnSCyYoYGuB9amC3hgqBeyLBx1jPVZS
cHWRpmq4gU6iAgH+b0F6H7QlTmmk8HYoFbcl7uEMXp+WXe1RX8D4cvqwFMfvzM1s
5yADSVPXIfFk8Mq1Zk84E+1oH4SRFULTo1nh2nKBJTk5FVJAOURsRwbacXu9s1oU
YAcSSXKtOo65u/kQTCSank3lSr2lmAsd3YdF/fuvTR3/hR/VNiqcKEK+sqwWwQ4L
9JpLjtHZIdbTK4jU0FeTxxsBWZjIxLIZgf6VB/41YSsafB9YOTpx5L7EinyoXxxi
Pf39sfL3lqPd6tvC1WOK7FQjNe6t0ZmcE0BxMLBd6mN6EMuSp32Aca/DT+6vksyy
39TyU8XJWWkZa1HvZmHUOb6sCqIERS6ULB/dQbgt6dlaDpcvzxJDRK4ueOtL3WW0
agP85f2wcNeNikjmXh7+eCY+xIar7sJ9FBJ+3PinvzdPhW494n7xbpTXcJde1uYv
SXz5C+IikgW68YH8XKCo8PQkDIarDmBy5zIg5wc/m1M4SLKjgFfqUnwVtxZysGqH
37Fd/g==
=8z6M
-----END PGP PUBLIC KEY BLOCK-----
