pub   rsa4096 2011-10-20 [SC]
      2DBF5BAA46FB4DED338A335BD65016F35352AA40
uid                      Arnaldo Carvalho de Melo <acme@kernel.org>
uid                      Arnaldo Carvalho de Melo (kernel.org) <acme@infradead.org>
sub   rsa4096 2011-10-20 [E]
      E21AB0DFEFB7C60672BE53574C6AB5766A82C4CC
sub   ed25519 2018-08-30 [S]
      761A221472D74E7D7DAA1E11B23CA2E9A4227E27

-----BEGIN PGP PUBLIC KEY BLOCK-----

mQINBE6gS9IBEAC68meGuRb+KJS7Vl3b7EP7aq/EBcJd6z2hTiY0Y3y0Er9x5lKq
/FJ6beafMb+kftnOH6oj5hlk0u8NEKUslL1y/wLm4Y1FeGDwFZDWUjKfplehN5LK
6eqgZu24z7rHHGnD20m2H6gzbnQOVgKOTlMunjyP3wSOImUCP3eI/qBpYNKAe1p6
qOsjqigT1QK6rVMrDx1kmMy6tpZ/nkKd56UZIOeW2ZD3d+9+d1zEMHDtOJly2CGP
jp3t4wktqCV1f+0UxNSTIBamUkep36DHiFxRWO4RbHvUMvrUx+ZbaAa8+58+pNfC
1piTKzOsD8VvyTTwY+Kk5RUEJBwNP92nDFeKdAx1eNsRJVVspwquQbJzAbPsecE7
v8Ii7UK2RZaS/82CdUbFHtW2rU6spaqn/QuNfX4+Skr+Bqh/R8d1rWtGeSR1Odfo
FjeHvFg6OpZQT0FWPw80jTM0rdCggnhjzKZk3WqD3ELGmalRfR6M87jP4QSfkQgP
a8XknI+3q9pI5z6sYeTvnbPVTCT8JmBzLcAHHeRfP+WSXBuNhocDZG0fYXmeaS3F
NUM0gNLZvbCaFP0gSrtUiiREPqEWrvgA69cnOkzCc0z/BCyhDrbfL1gXudu30jJW
4O6xuaUdqGKL1D3Hrlt9S72jFhHayu0wgrrUij70gfad3Z63DlQNhQcRywARAQAB
tCpBcm5hbGRvIENhcnZhbGhvIGRlIE1lbG8gPGFjbWVAa2VybmVsLm9yZz6JAhwE
EAEIAAYFAlgbjMEACgkQE7Vd0HxTuFG7LxAAiubQaQLypNBwPl9jOoCj9rtOerUy
9F0+/+cTLQFmLvTapDoRaWQfC/gxVjDVyzt5C0l+f2C7RtLGG9q0y86xiZawckJF
eSuQ4RRzp5PRB+W3+vYq020QZ21Tpll5ne6Yebg3dP0lqcKadjvpJQgku2WWeTgx
/O+XlSqaolGssdqyN8gtrtVSYYvhKd5hqlMy8tOKvZc8eUb+Nq9YhcYQgXOHOCyA
9a1CRillPNOVq7i7etZIhz3++WgMmkjTLFO+xujsgYUXHFhHjkvEmZE7UoYji7M0
7hpG2DYXxA26aGMiQQ3NxFJ6SVEvHPY4JjrSq47Vo7o6nmCHtJcFdTlSup2EJ8EW
arGf6dxTlD3+FhTtNpLABAy89ofiJuvpF5yzrrT6Nw6ZEvdxkeK10ahoXJyMtLIO
N2gKY/fYDiURfI18ipVg8fAsWPWG3OGyTj7viPxDY0Rz6lMKHdhdb1wE+e+yFcGi
o/4hQmPleI+4rroMUKPAQQOCRIAZBy/deV1sxWbWxu6SJAv0uzpTWxfGwhWvSVJ4
VQ7pOBtgVZ4tC4S5Ub0cpLuU/dq0sVklgBIogthrCyqywEVO6SgA1OE3PvHX9TQJ
Z73h88VR/U0Bti00qEfvdbPRsW4WQypJJB0GQ+UjMDANPsSH/ezBilHhpT4rrDv4
EILYqU04ZZYJRwiJAjgEEwECACIFAlOjRuoCGwMGCwkIBwMCBhUIAgkKCwQWAgMB
Ah4BAheAAAoJENZQFvNTUqpARpsP/jc2H7xPN5xFm5sVRXjVOA4r1UDUprIO4P/N
wAM/1Ae7F3lRo/O7q0mgGuMssDN1SMXmtocMopBUMKYSwKzmTDv9+YdqPqGIL7VP
/JINoH8hfSdoC++NN0ArE9cOe9uAemx/gW3Os0u0hlNo7fQZRL0q2WoSrCYnqYai
CDFxTl0miTjgUgvYfG2677Q1lzvp2Zp1vebUhgnaZd/673bAI3NlVvD8D6FUzDii
XUu2h4zp3JGnUlykLDkvd6DUZXP0haDQnjgWNMmHFQPGF2qN08nZ6t226J59+wFQ
8yaX+MdTOhItHRVs+0ItIAHcPO+wedsNJwy5PQ3vvfOVlKyfinUeMjL80rLpJGsC
SxRKdXHxF3aU/Yms4wzc0cDGgltg0/V86T8nPvBattWDPtRZ4/sqm6TeDE17RZUL
yApPBin5zv2nqfN4LjrSRuQhpY3xdeBRzfV37s0zWuNYERXXjBq3gfgKPbX+jLhy
Kwh1eV96QSL/nbjXshGES91Z30oocvpcOAfANpI0GudG8tAgFfl5gV4oeK7pHS4u
uIJ4GSsMYl+bsmbt1mcR7q16yvqKp6Igv2OAXD6bY8SINaEONAjC7fBgV0lheI+2
W6XIwBRnZjhXqr4M0Uz/OkLPFP9lxzUw4VDPDqD7NmYsf+aXhvFgY/715G6UG8W6
8QIDT03EtDpBcm5hbGRvIENhcnZhbGhvIGRlIE1lbG8gKGtlcm5lbC5vcmcpIDxh
Y21lQGluZnJhZGVhZC5vcmc+iQEcBBABAgAGBQJPfildAAoJEFn/d4dOiegTicQH
/23MPmHTxLDRdSfA/w7yQpqjT8cto1il51s3N8FeKeey8ssQpCMuYl4c4lljMWP2
YoEfe1OKQEFOYx87PIkc9SAPqvtksrgYjBRD5n0EelrYnGc7JD7p1HeD6VhNs4hT
RrBU2Hx/MNN7XLZSSxJhKGBPZskiw5xGDFajnB7O4xrIQCpR4LTcUblpdvl+d4U5
F3t3Sbuu51aWe85vTkxKKTirttkGbxhnl4wTqG84Iq6hPNdor1OTmBeTGUT2QV7P
ddTKcqTKUbLI8U+l90yapdEkpOc1XtjYajHOhUi96KCzDYAE4iHuoqtsljjDWu7Q
Vpj7zleYOKoTYWQ4ZZzMqzCJAhwEEAECAAYFAk6gUIsACgkQCCUAhGOdLRYnqBAA
1cO0ooV60mr2dlUTKHmgzd5h7y4hw9tkxZQe+i2anrPy7aEwc0H/ZwOIVfu3vnXv
ICcB8vHur4UL3DPjE3h5jd/Xpz3C3ZBxzDbUJBgbUeHyOduqNRsFis79TP/4bCfo
hcI+2AQAbg+yL8CsFVc46NpJ3SMW/q7Xw0T3oaD7sfbKv9fKRJ8LvZpaLJDEJdV6
wb/t2+oMj4BT42NB7NbEnZk08CeNEPDSF+PT6IDJLhkpD4F4A90RABkXvssrLj6x
NVfs+7wJibFy9iK8AvCs6fSe4r/I0aCtv9+ve3jGuPRY4C+4rhj7Rmw1ABYtHLo4
W8RCp0qsalwM6BAfa2TpZJwrsCxpPkzQbm19fL7pM5Q6Q03GIx7P7C59x5X9DpN6
+CZa1Y7fazzcnua3ifvJVZfUA+kHYUcw3OExXamlBDDtDmene56s0OlyOPaudaa6
7Lhyd79dxGMRlkuVOtL5OoOKfDswwVBYYVJ0V2/LY0+TCvYIXF2JWT/XUu+MQ22E
BTfKl3K8K+uOnT8QINGB8hwF0W8DLLvGPDthk7KMQu6FkoHttBQHBIOioFv3NRTR
cf8MYFOs0th9mkcAfOWgNWbR0VoguG9ylsZU8gOP/dUsRpccXRerx+AcnpJqiYKI
EPBMjAu8bFq7WiNg1LUUn/T0D/AE7KA8dupb9kIv076JAhwEEAECAAYFAk7qH9UA
CgkQY7TwGX88QudBEA/+PUN3PV8yjKDJ4GocLKYsUMg52gy8PD9W25SiOpGQ8HRj
ur3fEX9DtCZIW1sUXrFwbBB6Njn3l4lJlDWVF46f9iGQzWK34U3Ir5amxiTqvLX8
amKRx+1ojRNU17EmUMJGwkSSXfo2J6yfdXZxwIKq3fAYj1a9l0rvUHaiCZA1xbC/
Ze8sms+pGCMzMKZn9kqLlOLvIOgkrIaIkK3SEunkMN1SI0PFr7mZf0vKcFL3LKyl
fLDZVb+becqStWwc4LUa6Vqp7J8MR9MyBxN/6WPniQFyUTTna4aYdEgIM4HEFdJo
yyMC5LZQamfQcKLpdfbbNw6qnnPw8lQzezIGkGUS1cWwyxYI4vo/XOTK1h4ZTr4D
xWjBHowgZr2gqeGyo2rxuHOiTOuEvfYAgrKHgBSayUH3r778mJVjORGHBLcOV3D0
RVS9bVKMmopuuZY8d+M/N4lxOAUzG+KnuaDJexC51Njr1afvNhRPzja15dUuxcS7
nMYu/OzDVkPOdglDcNaG28Rn/WOvPKi3DnRVAOSxU2htStQ8pliFSbiTozmegW1H
KwYicxIeiq9rD2YBQ1y1tcIoVS4uJ61pSmXPPTdc68ygkjxbXxZfhX/6MVRzuylv
cyq5/P6LExCUpcSItiMF/BZwenIyJUZc9nfX0FugFjsCPLKRP3atyxf71gqztAuJ
AhwEEAEIAAYFAlgbjMYACgkQE7Vd0HxTuFFrQRAAkde6MX6ejNFdmEx4nitnaYkh
Kp2CGCmpsGSE247hPINGws4c6RqV3l6YTzgsHIAPyoGxpMjM76Epc0BzTq8SP7za
h7etoBVdQmkfScBqIu7atfNqVuBZ0iElP6shTxZkKMo+dU5EKpQEquu63m4qs8Tn
lhfpC315KH7zBSNH9bJ3dElHDvkeEB4+lFQvX1uByK/KyJogeyERVpbl88bmcbJX
8EnfE0r1wKFgGaER0c+PVOo2ybib4JRbJzrSHdSwb/AyizhxSlf8hoccUQjl2iMq
xW/I9ya5nZj9N8sVFjBjixUnVCnX/i7jTFCJkG4h34oB3AzzcBSGMLlpq6HsfgAp
zXwMcxxuNzyzDjt544EqnlPRH6ZfIcPDC9tgegtx61qp8brNoHud/iaLorDtvtdQ
M9XpZFsQCFgYigyYj5Olq3xm8CcIx4KHFFtdMwznKuX8xwkim0xXd5kK5eY+tWdy
l38EOK5ilI84IuubEHdR8PRy5X5apY3fmrHrY3oWXJWGU41xsSIInPV/1hXz/AUc
NDfadVMopJo5u6SOiauupdMut5nRqwvBfemFk7GhW3V4wK9hS/HLyZHsc4PeqfFC
ZdK6Qw8SdNkvXPDHIkLHHEbYmft1Vv51Shy7uKCB/VPCQPSLScDp4gqjyTVLLzm1
9msWph3WGLquaMJCteKJAjgEEwECACIFAk6gS9ICGwMGCwkIBwMCBhUIAgkKCwQW
AgMBAh4BAheAAAoJENZQFvNTUqpA2E4P/RsJUDQR9hYu0EftP5bnZ5TYw40D5w/+
4p0EAZltXvJw0OSRX2cdSK5rOjLtE2SujTe3QIIs+1hZt48MT+5/5Tb/91P7YSRQ
Zquq/dTGuWVjfZ6hiTk8BgFaPa1EcVJXPPo9tlGq8jljD1Bqjy0r2HHH4gDVrMGL
DI+R5qkvWWnd0pC1aGRdZSRsV60/MSsH+DcoRbpa+o+/WQ2RlF0VkoXSF88MMwAv
vBm2sJGpb5wCvgiBc068QRTrXASUOztLpsIt9PH7nlMlKfHX8804DAAXBYmoL3Fx
P0qv9S5Xr93O3mtXaUFKkv+uqhkMQOvxcsim0p7kZPJukHPqzpORmdYlxai5N3WY
jI+wJdP+Xf+NdnWl1u3H2zBx7Xl6W4uaKgpXeuRP0znp66w6yTq8Wzj8SdbHlVbn
SRmM/3/IPAaA/nMIMkRr8Lp/D8hN8tccaqxVB9fYAt40WeX0fqUZvTtx79dWbf1i
UhwRhTrpJHCgX0oRvM4E8mOYTgGiRcIGt8LOHYa7IE2yLmcH9YLBx+cNukQHQsC5
JdllHhwhNasOln/wVk5r1+54mAu70NSt+x259AmeKldxn3WHQse9rvumR5It8dOy
UGbiM0ghfV8uUGlzZyvuOnxw2G09zeNfdl9v0nMkuD01ynxehgNuMvqHPhizZXSK
qPpoM1HaD8tZuQINBE6gS9IBEADXT4Vi1GY5cFEugq0ib7DAcOaUFgandtWfGxay
k72vRKt2HGCPvyj252JZJuiXlHKe+ox9IIf6BtSLuOl9WGROXzkIEfCPhfLBvOC3
2P+/eONQ/yVLsNMDYmdJF3UkJrIn4dMA1mht0yNajs3gHd8+D9QcxZ6fcNLlBTqW
MTxudZEBvfVkXYXU5j0Sr91snbEXVfTCJ2X977P+p9Nq/gOTSBbCL5em8KuHpveq
SyQjt+Ywo2CX4uyB59diOPkUCdPlfaCoVcLL8skzBwJb6QzV63hIQ7JpU4IqbhXf
DCXdzKbUbR+IaMgBaURlB97MOnJbfOJjj/6x5zzClLuj+VXUbFpyDYnD1SKAIMHC
xpBC7A3wHRa/jvDt5GVQdwpy89k8XhfmczcLNu94kyU0REr0SgrXDXQUC7Kn7jXk
Cch9CRG4NA2YY3E1eVzCNc/h8zO4UdQpTxUQtYeMo5gULhtsw8FEjURDW8aK7rG4
137e96iFd04DR5N4JN+0GaNqxumkrJaHuHGw9dlthuHG21qCcQ4eKfq6v8YNKBLa
MFiXY4GoritfAJe1x60oSwOCSSP3A9DYFG2P5AwHvKgU7wZsEFcxPW8FK8wd+Gcc
X9AgRaFEJIcVicnUAsw8MGPnOboEwrYcRurlhfe6C9a9yL9ioM312miJ2keEsYj8
7UimNwARAQABiQIfBBgBAgAJBQJOoEvSAhsMAAoJENZQFvNTUqpAYuYP/3UrXDL4
OV1zRj0nsEqrsAL5AEvVtgCx7RkMcDingtgS5SbdBNohlrylQwSHj1ZcflJfc/ZP
8taBzvJ63Tm2wkD86PMc4h9L+L7mL+GKGCv7FlVFnT8ogxUNz7MHHkbX8A2fTWpM
b0kVxAOQ2g/hSj4D2HySWQ8t4Dxdt3h6jCqlAUZmws3V6f7xW0WIaXoKJKRg5yDm
PK56Zo6Bc8Hea//wVgjmoSEjiXKl0tl6vsqn7CcwuMHc36R/whiiemHHliGkeErr
XMrGzUVZ6uzBHOsueRAMFg2vXuguiPfGOmTPlUYGyAD0+R/YFFFe5R5m+UJUfWn5
KIU9yso8RlwDvePlsIjqNPH/wRKD465XlSExIZZgj+dQ2bv1WHuhjp92a8oCO7Dn
k4nT06IX2H4fm+CdUXkrOq1p6TRilOkkKBVhAECoD3sBNkvw9HW5fiK81H1uni8L
g+OqFla0/fni9zNQClivYboYY+zzsYnSeZPpce8RzwGhlPDZQF9afO5/Tq+COP7A
GinShKS04PsHelocgdDXUb0PQUIQ9LAhkioBkzL0InYFVNSOrVKe/sDf4YY0x6kP
T1kURRRn4G5ePUih+XNQ/d50oKMByzf+GAwSfxfJnKwtQNm1gyeEOPU5r8OEiHX8
EJ8gi49dwRyJsR0g+8LrTcDgtLgtDpJZIRMjuDMEW4hG5RYJKwYBBAHaRw8BAQdA
1bz3saVw8naQeSCPqgIOkRH+ooLP50JcK12zttbGT0SJAq0EGAEIACAWIQQtv1uq
RvtN7TOKM1vWUBbzU1KqQAUCW4hG5QIbAgCBCRDWUBbzU1KqQHYgBBkWCAAdFiEE
dhoiFHLXTn19qh4Rsjyi6aQificFAluIRuUACgkQsjyi6aQifid52AEAhA1ihqpv
ReJcinzuEab6KURNycTPLk0D+2llv/+jfyYBAMGKpXx70ON1fA5fPSk5zjncuFpL
6OJAWXhucMjXdsAFQKMP/0WnwhvuzSSYg1qt9THjm9Hkoht+IF49P8wBWkLIOnGB
I3LXDOQaaK0Lp6GRuUxyIEWsY8gN60Earnc8kNObsFV7yFzIidptJfT21cSClHXM
+IgVjRfr9RGoi2wLNSLJ1XCbmjGr7gmXuEUKCaxFvzpvnFV6gva7DiLqzZkGIqRu
G3zwrBoZNABtF+SKaILO+8G6ywRPfBIimsO92LJICJLQbsEV3UuPmolAdgksvPrw
JJs/Hko/XWglPeaGCvNnxGBqUrKMG3yLPITc708fu6MchsJP9dQClxB6Ev6Wh4uR
ZN80V3fRJ+CkZXh0YTXRkeXW9V7FYZdgN9KqfWu49jJylYQlAJOTSVJKxDKENUnf
HeKXmaqLR/tay548BOzFM0mRivWCrokYk33goVUNB+AzEyncAu6fdCzEv01aLJRI
+EVPGtelvI8dm7CTFxFMCrGDixRt8BGWBpSjKQ6+K7TYWCBfWsN1QKd1gUpA8zN3
amDn3CywtoNJfUl6aSyAplSsYX9yIq10FjPEt9Jd2EOiOaTcRauceFXr76qSz4j6
myvgzOS0TOntx5bReytClfebxjs4PpEolS0XP/fKgPX0ueWmST13hvFI4ln65jpJ
3pF1dN9t8U/OF7Ao6IyUyBGI3NWGll/Ygf2/WKQO/AdQ7CZttxe+Jw4HjtFgVVfq
uQENBFRICHQBCADsNhRJyHHwCq+xKtOPVhsXFbnhpXU1VyNmwVPiLZpUDmpmBkOJ
HI78gvPU0kcZ256Tpdb26qOvYgYBK1r+V3oZGMmYfMKQkiQPWsu/XiVAWe8L3C8y
C1x+aDdLgBbmgR6WsM+bmav4NrrrOuHAqogRdEzD9h+VvPlf9Eq/oA4ofyWCkrnx
nhHf8s1lpF4WdSGfAoPqnn64OoNi5ly7so5uDfCgXKZtiDNAZM090cL0QKzhvXTD
pQo7Clq84LoiQQEtAXzyYQf0S6qic/li7WiNKyUgTvX158tSPK8JKCAwNk08OgWu
RYpuwsq+VCFWXZV0mSuUx/ZzbbeGW4RsWy9hABEBAAGJA0QEGAECAA8FAlRICHQC
GwIFCQDtTgABKQkQ1lAW81NSqkDAXSAEGQECAAYFAlRICHQACgkQGnFmhhigDvXd
fwgAiEgTGLV99x3T71xDp6weplZEZkGwfZgYl7ELUQCUjnrvJdQtmidWvh5/E6oC
VvaqL6rvM2MJG1/DGxTB1OI/4FQaSzw4adI7/Kcln5/OOYfrvDvDTLw6fQIswYDs
eCnO8HebzcM7cqTn2L9WIkPawMxuoHUnunMm6daC//IyCBX7cvSKXVHW28IjfbSs
mE6LaD0U4O9lD/jvrZXJluE+eCuvIhk8HQRf+kHGXVW6LIOKk16VDG5IaA/uqe7A
Q0HAEhytdwIPxoV5ChHBpLVTjzv3l4lSCOuZIysKC4eLG7GwdAXF3Kd9eCQmowY5
ggv5YlxNXWpZU7Z3eCTE1H4MQ8WzD/9LmryP7frDv201U5joVSlj1hERe+Huvyf8
ITWGFVZk7e1YqHmGQlG+LVPj4sumgPpLqlAGm/5SGD8emJbiyurrpmCYgltKekQD
eUOuWATDgo9NPsq/K/0lDlHl2AZSLbeRqO59dCPjVLHJ/b7St/8bzFYXa0bOrJV2
KL24eRk7ytXp6U6gGeXD6dvbV+Wv/deBRVjvJPktfpTMk4/4atwi53qMy5YV8moh
QMLldl58zYGPspOrmnh3sHaRiO/v9CMxBb8rdy5lTHsqStaKBpv6VzK6vZNnKwrM
A8aYFwdzu+haYBE1reIr2/yD37wL8+jTtvMrk0+Erd4MaRCSetnwv7RReFAC26nA
Bog3yVWbyaInBTQ9mKDPNqsCYrdLN17N2KEGAg3RntoRyA8kjOPEkhs937CImAKY
LcF3FaiEzO0czIX2HAfheE4gSLumi9m8TPHLBxznkr+YE0cb1nQasAa8C015c9cM
X8FRCncTgKag+vHg9IR/CeMB/CKPGfEEgioKHFHtNUduBLLvQITLFJxhppnqwg/S
lcAbzE/YruXx9joi8ubHphUFZ5WwBIg6gRTiRb1Sb/sxojtmId5IMKWLN6EqBSlP
/fhRLjSBsKlz43c3dir3T2xX+gvOzUYVzSzHh+timBmITQ1wQkbUPWmiOTDG5kj7
NyuK8QB/aw==
=02z1
-----END PGP PUBLIC KEY BLOCK-----
