pub   rsa4096 2023-07-18 [C] [expires: 2028-07-16]
      1EB0D0660B60F7C321FC5580E1C478A8FD1E88A7
uid                      Frantic Fruitfly <frantic-fruitfly@kernel.org>
sub   rsa2048 2023-07-18 [E]
      423425031813A9CD6657A8B62AEBADF349CCA300
sub   rsa2048 2023-07-18 [S]
      D1EBD91CB98E1C788199BF121612D4E4852C1254

-----BEGIN PGP PUBLIC KEY BLOCK-----

mQINBGS23cEBEADW8jqR4sKcTlc/qXbmF/XTTAW+DiudPd+0ibJxUgmm36G1TUr8
VlQW8EjShVxQYNSf+RUtTjxTHPpjgCOw3ltKbKxXFu3GVYsj1SZX3Rew25AU2Jq/
VTkYAYS2u7uBS2stNjpBx4Tc7RmhDJalyl2430GazklZPWdlGVIpQD1UcZ8o6UX/
aodSTogJBnfg8KYOwarNRHVb+4CPmcPnF0hUTIXmwOSyYmbzJl2+nxIhl0uXsx9A
N/UUfdmNko40JhgclrhASaets0dwKzZZnSS96XtWSjRkSgQ/tGvkuJR+MBtISph0
y9l8ntLCRilqmnLbRoWAAbvhFCUw6bSjkDyMRnec80EbOQB3Ww8XSIv+Bt3oAYp2
7z92pzlFtw8idMfPWcmp22SxjhrXNvXZxi/3hJxc7124xedDxkqmvtUlENMB8tjS
jJFgsHljLvlxF3fYb5SejxkRT5uZxJA13XYcJadqZyCf3VYYxqE96pElI19aZLrZ
2QWuK1uM+b4PQzrksfpWwoIpr/D1tsyDu8zK4vpvxoadEoswMyvWw8x9W03O4Nz5
Y2tJuYyuZ4fRW98M2pbuvuIzFvXwbi1OdChlMxAglfP9en6WDVaYJbxGRaMm2jIK
cFnto2Ufpkw32NbKJxn16s+mInMDTocDzSX8PFmcJoUPlInWCQm90pcCqwARAQAB
tC5GcmFudGljIEZydWl0Zmx5IDxmcmFudGljLWZydWl0Zmx5QGtlcm5lbC5vcmc+
iQJWBBMBCABAAhsBBQsJCAcCAiICBhUKCQgLAgMWAgECHgcCF4AWIQQesNBmC2D3
wyH8VYDhxHio/R6IpwUCZLbeUgUJCWYCEQAKCRDhxHio/R6Ipx5GD/0feuTGvlTg
57zQeHmMl1aqhg1uW37ZzUxMrUfdRaWoZd10+7da0a1bGaI+5+lYmVm/upMLrc3D
p9KexF5tqr3uaLGWIb/7BVbhndRv1/gtJbvPiYq5l0Q8qF9yRBgXS1/kXhJ/rBsM
N+VohxmO6DR6URWc4uljI/YIGv8PjrQw6koUt/apmPRSWfeVqSa7cg7i9u54W8/8
ds7lfuet0aMSa+m2iTOFEtQ4zSJaOdULrdXYcLCftVeMJxOSUuWcVLxyKSWERkbQ
xZVMCfBKSAPnCSCkOWPGM3IYGxXXdD6Qr31VsjMTaOeWWH9wjYnzdJxchJdSKn/8
AYInoSod3wn3/vAuu0tWPN7Rz0KBnTguob/S3IDBfQIaY6rOPUy6hSiAojOER0h9
YeI1dQ4hZ8gg/CrrUwiSuZpE0cUuxPm/w5baw0+48mwTAfr1NgQ0GwuDLdtCDnbg
/f44z6h767ywcPCt1E2iYjszVbJ5VQrivW7huVZMVIst6SQag/J0fUptGkr1I6Z6
PmorfkGkLGZslHlSjbEkxJcjI1xT0KHaHHGxi+vb+3bZ6lKqcMUvF+aL2Mh94QxH
RxTrklinAz7YPAES2YvkehlZq2d+xJaie49ovegxcl6l5aUQ/ZedhDF4fl4dMHvZ
fvVXJ16ph185vGSJenNLMStcEOvYygK04okCMwQQAQgAHRYhBN4OZuMvH90JAmZr
luY+3KkyndB+BQJktum4AAoJEOY+3KkyndB++jgQAINSFULAb81tbkMBx6agmTdF
s6uW/X9FR2R+FH0BfC6b1CRn6a2bcczc9tHvaDCQQyALWy2msHSweu/6VpjV68qo
utG4q29OclMDQVeV0Th15MwGzkUbD+1QxrKzZCfTfFqKoT39LQ5b5J/fBGkKTY2/
3rDZa+Kouz2XsFZ8hK9nm8V8jJjZCxrGXHaVWWFuM+PMmyp6mYU2Z84thLu0Gg82
N2cmNCQylNHX9lkOfL9Uv+dHzOJK3sX3lyCbF3GJ5mQ15Oa+A2jewXhPZzICK4tu
vSU537McNrDmVMwVdRN0IqD+T4zeLVISJ4KHAdKgJewqz73nPy3xJH2VIwSj2yeO
E6FudwH+zgdguivjKtt/vHbNM3bEypNB1SSW9+sTA41umg6mU406aXjqGQgi2k61
mPD3QnyG7Bl3KI+4mMJ8Izb5sVkIFUXPID+EBaEk6JK7YNFSeLCqHcAgNX6MUAwI
aKafsrxTPe9A+gIIoldExcxQo6hgxUWrJi/dnGPwS6wFEg49g7vZJEGkpxEpeF4g
6JRQN7VMo5KRbuq6Ob+2jgW3u9dE25HsEIL3mzaAPkcSkGJ2MpIiBeLkCF4qXeDM
hz3EONt84AuTP18FGvP2SdBjrl2Q5/dnkQBdC7IKymwGCfozJCmhqpDtHQpWxCs+
1fEmJtX8zzj4MKoKY9v2uQENBGS23lsBCACzMNBQzSrXtOo5SnUjZzDFDRm1QcCH
7TieXBwvQS14WF2cYlFuLrLNXXGdJH8sHar9NIFlS3RzFOWgxLh1IQlFKMa8pWQA
YDk1q6UbIfD2yP8q4mwejjYInHpF36njXb5xSY2yZoizHnW0b00ImDu5wrc24TeS
+VMNZUxWM04Y83DpvSCu/Bssq4gvmzrXr4VG4jUN/JKrDBQpuVbiZtzTriKmaQiJ
sN/bG0Ox9HDA7vC8k2Xi9YZj23LGBRppn581GaiXYcPw5umE7ITaDaenfh99SCKI
AVvFZYBogH7XRSEFy5i/ZSS4ZzSomUzkF7zOK3yWdPXFAJOUnZNKO0INABEBAAGJ
AjYEGAEIACAWIQQesNBmC2D3wyH8VYDhxHio/R6IpwUCZLbeWwIbDAAKCRDhxHio
/R6Ip4LkD/sGdzknQszj/vgAllhjU38pkF4ML6Yf562ADT1e7HGhBpd6KJQL7oy1
N5yIaTKcUCduwR3N3ceps3E0shBJFZysQWeW8u6hYIoRvqLlPc4bBOjfmnRDXElh
BVCP5hKpIcR3pg/v/QXIG69g1gFKz7nekU9DfPREK2jCfHjH8FKCpp+hQl/P7SBW
aS96EQ9+hvou4Cx0P4pxXxa+/WzQbJF6GsrABb4P5u5Lx5qdVasScotkz5OzXURh
dZEeMutwkLrDIMV4P69ezzNDnuOF+Y/3Jkp1SCrsTG8Sqe4Vx1XKRCYW+1HQyozy
heVaWlVUZcNLtIvU8u61fBi9JN1gjUBdbyXHacHDjBvGsLYP9nJKvpPUON+UjUeS
G+rKiZ0qMcLDC0yjgfqE8h3A1pxHKR/dmFm4AbXeXcxLf+6aktaK+luXTBKhsvL1
KSbhd/wqJblgoa1IIKENbzhLclV900tp8PR3Vgid8HkvCkukAocD24rjHgB43Wbh
TUV+NBKhGPRqQMhZa14C2sdh495KWG3NCtZ2JxAD83shl+UY3+PB1Eu0EqBOE0xF
HWiVs/iOaKVY4GsLGVv43AG/Q2qzN2Xp0YjYRaegwcCIsYZe6Uq/vBA4NZ78Ixx5
Sq+uScD4zkq4vCvhfUInohXfzsnk661JaMoz0bvxlOtNfqUqyyZL47kBDQRktt5g
AQgAt8abTjyoHGMGSBE+bN2lZIBpPowNqfbob6+sb9pjljPZCr6FdODdDs+Xoi/J
vyMyqq8eu+UKLHocTdCbVwWpcbVi0DYy2HQZr5YsNDhcwa1HH4PMs1Ew4g7GENJV
Hena7Mg6AGRRWQ/jyJ/KwjW3ZaIXDt/5WlX3hOwX1m+bh9+UQ73W0rbqHnOCaCBa
oBG26qZackUGvE8tLMfERMRsCH0fo1ranCd+E8o7kA/d6pdDsmBpevlnYhmkuvUN
bTOl/03RbR4tz+m6AdPnunEns7imlcI3hIIyuHgpYBp9YygnkJaizJ5LQ3wcqWIR
0p3OyBBGiX4EzFPasvx5p8FV7QARAQABiQNsBBgBCAAgFiEEHrDQZgtg98Mh/FWA
4cR4qP0eiKcFAmS23mACGwIBQAkQ4cR4qP0eiKfAdCAEGQEIAB0WIQTR69kcuY4c
eIGZvxIWEtTkhSwSVAUCZLbeYAAKCRAWEtTkhSwSVHccCACmxbssXlGLPklNUx/E
3DGYYxo6CGO1Fc3vKILlbXk4liv/Hdcby0brsri/0V3wovDCT9TszwddAeANHd6k
7N3vPxiLq6dIAuokr5j0OApVr5tRH/AabwQlGWBx4LfRNCkQ1LoY9JbZWRlbfyyF
3bkkd31t0KYCEiRYW0R+l/yYCWAnOp7y4SoYvCRvqsf4EesxkEiAzIj8smGspxiz
4x33I9ihXvEDC2E8i7sHUjHRt2TuDjIlmApQADXw7GkE2UzWExMKnEkZoOGgZbni
JoGnYbOowsy9Lw0l2kH4X7YwZbo7nHpQ8vkbSrGUpi4a+73WCJeajaA7A7wlmi9z
2wzePpkP+wYibe7E+J8WHJziJmigRv29Y739HQmi+k3sf9FGb+VokJwbroeyIhDa
wutif+sdt4qqldhCQqJX5F6A8w0yQVgDkzoi81M5i3QA/yaKBfSyNsl1phjo2HdZ
TX7XExn01rGfbHdghCtrbuYl7Ka72XCB/+0EihoLkaioAaf38wPMKMTkUR4iCQ4r
GHomDbC/WFTTkZ2eOrzwSnhQ4KsZVMsbbkE0rMhEqpqL1rqnrws1V4EK/nsFidSq
Pd3BTTEeugCTuqVm/dNcUNK7csORsvsSHk+OvZ5tUfN+nRLIsQIKJPSZrS2v7EkE
85bDLCwipHsEupLhMzMpTFJljduwaEhbWyaxgL7CHU/wz2/aBph16QjC8z+QLLpi
6i1+cW/XkFxDxzpyvYZ594C4HOpOZurxfn+cS9436N0WJrQq6TGpRy9xrf6HBXDf
szx78JFvA2Havdvy8FXQCbNlFl4bFnwSlgiKl/pCdbHRalx9EG3eCgP7L+Ly2ypF
0YlkZjgQByxp93+kFqNLCRzwnfcXbloHhjobt86UFQWxAju+cf4xpRWfoUF1+MXt
2Sj+fzZaIqDYfpwleRQqeXYyZvqjAjWGEoFwzkimx57S2klztVQ8F4Q1wyL5J1CY
4cgb3/qR+rwm1B0n4s9xt2FUCvTmSHnu6JP1lGP/EfU+F1mCxG10
=pUoM
-----END PGP PUBLIC KEY BLOCK-----
