pub   rsa4096 2011-10-14 [SC]
      DAFD760825AE2636AEA9CB19E6BA9F5C5E54DF82
uid                      David Brown <davidb@davidb.org>
uid                      David Brown <davidb@codeaurora.org>
uid                      David Brown <david.brown@linaro.org>
sub   rsa4096 2011-10-14 [E]
      C66F81AB88BDDA22BF75847244A872A1909BB5A2

-----BEGIN PGP PUBLIC KEY BLOCK-----

mQINBE6YxCYBEADlLvo6TAxVdx/fT0/Zc86C29SYmL/zV08v/YP4iohdeyh6WTUM
zzpYjjnX7A7O+ayUSSn/nT/F/qdtxlRFxiPfWKaPGum/1a8MiBbjA3Dk2AVpEfPT
CDc2oVNZu1dzrAaxrhp5u04RRJiZy2GUpP2kakQhUP3V8Ru9LClztzb+cPycx9go
mlKlQKCJhRtT5HgRwCSizZUc+n6uBCFZMlQGTaD4LqZre61YzrEoF5RvXUafPAnz
PXjT3aiCmvc5L1SDjkGh7/XZGt51yFGUEmXFpqp1jopl50Ht8Vw6krY7btYwat79
pKpFZHUjkk+oViRqjxheYnqXAvyPz4Yx+eODwOVjD/dOcMeWt1hi0ZE3Rxqx2pmj
KXdvnTZZeKhb+qEWCeer7LjJglTIPCoKlChdgEuaaLcpSeOYoh2Gx3lF9ZXGdeLz
qrrv07DKYd2w5DN8CpXEZ5TUvFF1SIQ3IwX6+Z+c6fDBkvgyeRGc8Kq6YwOWbJ/R
2X5WlPsGLPnvQM0X8mpybwlBgTxTAG+VDxhSd0CAGXyz3AYfsvQbNGeF1WRy66Dg
K++oyvjg7/1aWDgJl4pqH3oxLMRVzOsevicHaLyC/B3cIDRjNpX1ULjtuE1ndrJY
v630RXKkGp8IHeLPXbl5hTtYjYUddKpY0K4e4Z/AbyHLXJIDLu5e+qpBRQARAQAB
tB9EYXZpZCBCcm93biA8ZGF2aWRiQGRhdmlkYi5vcmc+iQEcBBABAgAGBQJQRhn0
AAoJEMhvYp4jgsXicV0H/iEs+E/E795GLfRSSVaenpwr2obiMqNk5DbeXNaZ0uI7
QXRIdTjRp8QBYXwwFOFiJdQ9W6tocj1QukMTwtBYgbJO74dgEU8RqRANLdSVcLpM
2BHcxClC5Hip4UJs9NWztxhw+cN00SPltHeiYXzLgfKJMoIKlS5RZebf3swQJb6r
BBe3Ev1GZ4DP7K7aE1y+FUCOTFjBMEaqZtEoPqIyKWLxjjLge4x0zjb3sdG6u39S
f+qCi13IkxR9tW4+2AEmABb6EBDS7jkciJMOxR4WTx1rtYgH6GuOTOKJArj/eTbx
fjZRuzh5Mxi62+eE/3pOWvA3mNLYPiYh4TMvUx/zxRKJAhwEEAECAAYFAk6mvlkA
CgkQOctUTWUnz2CqgRAAorA+POqMPMRpr4Z2hAwVfd+EOgirdmeYAYMLrPODznUw
kpFHZUJtgLjkrGHwGk0IXoQp5v4Oz2ZmXHQkJrkKKhrj5TeOyXGQ0hN8Ls29tV6p
biEOCJQqjk7PY2+Xmw/+Ds6mCFg2ecK7r1VQLOpKE0DXCD6e0VOREMotmCgozxW4
0vkhCNSFgyi4x2jVdTlfis+TGSc8kzo3J1j9NtLJz9sap6ZIE0+RN1jNO5ekJ4T7
AEYNH7Nn9wsVe/haAXpzZDKTa1Wk/cY9Qqpne2g6ff4sBa881xmVRCuDdJB61LAB
d6eBp6HhKmN/IKG7afKR7fNbI184OALoGJKca2KYa0KcJTvj/EycMYEw6gXyL0wK
FDlS6ncE/tE7oNoGnl2oLVRtEgIy13VLl0GL8ZQ7rDZpQ/+d1ecizETUoiWvNOPL
9uiYQu7SzbdI3NKgb/G6RQtGkCAFKbrgnF5+92Jv2iXQ64YDTSJx3sz0x8oaV7fA
VFzhLYT+lkHoKqADHw/mOtsITc9TsB2QcurB4prDEsPui4//0gg6euiMrBPD+sl0
xEPCU83zXFzvKMCwrw2P2f+zQhtmqLGh7cAatGdZhc6pbIzg47dR6YbrHSBKvwr/
vWfoUCfzpArCBxP/ytFbnze7LWxjHstPN9RqU9YkISFvtQyIzql6CJYewpaMOJyJ
AhwEEAECAAYFAk6mwQ8ACgkQ6uPBXlkxF/b8DQ/9FU6dnwcDcw6u3gFb6BKJvKjc
5bRe3VYZyNlDNlSPEinZ+2yplUBWSdD8loa/0WGchITccky/Mj2va5RumjkFfy/E
AgMVTo2sf9bUZnWppExTlBev/EMq2ZyVLxB2qkvHBevbxcGKTlw3yD9Q3ltCe/pn
0kZATsV08SB646mGqdyIaOYijKh4lx4ZgMTqYv4ygpJ2kHXrKtChAX8GEWmgHre8
Mh4T+nAW0i5CySOSLeMZaqWZmRP5/YkW55lnNEbZ9OG5523HXpmjKsYERR/BZfiw
YkD1cDV6oRYtoqmeGyMhv7mSlqAmCNfY9gaQWvQiEqdSLIuAUQRgV9vcP9UqjIdQ
DdgOTWGEM5qErcPnYhyngh9US/tplJ7IB+cAR5f6Wf834pzeT59gVe0uYYy2iXez
+attksKS5+eW5joCiIm7DEBL6E03PQkY2d9XZJ0tZUzUjhXb59TUYpJ3V2u6SRz5
NHFY4RPx0GpVxX/l0xY4q8fo5J1yHFNcRkr+ZkGkwdcuGo1z01CnsGw+Ljw4EzGf
AkJs3OjKFJ5m8qO1hT10dN8KpGqz0KsIjJkhk83IYJpO92wGyIUjoryxpvsUsZMq
0+8/tZTqsWjZkz2v6hiuqzGj6M3hW4zl3NBrJ51UD0/Skg4V2IiHzG/2KflpX0gd
GTjVW57MzBGlW2aHVLaJAhwEEAECAAYFAk6nGBUACgkQmOXcyBZHtypeEg//brv5
egCW9CRoAvEzcUny9hniWFOcgxmy4T8G+1074fW0z5Pvby/R6i6xTOBJJPePAf26
jKHLbTKXSbAvncyiqQ3RBOZJ7qpgxwZn1MRKC5nGh6FnR76i5jLNTVPPS4nfI4uc
zjx9JgqYFkDvZLRA/LVFoq18R10Z1ATzTbD7LKuNh05lVWmjEe/H/2WigB65Zrrz
5+GqGcTyTAfRAOyXDqPFGoRkAFIGJIaWEgUmZYcxvw4cNEjspSEsK+Gcy0pCHsof
9oyNNLb4LyOhFb8wKy+cosusZWP1kw9eUO33mLsM933hMBEZD2LCC6K1hoE4sJ7t
dI5+qa7hzB1lgRSDB7XGYvFmnmThPiApMvylWoMtnMtHTkrLDyjpyjerYgQOlj5r
mMm4ktzxf74GRS/UMN5Mg7OpJwvNKYSfiybMd5K3Ah4wAchCbYy2sSh0B+ykk2lx
wuEN6BL2jkSeqYien63T4dgDbiaBHmDCIbq+19SBKfpN4iIvz2gR7VAg9Sw+3jVt
hovpbyxwugjcmIJptHm2abgDsfm0ZH/n9VhixIcc8v6/+Wm9EUytaXOhFonu3fw2
rVKwtmAAl0oPgi0Bua4hco11foO/jYocj4R+pUpvVIxd3fwtJNPQZDamfUzjnMVW
g2ceoIRmARZ/rzMq+OMGR0hn6e71cO5XucZNB1aJAhwEEAECAAYFAk6nGlcACgkQ
QWM7n+g39YEr6BAAkubRmLWiWJwJhtq3eNrgeYx3j7xENbg2c9I9i9lE87lQeYdM
Iv1q29gBrwwNZnc5X91HmxK/eXyBurmbELBHaaGZlsp53LNpu3gftOy/bKYOOSQm
98k3kZLrBjBAhxhkQItBEv3QQUDAjtxEIAZEOW92N1xYTn01ZW65K3MU5STtj3YW
cWFKgBQAPivCqyy7Bl1aSMs+3ekbUCLMA8cXXGT1cTOCxQE36j0lbONJxkSIHqE6
7ByRDWmGf/sVGTcqAlOhKXDpTRnLjwF2LaztPpQGiL2D3QL1u+tgJuRFMO+8Vm8x
u3E4y0Gl074V1Yzd+QdONrCLnnHIz0ekzvQjsthIimBOtfvZIngehZrOh1zWb0zT
iyIwD7vAi+I+vpNdO2nmpPyIPLlX6uqRvQDUGUL2DEVdg04etNifwL9KKfqatgkd
JhuBFsef59TNzFaMBYoFz4SQdUrd2My7vJte86vYBNWq0w3K3YqRlt3ixReQ6pya
arD4oH8ZyDC/k247LrPT/T937YdI175il2l1QYj7z3lIiAHC/pKKwcbXvj+10ks2
1wyrTQQlCdlSB5Tkndx2NUmKLeTr6SYMdO9O0OP2Or+M6SQtCiWpMAclepiouumo
Uj484N6v8zkIjKK3SJHJyLv/5d57oOzccagmkQFUozOwo/Ve81JMq8V3uAOJAhwE
EAECAAYFAk6nHWAACgkQ+7dXa6fLC2tCOA/+I4QrHPag6ZHQw035DEhx8BOvGQt9
ejsJKbKKe6EO1wMtzn7IArA8niF2Bd44wibJ5Rh48y2TTljLZaEVZjpZ1RMSLmsi
n9oLpmPtvjViteFTAubsS1AQlIfbgUY3zwvvLFI8WeYP8CMY0hckK1pJ1vfu5ht0
t5fNwavgD/+BYVE3wwmpQpnQprqeKbZSDQJe5dY14yth0VDeM7OMMlKQ/PY2aK2F
hWhghgvh1y5aUhd61D1Pv1ueIZmrXY44OBfHWrHfeEsxUg8X6flu02XYdulnuy3u
tivSaqpnbGVZ7pwb/Nh+pbzGARDZ2nhXPrclxKu1YTn5KrExDpfF6+NToc/pkal5
OhB6TT7fXXOudvd1JGB0UloYl6PhZlaZlOl92ObtYDQKJHMRPpipe1F1Bxag4ivw
s0qszVzBmfIEsM9W0cmYHzMgqZJFs9JEpbSm6C6cXppv4GHgxh+aqMXhTxx1xYrL
NXTJwCB3gpUEtyHCLOgmCgVobFeku3IMksqfmcltbmL/CWztCBUP6v5yGxmPArVJ
SI0gbM9zLgnLu77OBXJY1Wd4br1hNlWnMDLSt+LXH2txCca5zYicRGnQTv72jRgl
9D3EGaZph0ETW/yr/9wtGlpLqE15NtjCCkvw5aiFKEDJIj4tDjTn+x0A08UfuK3I
L5H3pr38GwIbIsqJAhwEEAECAAYFAk6nIKAACgkQjBrnPN6EHHd8pg//fXX0wm93
rxj2GhRx4wmFwOjMfAoiW3IKBdvj8VLHo4SRauH7QOfqTltV7Z3XABoMuaAH1/S6
FxieeIAtmCCVwH2TD+gHU5BBydCYOepfz0QnEpUKMmz7UVhFn8xRTWQc3nTwgvBz
vYiywMpXeVe0K1nZFIoteIZwfXxJqm+AxPiD/6O0w/LebxUUgQUWH8/FzYa16vDO
h2gcXL6k7dK4OyhiUH2yJF1bsH9Xv5L0NqbB4aCuXM47PCdwf6j27hn6FDg06kIn
oAt2a/A7AWq9yclb3vUvFJ7VFSQWyD4Q6VwQZ8l4Vpx499DlUnH7ZPZm0tce7chk
hT/xlzUh2rJZmT2i/dxO3QgdIR752zI/oEZQ+eEgo5N3PcdCL8DcYfWoR3+4uXTf
ggprUheeLsZ/fXmJYgbGdHhH6f2DjNxJIAcVKqP8ANOcrJ7CUkHTFdbEB/fWM7tD
tyFzQneA3Oy/lc9nBHLoJfJ2VrSISBBScELDT6Gesd20DMsDOZblrKtolVE/Eo3U
jyasQ46K050IfAcQQgQz//rSyKrXazjtfSZ1WfP+kvUAQObM1noCpNo0LPDX0+FM
+Jo/ffhoP4t4nCH2oxPnr6CyQC64s+rz2n3F1pCYBziVq8hl8Nd5dEqoq/upQxwV
HMf1jIY5d/dmAiBxi9lZmFqjBC9UdpYUpBGJAhwEEAECAAYFAk6nLzYACgkQLqdr
nCtGbZ2bGBAAleuDWNUOngBsyXhSH5ZVHgt1y3ASosfpD3jXkqO6iODKWzWgVU3W
MJ6++U1L+pEtX7QVjvs8Lx8C8oqF5K8LC80Nays5cS/g+5kAr0fheDC3Ll5NQ/RU
Pl0zpNTtvpPHziDHxRBDeNYjoZKyo39tLQN8t6zKLnBag7ORv2IdjPpQTf3aZEwi
ceRz20cuHpu2wtLo/IIOmTFhX5DYRzfHeMYeScJqKPKqiW2yNCZOBkYz3ZU2y360
8VCOQIEQpENXIBbTkO7d/ef5T59U4WNvnIABiaRT4dlsDF6t2wOw+BbAyhVKwGVX
QJ9P29SY9b/DvRFmfRVIX7hZ7X+AId7KsI4tt/KdV11JVemHIoC8BOgdUVzK8XEj
koJkpO99U7DJXvZwjqRnwO+d9M7LJp2olFD8MR7e6dKx64l9PjR9yfgntwrKNThk
1DOKFrKZpkPDzmVLt5MiShDPizcmD+8sI5ZcBg4VK3/DV2GfYOQOSr1jY8gADFGv
NsdszxynCvt3xSAqAhNLr2XnnHQOxQIb+itXhE2HIQexlrmsyEDOnGNqzN8WnwJq
UKSYbGrUVV9dtpbfaP/kG2a9JLjzJZiOo9SXVvz1vyWdIJutBMNPfKpPxy8CgkcV
qOiltD6fdA62eaz5HYObIw2zNuJmZuuMdXpqtrR5gkNul99Gut41cNmJAhwEEAEC
AAYFAk6nSUAACgkQY7TwGX88QucBnQ/7BvTgaKFT7fSbKCE1qMFNKBSfB3kx/WaW
AwBKrhpE2H5cQW68wbryhKucbVhLyNrkmoPCC0yu3jeeuiIyNBtyY5NQ3RgfdEkc
TaBkXa+XckqQfNiO9+hDlPmLNhQnZVguoSqMj+8GaI7vjlt3W/00Z53iOsDcf4nZ
Ce1/7rcek93d30NJOejdgdjNHaWltW7yApheHYbHODN2TE1Wt2X91+OB2z+PHJ0/
EUGxICHaqBPAnVwwXfWEAybB3swLxZDbNiEaZjZIfNVmlp8PXJ4t8rf7UzSS9iJ0
lbYvh537w50jGghl+T3tBrvozyW1fek47KR/l6GTygtfd8OuCAzAkeS2+iKk12qk
XhyUtvu/LcRwRfDBp5FFFXwNXl4WGhdzSsWMKIv+hfjWsD/bq9v3ZYLfwsy+xxpZ
ZCO9X+UhCWfc6l2KgktfdzqFZBbO54ruIw+QhqKqxNxbdhNibL48Pvb11UQew27A
zPE1jYf2PKgGsm43IL2NpLdcaaYhXHBqKg6/KHytNNYfJDToAtoCJPIzTqnRdaKG
G6/gSaDhxRh6hv2nY7oh8/XYlQbqDALhDQPHBdgEf+/hObDSipRuunbE00fSEX5N
yJRBvQ1ebNfoE/NibPxohEMOr1x7mRgdkZd/fFnNwcY+zfHi9kFrtpfYv4Dk8Ddz
wULp/2vbz/SJAhwEEAECAAYFAk6nXa4ACgkQHOUKkwgYupyTaBAAwAMaaSo4Evxb
YWvC+/BqParqWfW6vx8LM01lDvYZ4Vp2kFS3uHN4IC/duCCsXjUrurHOOmL14OlB
AZRtXd1mvRKKempHu6XBZdbP57Ggm2NeuLJC3PnyJ8t7DCdkC1iRuMMS2ICYX23z
cfS6YyEK4G5RftozciooDkgPr9UJxKsLHeBeVGNNfklfJ3KN56D1WgaoJZkHu9vZ
Vxh2CRiH2b3kVGV1NQ1HgCdy8Ezn9LrutJ93/Op1MhKmeMLLB3to/p6q8WTAk/um
hT7Uuwcb0XJr2Q57a+gPTFYFHb8ldHq9XcjRf0nTS8VY5kDDq90hZX0gR8b7yGEQ
6K0qdLJ1uiLmgst3x/qf2HE1/MM/wJxIxmklnkRZJizJQ7TXEDw3MOmUuKwP0deU
Ir84hAtRNhyGYU484n3U6euWUi1jK7iBBqOi3Y7561F8tZd54iTf7P51dZSCtKwT
Uk7LUltIjFyUkyCcomJmIqRao+4d1uK62aQncG8PQv0rmgYGZc5v/B1F+hfglzVT
5Pk11q3qap26JOzVQ+y2G6dMnXpDtA4k3JsH8wVHjV9d56veMbrqiCRfnuMwpA4M
nhFImYRNb+zamo3S/Ilkf9gwQNF+EVbOYp+kLEZiYP5ElmGhiIUg4Tg3qz4Lbdpd
Vh6pNFqgmM/2UXmgAX4nmd7hvH2q00uJAhwEEAECAAYFAk6n1A8ACgkQnr8S83LZ
+4zv7w/7BZQi6KeMmLsQSciMrORuE/Wqk+I87hjY6akT0EVPoN/K1yn7hXasOMA0
d7tdAH9g5vup5YfxrRKfnm3gD8sBMuUA7tA3vnSjFoyWWtN0tshJUuuSZPquFX7V
13gigZJx/MlJ5GZ1D7p/Kh2ULIlMpIVhnIKaKV+n39vD51ztQVYPj9HtsrtfNbrq
9g4SOVmeiZaw5p5P78568mbvg0uAvSTTlsUMP3/hjq7kZ8VDYAn9KwlsMTekRV76
zjU61A2rNoQMFGzFCVDkDTlSuA0qCoK/gyorvimyEMsJBmppQCs8ttc3BGINP5+F
wcf1VOdrMv0uwqDOd8keyutemUKETMdu9eyz7xecL1t6TH5XrkqZvIxfzMjPRnkr
u4RmDHlTORTK7XuOra/R8UooUee3osJ8IVdDCSRzp6EweU4cIOhL68b5kPHhXNbu
yDa5LSRG1R48xAkg0cEnC65UKtdqzLZr5nuOllDKdsPPgrwMgyy0r9gvastqBacl
yOmCYUpIilR/gOg5rZWfpms4AgnBAcIgotZg37HWU03D+fkbDUgp8HG7O2OtNRUa
QP4Gr8p4PQvLl54XuVX0VxBeJYOE0kEG5aHv92/xZsrPHYFXnTxfi1kAcCucO1D1
ass8RLgtJTEAMXX1PSoRJeMW70MLcIPrCvZGE7xQDQzy94jOHMSJAhwEEAECAAYF
Ak6n3nUACgkQvSWxBAa0cEmCQg/8C5yWs1x0y631e41xXOY9XCjR2peLbXl2AEWl
dU8IQX+qkTfi11TQjC5FBQdfijWaiZPdr6ZAVYHF/IVALGmssppk3QzMb+/oyaYd
QPbt5In7bgm9pAxHY96SZzbpuvpv5poo/doGNOcrJRv+delRDH9P3dp3sHQMEjRo
ZNgjbxGzogZ51vM46VopvPwlCIbaucUciAc6vRhuX6tKONQFXLSgHjaY1nmxv/53
qV7BkUeyozPnCBoZ1gS4jWld4SdngYuwCkhdT17mkEgdhajn6wlA/vhSSYqdciFB
nVIHBNiMS7njxdN7KIZDn4JpW3YGyG9CM9VCoNy8mNJKO4SpbgDOOczQwzdooGCU
iM//Pwqch8MtFtZOqz9/rnEVpPuvXeD9Iew3ALdozPC1ap7tjPABVYfamWwwsWOj
js+khvWtjdd9Xyoz0v0ddEmtr8j2j3Y7vRT8ejoNB8hxtX5Jlx3dg/VWioprGefq
VWZ0Hw6JMKpY+I5buEWORyZdGbom7XrQMlhCC9c+ZLHNHlyR0Y/2Yj6sCcbdCi44
S84EMpIYLNGSd15gxFHDH9wAGYlxZx78vCIfQruYxUMXCmtkyjgUG9XQ2pXMA/sj
4VxYE0RYMjuXVcqC75/4NyHeHrROIqyp12SrEd7jOrma0QxkX55rM3hIqPptO057
N+Bxfc6JAhwEEAECAAYFAk6o4wAACgkQx4+xDQu9Kkud3A//WdnZwHAi7K7LLvos
tUqvLKeNlgYCssQYQzybktgVtMTbBkYo7ve4K3lgjL4wva1ZbdvgxSMVU3ZjqF4J
SSPEzb7CpVnpceZ62mn4Sdo4Hz5EmgW4x4VMj400C8GFE6GbIDsVcU2eoEBP5Q0M
iOhrYPsDCwUppW0CZm7rqDTsmhMHiY2+uuyKmz8L05/X65ei1bE3hHuJqT5oC7Am
MsuxQq1M4mI73sv89HLR+c2doDC02mvLha1XQ+aElkcoTN1jkY16/KyHJARBgkgc
qEVf3Je4zfx/p3i3AEnztkYH7AkoUhq1j3l1SAUiADlebU02s8aNSXgMDQyZ0U2K
b0eAR/47VMYtitvwYh0HLMzZ0SRBSjXEnvQLgeZoxKUQCriZh76p0XY7IIo3Gpxp
6L0AX6O6A4BtIwxyS3FHB/mFU6ug5MpPHtY0RxuATSjEbalmBteQBx3mk7dIZPDE
6uwd9jeA3tZxPbih/Rxke7DlbO5pEJ14b9Bhte/QwsIZfqHAARy33VH/nKCQ/84x
6ESsoNGSikYqjx2NHT0PEYgrhiknsTQaML6FF0JmDzx1ojhQtaqmvd7W8Ni2LmTg
4r/E/0IJRiFaHQxvAFJh88oN4iNpUubyw3unRCgRnUxtpwl5g9cxQE2MpiSWZEzB
+MQbMaxN8stYPmOJk77k4JkoRYSJAhwEEAECAAYFAk6paCYACgkQI9DQutE9ekN7
ow//Z/UBPGPxGPzxJRliOv67AWB1eBYHDu6141PDvDt0tPzCPO4ZO8+KyLw4yVEO
tDsCF7EvmAtIDigQe/OKdw5znRH//H0GxEiGRElP6N7loFd8Fr0iMixj31GwiKVq
oJqdxtlLUfRBeBITehnvyQwlSoPApXCjLshFmwDbhiTwNk+L+0D60CXpd9JzCBRN
xOvajOvu7kGPca72wzZb/4uYnQjjFnN+FVFb0IK5+jfzbICKAgdZR4RUsSfZ+4iT
ky6Emh5MT2kWWcZrR+JEFYRtJtsRP1DqcHo3Xp966wKziYxt08HQkTwA5uQ3qYyz
sgokY+PcKsqlp2YCUMWTRKTevJExoygpIsqy0SkTZI+96kS5NL8RN7Xtbr6EmKn8
aY7pr1xAwSWmmalWkfYgmVGOTqPmubcdfQih2ANkRmf7QA9M92/kagSLWby+8Zl3
PI+pvnEOCXniSPqlUPPH9LPXAYBuiIjhMbaWaODx6/RUVxXu2PHOop2U6sE6gjQQ
2AeMhkbeVR6StvA1qs8pGOUkLpwGAf+PlkJImdnOAys0w3vkQb3yOqNmyAhxjY6t
lcl0uio5CHHk48wNtPwyIfHWtpCZ9QIThx1i0oCB/CySw35NuekCy9TcsEntSbfV
BZGxc84wa2V7N+JyOP6s7etLeThyVIt05hk3VR/q9xEbj4qJAhwEEAECAAYFAk6p
fUsACgkQbDGAVD0pKaRUdQ//aaeh+qdOupKKPUJmjxtXmiWQ9aQUVQJj9x1S5su8
bv4ukAE+GySkl494QrbH6/nWi5Ek6QRbBbpPOn2CVuqJKJT0eSdReiC7bszaa3UO
+1LDhr96x6nw/8Ar8XNtoC36ZjWNyozWsy4f8PkGoW1gHrzvnoKrq5JUVr68j39Y
d/46UwhY59VKfFWL1JG1gYPeSnbFActkw0Xb9dzoBa5ZiiU6aTVH0pHChVn+ftM0
xe+xqSUAsRe5USsTufCLHiq2ifzgKeucGBUgv8FyRdPa5Hkt0khU2fu3SJ9YV0Cb
hBSah0atICIVJu+TgUJoxHmXdS2Os4THTihw9vks6FmHr/dv9GGs6+l/R69FM5tP
KqzaDlhYvSVrCrtQK/TtD2yODpDRjqCnwciF5k0vf89C7WI9MjmXSyLainTQiwPd
Lkzxheiw90lJmh9IV8mxeKEOCl90dmHqK9lXiqYFWj1riKzAybmrgZ62lGd/+g/4
wpMtUuCTdjgtZ21QEeCzfMbhnwg44oc7WjEMrzmFQi1EeFuzFcvhtgSLPS4Bj0NR
6S4K564xOWjxDyLmeL4c/9revV7qOGT4R87tsJSN1MqSkQksoMkSvYf2g/uogYcH
kq/CjDo3YWpASbzoDqyPZQ76UZwAFncmUowNBTHJFvDuPtHkyA1hy3rJR4wdJ15i
PpaJAhwEEAECAAYFAk6qnYAACgkQrVvgkMavInXtaw/8DwCDs37h+hadzkGbtAqD
0nuEdEGZnAkrSlOnU4blqhPAsg/xPz7ne6LJjqr+HUlQPIOZoJngQvJAlnkPoP3w
ugunsd3jhFA+Nb42Xy0EincyHbPYnuR1SrQHgwfzjcjPQYHz7iLJOtlJpZAn+ehd
MbSfAoaTeaBlRri1jK7siB2KCDurElo0Y9IpNLq3b14p8GqTpKgCY4uNt5egTXZl
hQOHLA+ecKHCcOQ3qMP1L6sjqCJM9i6ARg1LVJFWNWqmYm8eXuQQHbroYXwdm8DS
ZFiUfqVa8rV1fOz6sZdyvPD6qAFK4xO8XN8VNLJX4qIi+i+t+Ch2S0uK5fh1Q1sn
uaZRuQp3BMUYf7QE/lbHL/rUqKzlGcE1W70Q4gESHnpIEbZIRy+EqPMbBGZO6hyk
nFtKePfzDQ4gnyfkiwkFZTmtB2qKTizNoMj+Ia4ZLpRiHoYXlk3o9gFCaoZcQOJx
N23cXal+WxVxkr64BWuzDVnTvDgTU5apnaZAOdgoj7i6McPKzvQ+ys7ELqzT7fMG
fiJEzW6CENAfel7W7K5jeZkdKzxcMMKIfwUwwP2H55X0kkEIMKkhcqc6dCfh7Rrc
DGBKh08P2Jz59q0IBYbaSGUwDzwsGF0VzmqQ29LKP9R5Sab8WW33wz3e7rFKk62g
TZEE4rK5Ex8Ycp87JzEZO4aJAhwEEAECAAYFAk6tr88ACgkQjvIQN5TKzGVHyg/7
BwYVqXbrHiEyIVObj9dvTN8kE7cbMXUsZO34XIRHDYuIVU5/D4H7H5cHwGHZcGX+
4aB9ZbM1W9YPNM3QIAHMZ1GDPju7PWTUyurpi0OgOzEgFeI7jdXmieZ3MFQ5mH28
dyorYl38sG60Y/HAn3O7QYGwzEH+lnk40bcSyL8R6zRaSvHaTVxYqw6mQnw3iJse
wWJQfI/h0Nlt64AlxJ3H5Un2SFxLoEE4/ZTamXKVm6GS4jGZTdQKzS9fwjGw3mnB
Hvu6Jwyb3F3+zYHq5JRhRq64XXUQ3vry4gDhDbMVm12qOs5E36+Zt1bUhLJ2H8f4
WyOw8bkU38A30B1e1yrvruAypQ7JiE029+edWallChn52/QSfPO8vDlZrJsjXDJ+
1kDjscOB/oMn1nO9f9lKNypHoWBVERNtrHCfYN6HHqnnkmtWd7qMPaxxx5yPWAwF
kSj7XsaueNGiLRAWEtlhjp3ZakZ/RK1LMNGsnN6lBKzbmgIGBzazNbrQ3CJwQAFJ
wdPllcx4jilYxXqgRX0NB18KkX+aMejzXMRnF+KjrlI4BBDEr7S3i0zKgRXjGLA+
vuJQkxrbv+rYkSp9us9PzNguGoHkqs6FC4hdnD06aw04IDQV8/mb9uQvC6gdr7iw
7VwxhmGdUZpU71TpJzuya7CvKFuJggL5fW4vqrdr+ZqJAhwEEAECAAYFAk6xpM0A
CgkQly1b9NxhOAZCmw//Wbeu0U+T/iRXKl1S6JIKeCt/4q5AiV5wItJcKVgPIalP
qslFWYuMorKL7jf3x/8CYBq4orUX3VJcVxLBDg2C4tKlJxC67OujhZ3XPYEab1bK
sXwJ9zBanOkuJLxdlsFtgV88/srmzb0R5FkUgyhvztyrIQaZCy/4zK08vgAQgG1J
vM571R3H2CWKSdqTZMwH0E18rgbRyW98+SAHnvEFCKcGMXSoobJCpyHE/6uLg1Hg
UzAa9QUHgIaccOLENMs5xLZ+52X+OLLJBJXbokgaWvUH+yUqXAgi8qpyD495PT/C
WgA67Rx3zk0HZuvNuel5ko+dH7SyBKdxYQa4jDgPSoE0HYn99XQzoPE2l+NLihs+
9B57aIgE5TwX9ewdW2tdEURlyBlbYlsnrvLsayRXkPy3j73MhReq9wMQVNjgdUG4
znhyW5HgtkzBVi2Gs7whsmnqB9QVWYjBVILQiPb5vWpOxxezDxa/0gZH3haavbZM
I5H3ZqmKBlGHcwdZ8UcEaYyMgPgJ3PWeDSgihqt1fOvl4BtW3WQfhjl71SA9WzAM
QUwjVVIvzd1EBUit2PF/92iTsrWBzXSaGg496IwsMSZ3WHX1+j2Jrn5nCrzU35Jo
oTh91j3GKOqTcqXaPELzRM+GF1PmVCyqCIsoDeLEPodNtJa4zj4HgkDgoxvrS5+J
AhwEEAECAAYFAk6xyuYACgkQWTcYmtP7xmXYWA//VEKK0cCAptOAi9nCIwDrSqrY
1LeFeQq9Ww6ocS4beoExCs4zbCcY5WCdEJUMB8iNzgUYQjwGKhxHEnqHNPVtjy39
0dVmbiJIUgJjzxwJMfB2jzky6Jmq6hRn3Dx8L6RyQT9OSMkOQIv4zEryLMdIUIpW
/mh3zAC/MpONXmCnii5AcOVf8HfGURS0TJOr8iCujwT8feQltZOY3SoTD0crvMpH
8xBTcEfqUe1Gz0S4v2n2aJxMWAh50/NwLMd3lHW/vR0kgjOJa7Nv6747+pKKNWcE
ZRoCjs0G8dcm0ChkDwbbqfSUbsob8FwIOITb+ICF7diViIDJEONcdSnukPg148ye
mdG7FqXdeKK0SX37mjEV3ix4yzuDMv0XmI/1NX9was9OKzapKpXNeS7DVJOtoWUp
OqkGjRLNH48tvWh+Ze/XlAXIDaHyiDY7MFvQNy8S2ggwPk2ElxV3BPNlfcNSM1M1
1l/6IYVn4pRDIbSx0RAQPK4A/ozEar+1ndliHJ95LvUFpf1RTOkeAafiM9RUenEu
9XiAtco3HW1Bbn5Ncyi+MmyYon8k1jrNGY5h+/Zwk45o7YjvJOa6aF+GUm1pLmIn
U9PVkyguN6AEJnRLmi7Hnfde/9H/b6wAWo3kc7vAP/sCuZbIYfGNffW/fkMVNHWT
F1ADAhG2kSlL/j40iC2JAhwEEAECAAYFAk62q5MACgkQe5boFiqM9dEDzxAAu/MJ
J5V8XUSehLWnkUkyMuEWmuk52wR/ltjOorF0BLEYyeP+/6W1E3vqoEoWDrl1jmIs
QNb8nQGH2uBISAxaQ4mibuzehwOs0m/f3f5cnzeFATgUknQTtDCep+R+fs3bBlCa
jgce48HvYFccBkPwjN2simMy6F5fcToE8UsqT+IVCv9cxY1xIIuukbvHPalC0+PR
DIhE27+OM3ruM20h9WI/X+57r1fyqv8EMZ7J78bCmo08DgXTNIhFSBRlPqy70ldA
SJ2Xy+VD7FaYCsUBOsbk8SGMogxGHk6gG5DygqQt3KZVlXHSD2yXVhq2uW/q7lc5
OUKBPD7XrlQ6oYp9jPwqLC5itimaMzX2PitpOi5P8ZroD+UyzxN19KCISoWwgNQK
Un7TC/WdMk7wiKsVaTgprXo2dLqi2p3qbQW5mjgsMjk2Goj6MrQxzmHRSLr6M1To
u1DwuGAU+yFu3uWZRdfgM4Ms6Xz+szbW+URnmjqqB1mbRGUGGS1niHMkR67sedte
vx6r4UkI711wcta4DssXMHj6XPis6/wSquwG+n4bwRoV68QpKbJLHhNeWFPMUXZS
lrboEl/ME0lr6WWq7GcpB+dnaM5KUAJrDE7ZLn0YJvn0ShdBcZG+GMSK0P4aOL1O
9bHwaiuqcrSRT6IQQlcHaL9s5wAqZFBFOOdWDgeJAhwEEAECAAYFAk68DDIACgkQ
ONu9yGCSaT7zpA//TLjQcnYd4En7DwPRMxotaWul49etzEYwkH3VUuV45Tn860GQ
BKsafJlZFuOCoQKLl4vaUZ2FNVy10v8Sm1xorQILgPhQfD3v3yjcCZoRIpUTXnmH
/MZqJfxVeHvVGnNiVch+dUahTd5PaNOpVbdlQgREZdxNQqmiqSyls3R2xLgQAdA4
0HGYu0iEe9hNX49+BS6cmF1cE7uvxMypEJFHZ0sLaj8li2NXI7yJNPXOx6GS2Nuk
vLdyPvs8zHIkYfTnW8O/ZM0g86+bFgKRMcmVyvDBdLjyAxWPhM2MRBJc+2wpA076
PhHTR/LAWBeuXLvfq04qKBgcyMLvLAqprL0rbMQVU7Ju6e1QjKGbZaCvYZ0NNkut
1/M1v00e+sFk+g7t+liRvBSBbVl6HsB7NbBNILg82QZLpOn16+wl2PXJ2bkIaOYD
dCtrvaTCbCIX1H6sA6a4N0UpTTmkxoFEjYd7LgkjJttDUDa5VLF0qOrGlBNB6dvi
JFVO3FgJlv5srnIQ+KH26tIzpTkF80la+uH/7qdJL6fmjOhWvnRsB2FNvJ0j/QKV
ddqxDtJcMg1FrOCmMecBZrvG2PyPght7Uo4nYW5/w9sd6ctgt5LyZXJK8zhF0ooK
QOKP4cOWoM/eDWHZ+o1P2cmINijgsP4Bqj7z1NMswv1rwJTLvAIJTeHTuLGJAhwE
EAECAAYFAk7drWEACgkQ0292m8EYBPDX6Q//dyB4Q35VPUrQgMdK8TBX91ztq80v
GJ1zDGf6R5Kfpq99pXpxzDfxmcmlP3ejNPHgFQmct76SDMcVdYW2Mlu8PftLA1Xk
NAmf+bZgapS2JOSuGwDJQ9lkSgebge6gC04gUZBc7hPb79aL+3zkB8WBNIzLM6yl
F7qjt8d9JilDwV9LAyTQBuOuBl9yPxU1LSln+UejcEbKTsxccyj8akDSvGSsneHb
6bJDpUHAe85KHkwZ5idvTpbkJNjC2qQHBkbE5clcB6FCJwOGjHo84sVtalZXNh7o
NzPNBmOxJ0wTl5twStvoJKqJZ3VlDds3kK5Bc6vFo3Ef3HMc8iqVdT3Yccu92puA
tg5cx8dLYySOYZdfT3MlNIgrfv+wQ00UTarltDGUXSSxAkQ4t/Ki30y9uCLlIMlu
2KhWi+mblcF2sabRZT00JaP4xxrwp1onhGXJpo596S42F9wzZB2YaHGIq73iDspl
OZ82eHdZgKi0q7P1QxcTL/HLkgjAy4oQmQMauwSS13hytkAWmYvP0AfsxqSO68d2
CwPv2PhXaRCdAozjnEyPvlt6nxyX5L0RgwdL7pMqahE4HB2Y+Gsr5sf+Jhw196Ee
LHdZwoZmorUXqVImqU3ehsM2bgOEW+fgAoXSVE+s5kY58XxLlT4nI/jsCDaJduBH
Dcqqt4v1wAHqGJGJAhwEEAECAAYFAk8/AkMACgkQQRCzN7AZXXP1lw//eCbkfNMX
Aj3mW89MZBdQJsi7wMnbm0PmFspmy3b2otsIQrqKp8PsJeY1RzldfXBqnhH+G1G9
MxYpBB6MkVpMExQy1xW85XkxYdYqyhS+97FTvjkhTZo8fdE9UgACibf1lmX064ce
NBGP7V75SdnKz4z2BrQP+v2EWKywenEm8GGgS2TRaQ8CGTbrpKy/i3GWgDHKbgc5
RAqezlsRMa2k/EVxdmkdxbo7j9E/NjD3uXNmTK6srHrCqx0WPWYe05aHh7TEyP3s
S2ZdarqBdcyjCBSQCxdnA9NREtBgQiQkPNG2HlA6mzHT/NUf8ogD9YppdzTsOcm3
5EfLCJ+c/k15+rAADQLuiLcHzuGctAnsh6IozryLs3J9Bt+YQh7klG6f2f6k8CRQ
frrzINiZ0B9uNB42Qm4St+4aLRz8dIJ8iiGQ/OLHuy/gL9eDGZwOb8lFhIvSh1tV
19Qyo1fdfmxJeYTiE1sq7jxXIXQI7CEBvDRlyflOP9xwJ9sQLSPhe78jAbVdeWAE
CNLRlr4tmqxysOw0WqPL6YukuFC/CnHIMT2+cX8DHgzj/dS0Qb24nhmuUY42Gpgr
wRdC+2B5ye5eJ7clEWtWkntMa8fBmHFXxVgSMSoCIElkUop3u7q04GLGECOYqWdc
7dMZFmOTOJq0k3yIAj7TwIeOTyYhvHmoLGWJAhwEEAECAAYFAlA+T1sACgkQyx8m
b86fmYG4hQ/9H2WuoP5oFjJ43CEtmFZRlPEOjhXLPinEnSWu7+X2bfZH03Vi/Wcy
umhUPsRRpodLqN1xfqWjXCL+LOT72rXHbQGQ7xqIOx2w2QtIgJ017w9a60Etg1SJ
M9UJQuZJyGzFnXOIoAbN1QsZNkl9XMQ/EjtNa3HUjnIfz9T/UwxfsGlQPtgKGt/V
KjIIOmVhRqMJvUVwWnMfkfJLL/P/hToMc95+p+jJmCumPTyq6vRIbSQjSHmaeymB
az3zoCibJ8xC1bMBQ1tKSS25/xQvtUQbFkVH+3e1ZrS5b9A230dobtpcQ77hUGgq
xkQDt58TpvtbI4O954jQY4+qTg2I+U2wCQ5F0jtzSaBzcLuDg4vLjqTPGUObE95+
Rg4sCKtZJ+KaHOpPglYnj+dQoBJc3jAxqGWOe+KrlYqXakZXLwz5/o3IfBzpSJc5
h6vCl5rERzUN4EZUgI2cwyVvLX/m56sHnxtJXynlQXP5puBaEtzP0mByf6m56nqi
jjeD1ZrXPyPswAssrX8teC98+s3Y1DQZ4WKTuN3uHEIbB0+9mLUWE/QBKKSmUP8O
1xiZf89I7oqe9MtpzNInpAcLnMhE9xE5LvECmh4ZUjpxK1GaEbJzW3y0W7JqdHK4
WrZB05b2Sn3n0hwkbI3P4UurQ2cbRLseDWP8TU21x4nvPYC1dBZNSLCJAhwEEAEC
AAYFAlBHzPIACgkQoW+auAyy05U81Q/9EQqw2qqc82TXXpphvz5moHriU23BXPT3
7/zr747JuY7gmlfm/4J6jnsOd9tOTCD3WjoGZGODjwanCpxYOF3BCq8V44yZfx4N
b1HlbLHAsuYZk61r5iFwb1dmgbwxms2UwUr5EG3pEWxqXcWiQh5AIsWGGxdNIGbz
DxvQfhBtbPb7upkoyGWzNA3LTWe3Vnzgf2GMznQ3T2BgrNWKKX9yeY2xaY6Pq+Xf
iiOW4ZxUx4/r4EhAuDj4r9/scnVqJZaJvCs7yFsQumj13yf5efj+Z00DGNMHHp/G
mK7LM0pPfkz9R5e6ZLdp6H0MhR2Q76qSTTwrXoaUwhVfddkDdFsQbjXIx6UWu/VA
OTS5MdCumQEkyd3s3yGZb99rdx3EL/SwgvLuPztf1jdrakmbpJcQp23a+5Af4sln
ZrJX2ACTCaVR1IVZaOvjFZ5tPCdPeOQX+St+FmLAAh/16yLTL2JELjgHEmvlSdgb
5LAHuQw7dFcg/LRvENiiyrV7gyBu5oKpgGjkAwFTlRDgyQnSU76dCeXbc3N0tqq9
iOJhxCT0jCWIwJzatdzjfpKLsDBWXCK+oHNMunghxHSwU68EXkiPVfxZ6H3xNc9E
vcPN1al1ZpLQVbrNv0czHGOiCySP7yCRtq2yF9lK3Bi0QsGvpLeOQsBgpWUppm2g
xtQEimH3RZiJAhwEEAECAAYFAlBIJfcACgkQxTxdN42Gdp8QBA/9FcHtE1ydIB6I
+CaMI5CyCzaxb4i5FqDLD5bAnigYPqgq6yt4UX1nezYJVgv8jZ2/onqTkTO1tPnW
HURQF7RciEurvEAwQtOrhWrxRFKdIHSChkalzGxunujTMVeumvJd81KgGeiwLMYv
mB7CKAnCUcbYZs61FOvdd1cxwZYjBlWBcbITPK8H9JxxNQ6ISLENDUbL5iSwGwdT
sVqSsVKM7D3BeCFsjbcOpeY+v5V+3u+x2x7my6t/OnB2sDg2iFpjkhWmVvbHVNc8
Ja2iITZAdLomDQjQso3j4MSgT5KxKKpCm1LlQlMRdExQ1uU1Q+LbkAR/WPwQmG/f
ReiBfeMExtP3dnYTzHoWGFoHRqVXZGWMrRswbxq+AoFPfuJBxl/ycMfwg9xeeZXo
+USwRFehQfsdljUYbstZqdqvXfWORUsn2CYYP1NLeYuZ21tLCAsm9wKudk7h3q5g
dfj2Zrh6OLftI7r5Z/XYUw9xhGz2Q0QZDNQ/8xPVImQCDDL6hRrHwi/u/nr4nCXm
o14TflPyc58J7wSI7IU6dWyO5Qkb0LdDDIEyL2O7b6Z2B1IRqcVOKIiPAmi/7+jd
BmOMZAaQiaesUGc+tnMli4nztuj+p/kqHOlXOR+akJkaZhotMkFd6JCMDncBbuEo
2eVMg6kHcu+6uP3mFeygdBvkwwvl+Y2JAhwEEAECAAYFAlEo/ysACgkQG9Q+yVyr
pXNb9w/+M//CGxb3y0hGlt8SAWGer8i+BOvJpEQmxQ7idSPd/kyyNVPlMKJpm8SL
lQekhI6VUVVOuFL1wbaSQjZG12vm7icnTE+jkEfypc7uJiKrcQs3cOtINdI8FOVJ
A3j7I/oeEsdIGICjZqVSPP5D2s+7cC5+bTd3INP98auDLMeselcE2wa8aQuebpvk
tSpbXbC1KEMTlLOEkrFZooq1O6FvyceI+gfgHDTaVESA0ZLObJoz9CyBzi1LdcBU
4oZGbcz8JiDahap9N4hZLVAKQMGpWZFHO6pSZGxsUq8W/mP3PnIutGgn5GfXjMy5
WQz/DVLMPT6AM4dv1DXrXHCz/vBm1ly/2qAIe8mN/N1RnG7JAEkf9fyrBAULPPiJ
Jj7KkSNF7aBijz+QpF0vN18gJNwbAFDaDDhIS7XBINRW2xMTxNqIMCS7kcXn4+Y4
C0KStpX3wuZhSA6Te+pHJnlqqfKcGOw7Zen9cf7CTAm6tW9DZvM4rn5YVpgs+VgC
wDEhDIVYODAp7BzYfGuWQpN5Hl7RA9IpABTnTFU2nAeplviwebJc9cYeufEqOzuQ
0xzK7SyLk5Dp6pW0If2RsWDCVzdXrBym0GP9XkgqOUJrQk//AshWh6rXUqHKWuan
ic49idT1p7vTU4DR26EOxcPuyyCXASR+WkEaKb98bFlqlzy+kVmJAhwEEAECAAYF
AlZp9iwACgkQUqIFsfHZFdWA8A//UUJUMg+slnnXjtIKVLNIDJOUF1bVMXusM/Wl
gMou9usTeBnmEyLamuJT+Iv6r7j1LtAbwPOAmysPwdV15gexiXGyyyDV6Fm4iVTJ
B34DWdBCohKGH4nBd1O+FgPm22GhDVdVcV0WNnfOnzRG4vfQIirYilb1Oe1iLLRO
VXOM70CMIHW2gLmxc7LH3r5LsnJG2CU5j8mr4uxEMMMcG90E+Pm+8vLVUws4EJkO
QCBs6p0b3T1TBfXZqdOIW0Yu5EjayjhhbhbjC1i+8tHTvrrdasZaaiiSl90g3nHo
0/rnU/AjVbgzKupmjS4j0BcyftlXxzLUkLtYEg/aPgrGI8K76spXWxZn+nIJHVN3
P7rwxtIS2LSIMJI0EbhrFM3BTjQINHDGJePupt6txmCrXZ0jU4F9+WtF4OQ/QAi6
DCF5fOynxahogt9TYKtfkiDjXQrbZKt2siIEMfb0mHZy1gYf2Pc+/peJf21LkYAN
BWv/QrBCCVNfs3AfNNOpTD7oA0UWd/s8us8SBQjiVc4YBJH9xqaZBKHMhHMSye0H
udajSsgA11VbU/b0kv7nsnJ6wDqicue/Fb+PzG+1MKhOgHkPKuPzSBlB+/iHyWtu
HFwnFgSnxbeeg5dUTw2/p/hdZSAAVau3BdwbiH7K3tx6kKLlTTXVZXxjEWwbYsyv
4NhT9ceJAhwEEAEKAAYFAk6mvxQACgkQLfv0Uj5UL9kwRw/9Hu4YFBbu+rnf1Rmc
N9IpuD4sY4g16jQ01CWaXAwIKtpQt91K5/hhIVrl4j23ck3zOXd+lv3Fx2kmf0dI
ff6XgUG4fEeu5Jbeo2V+2P/J14H8X08W48GtiHV5RqZ5R8iWHUtjmT2nz/SCbwDp
j+hnfLj8Evmg74nTRt3EsqJP0UIcuYwsS86BGl6RrEXpbBDJCCYgChnEAaWtCMLu
IBe5gO8Fze7mP9WHFmFiVlD1D6MH+h4wOrzqbUYX+pMFtqDcObIsmXLjbWQCWfXX
hz/PJFcuX0NMooi3YTN0iX2aFHzMP26ZIeBwyKSbl3T+kvBJXqa5epYcKFDBWu9c
+eWAh+Tm6Uhpj8SVHXDaA9k5HL2xKCh8mf4VhFCaIl4GknAL1wdjNg9ltVyuBruX
JP2muh82vPx7bLEpMpFBfDDTaNhahppT+xmZVnERe+bkL7k0qQ5FFIuvqczh4/jo
V3R97UmSXmErwQ8XFo2D3yWIC0nn+RcJWCEBLUi7KlpSVqhctQgy6/H87x1fJjU3
Po95bM2F0mR8ukmzxm8vgdgmagjMKrPwG3b1Mxtu2jljz29w6c0tHK45U7iLk50n
9XElxT/qyxjWl/H1N0Ei8yLr/urcszt0+s9GXZ1ejl5goFcO1SOFikeeCEez7Oxf
ZxwSBGOJrK/WpKrTycuCKYsoZYWJAhwEEAEKAAYFAlBbaQgACgkQ2J2BEyV45z0V
BRAAi0sIvUrDeANISwwyrojJFdoc6h8wXHtkFu1GCDT5gK0MXFYAVPbnqD2KoqFl
tembfEdo+DwPXQpeVmi1TKpK7ahASuGeyo6HjfO7XDfZW7xODdZ4W7S9Q7z0aCWH
K5bHDlNdHA2ByiegGloKUvpuQ0K8/hVOVL0S8e8BgId2euCW1l4vXuEpo6kQbRVR
yG9fEZE3NCGrOz2WmvdGhEY6zoWSlplh19iFU0bqhNQNw+ijC2iV5jdcW5Vaw3im
KN6vEvogjzwTqBs8GPMInKfr1+FNoWseiJYoOZcAMJOxPCqj7O6gg7RBMpvnJHBx
M/Qqss/8/hYdItxVo6eFAI7jg3/oXao8Cc47hDt5iDjGlpc6xJ1EVB85ANVwvVKt
hktlLutmejuhgKLh5p9Jr5dUSkvQOp4WNNVmcCSLNVd8esjDUNo0iYGuqAmbGhsz
BN9KJ+ZozcBsRy+/YEgZByD/0wlAabNn2+MWgU3FUbeWLrBdbR2x2V1a2hQ6iIgv
rOze8leQENJnUUrdtln9df56XFvfHjbYoOYJ4aaJRdq9B2/IXskHx695zb2sSkDV
N3QPOfOFpjV3FlkTCTJIP0+6QNzy/am6zBN+PvbxqeSqtGTB9t33rew8I3+/mjrv
Nb9m+wsoaWrBjYMK6HYzSbuSNwiiu0FRKgSxZU65Ea9hL96JAhwEEwECAAYFAk6u
ty0ACgkQa9axLQDIXvEHcw//X3H6AB9FuXzlKbMgLEF7AlNnDWFklo0/1bZ1fnC/
L4PwjGDNBZuqiFa1sEwesKxAiknYbubaGapIiw4jCUKuCbUkSk25bxC3I0NDYvTH
NMhHQY6w1S3jTdC+8svOVWh6Q+kYlO5Jiqe8c9OOIdTgCPgR1GaD8+ma3UYtG/Nd
OZKDncLiQf19XRBWeCqr1uEraQp8K32xjoReqV5UK1VjBd6KWeNidfg378YNSlKq
eIM5SzNE+nxk+Db8y6bQttmtzwUFYuM9AAbMMn7ywEv+XgAj4M4F7oPW7ubeTdy0
4A98xD/na7X6tKxi7GplNjA6YKOJLcGUuQPjxyUB+hHZY1xJu1hTl+jNeRbHktHq
L/x4cysGN9hYBV7CYB9hGhq8uwHsqyuQOFLBOMEtIUtDwUWYg58sZLDZkm3eoBbo
WztmqnsWDtdd3+KhhVUtBk6SjqXfMpDAXWDPeBc76gj5fDl6xpFtcubDCAucceZk
mqDI0DZyCd14+Fk3TIGAW6lB2dA0+1TP/XuroLGo00ZlJnH8KvaXB6ru2sj4418u
L1k6Bf47n2rmN9jrDJHE5/K2RYt81g2Uz8zKA+5iNgFYLJuoIUOU1WWaQeXxXxdV
P1baMm20FGmz1tzVa0//VsyBT61cHYuJPwvQDYFYJmAr3g9ZpFUiV64O14h1TSnZ
BC6JAjsEEwECACUCGwMGCwkIBwMCBhUIAgkKCwQWAgMBAh4BAheABQJZclUIAhkB
AAoJEOa6n1xeVN+CJXgQAJt3OvxlinLSi1qARjckTdEPTt4hEymJs0/ho8SVaGNJ
16iZpmVoXnmwEFym7cARlol9ZC0UrBIbVtUDztE3PaKIYitWDb//MN2Ns8qb4VEf
4/06fKQEZiBp8HQTQLaV8TAFyHJ8m02CpNHDh+dklqBjkvjm+ztokPcglTisGD+1
oRMFScRrw0Mgcyioa3uOlBOie1BAglLrpdICu9Dy9SStg0Z1aHxZ2op3nBg6lUX9
gH9XFVB4Q1MzbuFzctTWYSsT3ZWqT56ozztawfZIKi4DKUFiJY2a/vitYF3hnMal
VEJp2HR029nqAlMBECTrKCzsRBYCvylbBq+ou4Tyxz/hM9OxWVEWNpGkYBW8gEPs
kx6+gUXY8+ZTwsxC/vI3HqH7nc2TJdjJ0/edhFMewgZnHBdGIx3JojpLFTBz6ago
VsrpvxLCu37Hsq0pK+iMLrCIF7iV7Wo1kU8bBekXQVQfwoIc17dFL86Yv0swzBQo
3bjBwfPHpXH+XeFU8obAK3EGXZ1FqhbOShR9esLydRiSdJIcXqABYRi2qE85c9KF
1uVdUx1+28Yrd9mqtBxzu2Kf7SuWCHZ8DrIWIC4Lsk6rLuEs40Nu+XrM/K9phNTy
O5SH0CSf2H67zSDmWJPcdm1bbth84r0+MC4hGER4bkbrbXxdzSf3mYqk4WJuEKLp
tCNEYXZpZCBCcm93biA8ZGF2aWRiQGNvZGVhdXJvcmEub3JnPokBHAQQAQIABgUC
UEYZ9AAKCRDIb2KeI4LF4sblCACkEDpIgZS6VN6Q4R+FjaXB+hL7GxutCxBB4KZ6
PZBcDhWcRAlE1nJenNQP/paYyOJQPvt1cl7ohrpCWyNu5dX2OH9D89CBPshjrxeJ
SnFhsqL+E2gE7N2IApuK2GVhE1syDdjHxZdKxxYjwmZjmefGwyQDms8ee4QPWJ1C
frV5udKIW4mycfFdlIviAsc2FKIP/8WxloQqMtrcQfL1rOS4ZcCEtyDpPKybuerk
vjobufjwcyz4q0MXmuhrZPfgH+BpE9mGzqAzCRrWlT5S0i1IOfrR7Bv9osZw8ncA
WT50cHE/jLEyHZ90D15Nm9cNLVZY2adbYt79dftoNbs/XGPOiQIcBBABAgAGBQJO
pr5ZAAoJEDnLVE1lJ89gdO8QAJtCe8CmXEbBatmUh/a2rargliP7tvjGHaREOtdT
YW5ypX/KpK4+8BDQaPOrZeEQOVRGWcGOqzn9y0h+lmfyC+yoySqJWotrdEPAM6ZD
qnawtY8wvtO1EL4q6e9VusDshnlZv1vpT/tzf0Iy0y4ueO2Tu78NtqQ9gFOKHKPe
nNPPQwNQKqzAt8lPNJHcLQ1ogR4K3qGwHSml2i8TyTJGREDk6XFJeIWdbSUQKKRr
Yry/05T+NsF90pmOCHjDqXMn+7UJgARkxrllCLQEBuNV5FLXSIjKJzPhfz7kxYBV
g1tZ+A3/3HqgUlE6mQYFI5+ZF/hWY3OZv/fQNRBXSzabyRoTVCxnPHTHIwjwuF9G
NVG9Ifkw6nyaOVu9p25+xx1MWhDGbwWkrPlDpMt/PpBxMSd8XLl9YFoc6rsjVxw4
UCzON/qTBDknbToI1D7XnFGvSwUQR+QlgW+/McTx3kzdxGIvg6c55ZxjxwN07KKm
OpKznhrTEtGDwQOsQ2o07a3GXp+F8fwQrDtx+9rffViwooOG4tp+8JzxAsP0NfPb
dnZMgJPVaxsZeU9ldJy++LlZsNYZhG1rMmwDUV0rJ9KM57Xkm5f90R0WMH67MGhS
tA7r5ECEqcEGnFLhoB5rTbGKceQInL+4dvI3lfU5fPH86HFj5E73I1mdvu3dlXji
Vb6NiQIcBBABAgAGBQJOpsEPAAoJEOrjwV5ZMRf277gQAK0DBN99lig5HIkZjAQz
HSGRfVNuN6072aM7Bix8GKjAUf/qDbG2QHw8w18gSRuaYZ2Vcno6n3lSg0YpGgvZ
Jk4Tw1hQo5YZTdUuPFFdVvkoh/WgVp/fkWmFv5CRRLa0YoKEORiL+dKF38YPcoj9
KznxYCByr+AuqP+OiT1mzPv4pNX7TJYjxeIFMIQ0w8UgU3qB1/2lEFs1ZWyW/IEn
1IgIBl963h1G3YSC1dxvGzhoooycE2KrrOiLTLY3f498pJ9z7R9XF9O0M8qXAk/s
5pVEkKyOfLrhYx+IW/L7XfiR8MMFfUkCUaHwx6yq9F1+lKpY9vHE61pjoNQ2SDWg
yt2DcNHvwBFeXytXko8fIqdQhhgE1Uf+8MivLyLn4QxebyWfizwSacaLN7B32Ncj
xu7TJeLf6gM+c3iB1gv325IlRI2q00rQ3y/n7SfwV/6u9X1aXJ1smkh9zO4CAuq1
jyi3FI/zjqMHGOO71UXWq74c47/NURLeuc2Lb2e0QXu/h5mfhl8BK3zT8HF80S3u
ck8cWkSQ1jhwuHdObCAKuzB3U1h8fgs22JkUBfX7MlbBj3thtGZq3q1UNnyVfD3D
TGWM+oaOs+z3OOx2sjvT+CuORZ4q5krWIUO45PutRlj033vs5d2075wkgpVVM56U
tpHSCzLH5h6ikPsaruU9GbZ1iQIcBBABAgAGBQJOpxgVAAoJEJjl3MgWR7cq4s0Q
AIXLDmt83BFKasIO/B8vV/KtDLNxCS1sac/VtXmnEqcgRnzCxPKy2wT0GYnoSa09
EXgkk6Ztjfb5C37L3FQNMavDxhZir1c24P5dCSW5nmkkCu/YD0r24jvbYO3nVPFG
jiczeOoBdAurqsUIxJ1/cJujE8uOG6zxiTGl6DxPprHM2U8ThUIEZ+iRw3CCWESd
pYMf0/Z5fOJ7BMvvgM1R+Ib0Q671lxEMZf1j3k2Lq98X55sEspMhHwDRqxZTPAjK
vJV5r87tA8FQnUeskua10YT0VO3VP7tWNgGreBISDNlK+kExnK1KiDoulT+nPVYS
bJdzgqz//nN5mvAAfsZ739lbTYaPbFWa3UVBsy2uk2kANz7rAJiH6zwcc4DxWQ9e
J0Tp9LGYwaIXZbvOHOeVC9IGjKNn8qId1uwBabyMC6qUG4usxEBDwNrXschSGlsg
snodWNfuO/wx5WC/ESpAvK2lbpjki8zulVm7xEOAne96Hn2v2dzp5CbQd62ApVpt
/VPuXfsvbBYsrcjjjewxPgfhXaD9OHNz6r+Plrf/IOimV9NBdg4bUK5MOJ4a0bnS
T5ab1mLTAdg6Hz27H6uFNYxxncTY2M9mD/mU4StoLqqR9LwUAbcGLnC6weubhTJp
n7JM6zVGPN5gnm93qfQHRV2nleFHOvf6n2gNm/djlgI0iQIcBBABAgAGBQJOpxpX
AAoJEEFjO5/oN/WB+kgP/30ZCSuFsTKow+scLgmX8HadL2DALPIOASv258TV9xVB
p02Hf0o5ijKmN5emJi0kkTQiQmGGJgoEfuPLVamCgeHvsNAMW4JKkBpoPgzg9xXg
vmw4VSOgCHdsA8e5F+PY8FT/OEcLzZ0R6YY/jvZ/o5BHTD0kYGAJfoE87l+xYpoI
gDxtXvhZJjHeTKXs4vVqA4JytDyFPPnZ86yKWqh0+7eTed4SMvmfCY6Uaxv9nygo
hMdfPfbi72jBKtuWU4c8LOTVkh2ZkO7wYR4I2nDwfsy6Xfd/HSp4PPi4hU8RU3Qw
GR4uKt0wmPLcNXejj3Kk7vDb9Thhq/kcWt+deJjKwlPxK9ZZ+vNxVfSUypncDZm/
0PMaUNB0aHEdXRE5YzO1GW1t4CA9hiYDQKRL8HRhtQANZF5vLIot1xH5z/qQzTIs
tGVoHYyIwikZtsePDtv0KlpwUFOTK1cQBjNEmFjx8mniprQCwv4Y12zqFVdgfpK3
xzdtapPQJ8n9ALFAYfxkzV9WJ9GHp9FwrkZonGRsL4ojgKhpiiz/iOcTDOkBJfTM
pwCAQcdIYDtuOBbtuq00ukEF84K09MdCOQQEZbStqJ6+R9mGBrTNyXY/ImTcfMYv
Fpy/fgCjQ6uncZJINGSpkCLvgcOcIbCzTmxHqvZCRDNwgJaAiDHyn2qhgQNY61ZM
iQIcBBABAgAGBQJOpx1gAAoJEPu3V2unywtrGEYP/00tw/VqO5A+CYtJ1BjjAOSu
NMMGdDf1hEy6C71eX2MXh1V/emBGR44gx3eG4a+I3MP724fATeVRtzi1utBr9y0H
TYZupEOluoA917Vs8Fn2Mze452HL6nF7b+DVtJTntYQ0Ofk7asTyRiZiyz9TZVNM
2meZhFVGxCdEsb9gKagV3tPaduwTlVxYGuD8VGKLws+u37aijH3ZR5l1yZK746+X
JrM/Xftsv+zFco2FjSOkwYiuvF3TxarGu8N6SFn4mEjg5qWA0KigzG/0MsG1ElnU
ImW5/vTzPecUa5qPE7cjPc8kj8ubGAtpaN5kStgjGnT13u+Sm9dydzwrWBOeIWpQ
kmSmwGazh1l2MPdh9/psYAwysSYsOIiGgsSid5su+Kf+KsZXX7bbE6p7dVMM7ESZ
lq3xbrPjeTjkJwrAkDxXxIWIsReM5d/aBAd5QGCchQHr2OGQGPHsq1lDZXd/kVlU
zWnt0efd1g4nLCXyXkmtqGCWs+BwS/QCLwbXV//ay/dAgBses3rVHosqzPf7JRlg
thTc6sR68rkK0f5lr64zH5yvlfoocnlxxoAwX5L6i5E0mpfB8PQx/91mZcKsBwhA
y2toihLLzrOHU6Uu4yHztQtjrEs4FOzysfjALKmnPUFkXO4jGPYboo8GvJ3pHZeE
AX3m8efWHqLTyQqHJHh3iQIcBBABAgAGBQJOpyCgAAoJEIwa5zzehBx3xsEP/iNJ
Lc/8+TsFvJnz2mL4OXoqhZCYDSzuV/XyP2n3Aj024zLu12JVTcIj1jDYEXL8uInf
CoJGXOx8Rghp0vxog8CZB++fPz3c2aPezkGxn6SHy63QT8llkTwq9o9j25/pKEcU
8ZRBfxnXlzWnHdBlUWPb+iJegu9tr0CwRUvHrLu83uUI6ek0GYcfupsi843YnS3v
JbZQaFeRSht7UDpaWkmy7qnb0mQT7jwKSDsevHxbL7fC30o+bhagpYpgOUYkSbDG
+LtIwuhAEcClvEh7gfMt0pUgb84LByFQUUhewsz8nL5ldAlOegV1KeDiItFkBCCT
5ZzzbhsxY6myDz8qomGB05K9UXDEvWjWAfsDu1Txry2Bm1SSVqVkb+6wtqq/KmrW
drEY++wbq9VMt3S9gbBFd6VulVw+RWR5eLa1kpnpgN5sPud7fPTZBqFdssXuWKs8
DO7uijGp1b6XOEkn88fmbbbdSkTJmFFN0ATOVyItkLex3rdkISWivmGc63Qn12Qk
RaxMFmYCoJWr/AXs/QS0x8LlWUjzS111DtMhzLujnX33ZGbcCCgYrUquQRJs7gqg
8pTK36HpM9yN584keQIG4+rMAij31Csgm3GJuwvZb2gjf0hbVA/bEwu9pk66fCkG
h3aIV7yF8uVVWj8/rSnS07D7SKWptjncGji7B/d/iQIcBBABAgAGBQJOpy82AAoJ
EC6na5wrRm2dvSYP/14vefwPLAFf9Baei8l1Adt3zBZ3hkTk2FFXVmRqbiKS0mfG
T2lyz4eQ1T2f1r4hkRzxwCQusCCjM5cYm61EbnwgrMWxoX1yDezhLee36uinVtaT
oSvD1nE6rF/r8Bn9vAR450vOFZ2YWCTiiNNYBwRBpQm8g6H2YM1HpvjLficlO5hv
oMjjnRzjs2qZMMo0Qb+1nfL8sahkNgahNqYTa7xM00WlgL7DWdN3VX5z7yFW67fk
Bz/OB5f1itJkz8vcYSV6qvyxbheisw8B+Fa714uJdUxWYkS+d7ERu/xHpnP6Q9Oe
1gsaHb0bgWV3DMW77ZVoBPDGkTnyUce4C+Frc4Ok1aVaVWWFWCrpNO2vsNwo8MJo
NWf8SOh4A0pcnsF08/eL0NdpIyZtcM23BuCbrnwcbzdJL6fGJx1+fgMrga/5Yctz
vbIVZSVWfrqn26eH6vW9gXZ6wiDCec4ApipmRbPWEtJByGCoQmjWdHZq9ZV1LT2n
swnODJNxet0NIswBpky92lkhc0wg9f7dbtkj2v3hmRh0kROQUrk8OlTNpS/Fq3HQ
T7UxO3VU7/Gp+A2qPdEKjgP/PfPo5Kmvno33Eki4E/PaDksxqoRa0YzzNDv+OdM7
bvU4OisOc4DKfu4QJd74tYtWgLWzsKSBiU6Fb/TalQr2xbyHl8xfM++E4Z9biQIc
BBABAgAGBQJOp12uAAoJEBzlCpMIGLqcl1QP+gP1jKac2JyuPRqxkiHzf+fVBbnu
5Jg4pCj+p3vBrQyZsVV2fDL73X6xdKqfVMJxAsW0PDzxojl4sbe1ZB1ysNMoLRNv
FKhmOK9AO1NDeIX+Wl7wEW+G5zKTVwtyLQBAofxzBD+BqPUTD/tjhRJCuzK1uN/P
tXyBVyuGhAmAZAKuYVgGD9Ijag+8N9oGZtjMaVvPUCosNVXuo5XTP+sl+ZR0G5EJ
sAVpT2gffIinYBad1JVfSKr12BR5xWnnVwHdmAeCVS19pvSHBuGfskdYWGb3mt2x
qGcZRhx/p7+AdI4WNtP0GnbYWxIhVTN4a5u1XG9QbvcwSZ85v6Yu1y9A7oBsssjq
Xb+UhQRIRV3mJExFi3LOrEphrw7YpfZ3OJy5M/MI5xa0VtrR60bzKYF5AK1B2q7N
RbZz7v/DQOj1SB98L9OW24P9BpBSvbnkc/+6cKtwX2voSozCkxo0cRQWkXcu8EC0
rOVagWlOofUd60noZS9X3V0jg/m+lV67N4HJzdeszgLuryaHeyQe71m0ICrPv9Sf
yJLulWsUjEAjI3zotDHFXdo9/LPowa9QSCQ3vrNWPFUKhu50GHXH15b6Oxl0+qmJ
l9hX8Zocl3Na12EV0G73wUSio21KBsmapB3UeTX56kw+GTefp8PPcLw3f3nGGlSF
jXRMLiHey8u0OHVxiQIcBBABAgAGBQJOp9QPAAoJEJ6/EvNy2fuMOo4P/Rb2Ki6J
v1FZwUSphMH+iOFMDMAgxok3WpE6oisqjMZIyGEuQeX7qv/ASt0fDDEa802n+uxq
e/SFU2FTTZiy/NO4uY69owxXTD2JPl31DbE2OZq3hs2Ef8nsFZ67UZNQ2dbuRcga
wS/GffxOKryLBA9Eml9HFaQd5fr6cW3QQbpVNR59Qldm+r6xl4wt0WtHWNpzOB06
la3r/WEJ9RGlqcdjz6wbPwBoIlwkI+xXJIYzCeO+z4kTmhzdbV9UMjXUBnaT+rsw
zoG9UkntQCVuY689455+WASXmRO8FAm86fFsp2tSVzYBM5JfmnnzVOXgk/j1iKj5
15oe+Teng3gKoJ7SIuEEM0MrNJW+jf1l6H9FUqxjEkKr4iF6zREfEwcGAC32xGIl
cef735Lo+we8ZXOMBL6SXZyPpa8o703w3j+CDBYuFjoDN1u5epKenNx0ZaLYSJBX
td8nrT5hZpSKop33moegZrDw3dhAP9ubPwhI7mk3pmKU3ja2KDJauia4W7cLJd1D
t0f69mc9nz2KFATBZg3wd39Fa31P9BvkTYRCEwGi6zreV+nXjze95q4kWW1JmKdf
EcpPJMELSuyu/9vC2UHrxmcVWc5VCqmVOcL8K7jXYyg0b2OapvszN6eJYKkaAHiS
IW8zmFC9XHpHoZ8VVQqqFPm7/OtX8ChuX9SBiQIcBBABAgAGBQJOp951AAoJEL0l
sQQGtHBJ9t8P/RIVg46uPKve8jcpaRzw3D8Bhd57bsWo4vzBCz+EbbpF4l4K2D62
pPt+YnZxET+jg3ubMM1dpXOi11xy/sc/iJSza6uM6SFyUtOZpDNO4rAOnKPTB6Pr
Jb2Yheek3Ib0i3zagsZfY0Y8J8GE5uvxBKpQtDm+NHf1sA6QVKkkp3S9cW1CcojV
mQJeu0UlnIKL0DJnuiwhFoMWae/O6QPoiKRGuEOBoW8L3thlocp7TW1HI23js+QS
jZyXx8udubH/i6vI9NonHVE3nYX3YnblLXaaOzlOuHSohToauf03gK4aQKAUJioH
w6JA2DMXY9fH0Ny7NMkWmZ/2XQAV/P6dJRwrGpmktXlGkgDEYJzWGgD+GrJhs/y2
EiMvHf3yKgITFgXhYthVqOeSKuW4EnRw1vQe0Zz4VlAACwR926unvNlZPbEmzp73
Pnae5xUo9o2CKITC3xbAMTmLnfdm3BLsp7ZRRaJZAy8Eo89r9ghoOX7b9Nik82Ez
fy6008VycHVCKwuONKDtoF/Cp10dKrPw4oNDqq/iFgM1Pzr4yn4dEUAotjX2ezns
7MGDW2/Ag5pUBWmCHV1zLSno0fE43+8vkXtN9trqVTgz0BcvIw1byrNdVDBJqDZN
6mRL9R56TCOcQB/gE2vNlY9GEyzu6pW623Ub6Q+/wRWAy8oG3yfwAIt/iQIcBBAB
AgAGBQJOqOMAAAoJEMePsQ0LvSpLWjQP/iqzJkEdzFRBSmn7CEgZDOxftgOeb3F1
exCZQAh7GI7k97CadxxC6h2doWGikOROJZv2QNwJ/u9jvfZm6fqN5FNw+Pbf4qOu
OorRmc9HsWvme58wBuDQhnyOMxd4OOWrH5+5Ndi+2/+CdrLAVnh4lF7OkbRXv0km
yxyls8Q7+gM9m60OOQvmqM/hPaFt4lcG85MZUGdw58TxNeJhiJ2S5vIMBlTCj7qI
/fvWywfO7EuzIhl8ARxZDk7OR4gN4xSfEhj9SW12uCDjtp8A4/IudCeWh3dcG9DR
N3FOJkUBEQfuKxo8UBioPNXbxC6Dt/AIaAFme4SXTK7cKm/FcMPtpSutBkF7QJBE
7tBTlixRmM6EJaqnBJ/fQkj+1KU64oCb018I6GbVJddg9r8oDHcIh/NNZ2AR0E+B
SLPUkhFgfd/54m8PWuo9dgq3sJOa5BnwM0cdnbSx/bXszdc/jdPxnvk9ZYk9ZfnR
PwlaLK8FLeLyjBrcTkkTEorGq4O8hWJz9c0Znx19ilEnqHIVCrj1v9YSsQ7iF2TQ
Kju8UYyGU3J2JxENoCGaya5AVioJw6lb5jAa3aAbYoHto+LSY4JuW4r58fEcEqCU
SNWMq2YjPyPoMrVTpNZds4p3FZc7tj8JjLn6Gq8n1JTxHPubL3FVQm9NHBe/Aq0T
JWE9WY/gzw/iiQIcBBABAgAGBQJOqWgmAAoJECPQ0LrRPXpDZwAP/0dSXwbmBvUu
HtfFnJEuSaljIvjzqqnDHQh+g/QFFcPG8ypf6cbSaifwh/Iws6mlKOO1rn9LgGJD
tLCIhv9/4p/ainpZAJZFXIzC8MTOJmpr81Vyxf0KtYcN0k98SXp1NKHTNBIu/Vry
7GQCoh1RPDOyH1Us+CX/uu2AGBsnwyqqXwQzNcVsDcL5XcxWr/U1Zvlpye6LEO+5
zmz/dvo0GPLERZJZNjd4Fb5ad7GgLS6j5ISKtfZg5bt95saxE8YTPKy5dY74zXZ/
Hcma13364gRs1U1FkNiydCcc2Iwf3FR9oh6HGxCkqpC/W1kEZU5hSbIaOIaYQ6Fj
Mx70sG+pB/VVu3HHBaPNDR6yKVAjYzGcgu3lupOSeYUucRnLmg2yv5NRi/O5lpV7
cMOV+oHIqcP9aX67dPR/BOBGTGWaBb1ilGv1zRvrka+5xvN7OyXnGl5s2K/eSE77
xGo2DE8a939bx6rKE4DJAE3SLKp/Vwwo215aUTPl5SSfkhT/dZtRKITiAiD6VTbi
8cjuRPKTfj6MOSzzrVjP6VGESn16bLb1bhu4WQmqSWWbjzbCKpu/DmGcMSXTggU+
jYFKigeOm+1nfpgV1bgcupeDWikWM0UkvDUzvSaREo13eraM4AlO5wc0iyV6WU3u
3lT/K6/39QTOcmDQXd65G0a2qiZUFi0JiQIcBBABAgAGBQJOqX1LAAoJEGwxgFQ9
KSmk1OAP/31y4LmRkX7Gb9/0tJMbXaimGYfOmPV2k+f2XiigNSgfo4b/BslEYmnk
brUUp8oEDoD0+U68Xrfncs4MkmGXeuFEcVk5dG2grk2rUYEPxzPcUUkpfV9y0Z/q
ED4CU7y2DtKYBSvsHCSXaVogIpoGj8N29MfNNyZBXPVqEIOxRX5tLau0+oR3oPEL
/NQ3cL1q40ESEirxgQQgbaa/OImsjuwj6JLPGJE3t0RMf5riNtwuKm+YiqoDVQQM
FCnxbI8Fi7K+jKWdMEB27rNhfdWkVA9NEMuehq+zEjJ8dazmWurL1QuPlYd8jCxz
MGuticHIZfh4nbzzc9gY4yeKuZVPxqgxmUDmeWvOkFGkCSLQJqcvWYhrm0nYx65r
tQmD+PvLXNckqJl2/XAmMT+DsEAwVhMe0cENl5AZtfh3OiBpvvxC2XJKOJIRaHZt
e9L9sATx05B/GDjAQUzB4DRd/o8AIk664wq45z6cOGHNVrwSyM/QPXI1J8qkmziG
wh7QJANlHzr9a6aGY0mwrKWoiPmrWDHJJ0l2oNagbU9ycXV4lVdNezAZSkH1KfkU
r6P/dJHxwXhHnPl/uKs8CBF7AsjNbNASgxIRtoGPzbwuymBlWyhmwxBOne/C611+
HH+RqxK7CQDMybLjpkf9smeYik/rXKPN3p79v7XI5G8rlE/NW1PdiQIcBBABAgAG
BQJOqp2AAAoJEK1b4JDGryJ1qZgP/RvG5GE8LuNABWFbXfT282e3zhttRfVOFV/+
MSPNYsepzQcYNSuNzZC6Hfs7MUq67Er4vzBlhMRGLvoBMawUPFvtpSNpYmZeKDrl
R8WFSD9GY7c5nruuO4Zv/E08SmjCdX6f2McMFVcs5ABHJp78AnmMWCrohX0O9g/C
diuNTl1THZ/MrzAyVoU9PfHR+nPPaBW+WowsGk+cYy0ToGhOmgjklS3zPYFhogY4
8RBJJrha+2PYNOFs2GOK0bpeHCHyfgtLAiJAMBbv29uo1/H/36hkchQy1jPRiOiE
9lH3J3cJSqJm4Y+TQ+fEZddxUWVtNXiI27SALr+c/1SmEBiSW3RXAWjbSaq4JJIW
jId5p82qV2cqg5DPx9qvDkuhygMxuo0F8G3l/K9l6taE80QoqINhkyEWEuzam0Pg
mWVJjDiXWvnwrt3wTQfyw5SiAEDTRX85tyxwroK09utwr8lNcx67Jn2Hn0yQEDYl
FhQ24RtnCseEQFnoAQadVifRibBcePZ06Z+kHhH/M18eHRfC6hz5UEg6HuM34J19
0NSc3542goF4UdkBx/7QIh7dNRrjqY1Jne3QnuiMGk1DrMuCRMvsGfq+4pgCyMOx
GYSRpowW78S7NgPsP3U1EKaeGl8WvBquYixrGtLAPvsI/GHCbtPnTX6Uhn7KwxO/
sui83SqWiQIcBBABAgAGBQJOrDa3AAoJELLolMlTRIoMF7QP/iLtwrAszUOUNiQr
N+7HH13PcLabSEz9G51x3VAfrCXSfqcjlMH/AT+lHg6pM+vm0FC8E/euNeTsZy0Q
7nWTC3d5kkUoVC1O4XysssfHPn/tdNXjl4BPF97KPTPkTiPfIr8bS8v4MkNYPOCs
sWSCIRBgpHyfSNR7RCTIt/FgTSfVvHix5Lby8zCZ1r8Ik9MkM+uPDZoNxno4uU0D
NK5XBnrE2SVhXv1dwcMiLRanzR5hu8N6+ex95f9tCb3Gra8g3a7xdhYOx4SiU+V4
BwEW+ExZSlo0Gijb6a7iH+3dGxysdCuaXvPHyqVyhmcNadH2VQbGyJRuhjyipyLB
B5ua5C0Fq394vbeyDLlAESOXVKpVGT0maTwX1kGToSGGSyO8tQuajmeVKA8EG1rt
XmTdWFUYc52w5U1wdpB/X0IgCG9E7CNpAsj/WBBvRDylbS4lQYSoS+5rfh4NcL1A
wG/kuhdmk9UCKuiV5jeqb8N8EIFUI4YfoVwXoZbWi/iPV494sYDAsrsY9gsTDCWn
VC9B0gSdRubkdOCtl1dii7bNpspFkwoPVjggq1NRwEh6TmfWnF6pTALb3JPyDWJ3
epaCQ10NVwPTM8qTKd3sBq9QOUZfDDl3tdb1xxuR0516zSQronk8dp0pl9VrSnN7
p009T6D7j+J/G3fZOnI0LGjivnyRiQIcBBABAgAGBQJOra/PAAoJEI7yEDeUysxl
xBkP/ArRZlNma7piaDnwxGeQS4XElRFyjDPe0Z9saKv3rl/Ly5iOFy8ntXH2e4hM
pfccWNKyDXg/n/lZE//5wugYioLqTP6WnMJwpKtrrMzTAzetXU4hLxAi3rXwouch
+v62dFT8kt6Ztq2RCRTWDeKnvkbpKoock04178ZIjPL1kSe3lV62Dc6rvCParE8Y
DD0Vdv1qRdmAPMAcHk7TJFtk3dkM6/AgDkqdwNWXzdZLqL7TZidpTSS2fosURTZi
82J4d6v0E5wiAY4nqrgS+ySpyq967L9Lgp+bAtlfabLYgaIMkBu1xXy6LRgG++V1
EhIgophlPvjWp7vo3gGQVADWTDXcMn0yeP2c0luiTM5TZK/LMENqMRFjv7pA5ann
gQ50vwYDGJ97dKivTCdKDSL1YiEyHxPYA3i8gz11DhaQzREz1GZd9+IMxBBTfGSW
hKW/OuLZKm6i5oKLKxIOBsz/G7UXqUJ2NzgLECIyrSw+/2uhZdBmJWTnajuDUAvU
OmBXeTFmaSlKIrk+DYuCrncVXD4q8oDBF3LG8VPt0sQ9HLZowYTf9p2mk6BUgf5p
cFp/X/B4E+WJB3Dy7nRu3JP3kZydxPKXl0c23asaE3UbuYd7xivX1OW1GWhlJAb6
cw/+0m+VkFJGGtvDlNNQAew62bwUxsio0cbygz1H/dZK4zQOiQIcBBABAgAGBQJO
saTNAAoJEJctW/TcYTgGhEsP/3hK5N3N6N5y8WpMJ+/YTG7CY/QFxuAkNBup3VE4
3c8XDx/8AN7KbBHb6zPqHshfF/2sPwt406eOlw829fLzBcV3uKucgRTfYeQ01wsW
3O0jS8h2k5BMLwqKau7lqz3LefwhZ9Oyu//3qJHnq9f8sFS1lIys4iA8vwxFazGO
KbGirY+us7JNTjb6vfy9J9L2BV5BI9BQ+GpL9y4rcaTX0aW+GDXbR7kuhdv2NSMU
cZOGp8xyHocg0TUVOEQI0zvZoMC7Ouin4LWDlYXD7SCVg+MkeaII7Mvm3SIVSMUc
8NvWkz+WZlyMv3R6J6VqYsqkGG8e+L5AjIauOg+a0e0ih3mJ5DFt2/M/npt0vZod
atiE2MAXVOJYaiLxWfWLo4lpvIeWj+8OHYbbazak9ZWyOfuJO1G0wlMKWCOfw8qD
3k6LCV5Mm1OpUuWwQ7dMEvxm/JiUJTCGVx1C7Vv1IU7ywlWEcuA2aE0IWDRo7vFP
dQ/tXscx1xLG1pMTzF4IpxIgPojQxhM7Ky1ONVDuR7X0jPBY5NbKds/zxc7WR8f2
g8EXlkZcc6H3gOlwVOb/NPB0Xf8KXFqiUU364uS8LEoYZ0K2UuTSur8Lz9ECekyk
F1RiYupTH8t9UuYFDni6H1cJksNTsBEo7H7tZqUKO98TpoUjHvAKmfdpMH9d+arF
FwrLiQIcBBABAgAGBQJOscrmAAoJEFk3GJrT+8Zl3XAP/0Qo3Rjgd6SF3A5P75XH
fcoHHNovUi12sbvZ3Nj+JluOa3Re9vxAEnZVu39smlcT87NC3uKTeI9qHkdU+VCd
ljWjYyqWVHoUmbd4YosO+tIljJSwZRN5hDk91CEprVfp3V/RMfeF71UA8Zp/Zoru
Hc0DXfg+/636W95ZBf/XvbO34Af86ag9CRZ3dAYmWXTeQYJJ1EXE7pjlBK7OgEPW
0bytqr2B0F1IWIb/HRxp6bZtld7H7YofoM/uE71Tn+nygh8/g80uaei3ommcvNvp
jl9nudrXuml3gqUNLZ8AMEDihOdnfDXA6l2QWr+3u7R891zJKLJBhUKawFs7rPcT
s6s53vvvQ7hUVQfC088KPBGWXB0pfT5cU+QAa2C4eCbp7ykRUzQ8DHm5lLiigEvh
Sm96P5ttR+IFUU0iTHLxhtW3aNUm/tQOuRWrWT/+4IiBF+VSh5wReOWNc+MPVHai
rJCHt6PGzuz4nrIzlKNofU997KLjdC+XmAzyNwl9RLYP0pw3utZIZ6806AOVq1xZ
b+ybdDIkikFhoRW2Vu0/xt8zTXThG2qgcWtRxBMp7Bucjrs8PDVCw/9fsFSn4hRq
eXBnoSJWRCU29qggwlvSsBpDKKaTmTrNae85pUfpnvICqbZFvbyKO1/+NUDw4nx5
8icbdlfMaWzC8YuabSDwld7ciQIcBBABAgAGBQJOtquTAAoJEHuW6BYqjPXRJ9oP
/1r+Yf+OHqu39VCkuX48BXwsgkWAitlCQPk3v6bC181lQwr54qtR1c/Y1Rw8L2Ht
/G5Esg1uu/TgMsip3r4Uu52hQ69QQboIQyks5d/6r2MbRdssnKhT61JiZgCnNRXR
cNqGmmgUJjGgChyp2p5fhItsScxUsG1dSQu86khOmFHku4/Jo6BQ/27GGiwkIU2b
STEoSHxSNR2F+ggLTFoyJXL/m8w8TYLKM2ky5bmPaxpX1lEcNqLV42p3hQNqaOKs
tU4ie8/Tqr24jwk+jXjSjsw6QK1oks7J17T+xDFp2Fol+nexcyVlfeSFJQc2tI4n
A3ImS/pqSA/L/7GlW+gVyWDuJ6dJ0tazdzLT/OrcsAB4kiOg1fGBh4gTMG7jMAPc
Y7BcgY+huMU+HlviKj/rI3bdt7g/3EkCKmiqeaAVpWEpfsdfg//hWuTb0wp7B6Uw
SVCdC9FOcyTLbLmDp7+yyk2dIMEGwh9ZboZutYQeF0u72EvgqhmaX+oh9GnLvbPL
PeiZJqXBmkWmQtDnafio7Sf46EcP/mTCB0iST/LI2uTZyamFf6HdLX1fSSA8Q/XN
co3FbRzeVG55tVTWZRkplZXwLlco97DplwdELg4/Bxkp0Yq7T+Ylq/laxPGwHFzm
01deAJxZgk53mnth+MM1Q9ihTMNhC9z16kWoZ5HzRkICiQIcBBABAgAGBQJOvAwx
AAoJEDjbvchgkmk+stwP/0xtbvzF3D8SP0S18COBH8ykOTaOCbZLQ/OcX/mqSWfO
LGAJNR3NW4wCW4E9enzebQEoG5Tub95kGNUOxOnTmh96GIBi2r+cpVBAsPKflgrc
oL9CJKlYlEB1jRvJGUVSFDRFOxIPgOFwdQ2PIGf92JgLcFrN/GV+9KcxY7oiPUNu
aPb23LZMf8K0BK3vkjFyK/TO4g38QQaUzlZtXKqfujZ2l7C6WybXoer+O2tPc0g6
H+JQ4mpua2pBFTQuhpHBcoOLNK8CjxV/deeRfkv8TFGjOX1EV9bNEzl6AdlG44uD
1w3TqM2stjDtkAX/c1Uo4UeJU0OONhX07ke2wIGfdL450Kzo9xzC5nZw3mZ+N8fa
3VhJd2YsS2+Vzi+BoojF7Tr85hNQeyXUKHmsTFPSw8FJO+Ur5IwJQfnslFrmBWRj
yywFVOtedqMTmd+mDUXyfxhWkTruHJ53Npr77RCU6AGqK+U0QGI+uY+UyXA5Txtz
dAQ1z+pOyKaC0np926nB685wdEfodmFvTYxW3L8VHbM/ppCbWbzxLYUd2qAdyXtH
CmPtQoOO/OSEiqrFXYkRXme8tZReC7E+X6L4NAk/cPvMyzhDqXFwJMSyzp9x1HXl
ZpshkpjDmn7daJm7uowP74FRtf+knlhQKl4puKYlulA8uWWJRKcpwbtxcaBPOG1v
iQIcBBABAgAGBQJO3a1hAAoJENNvdpvBGATwp2MQAK6y1mXnfsuOlcyqBt2YKU/1
HEUM+8le7+nwJwtlaoYJ1riGz0dHTfuz9VDTRPZy/UUrvjHWBafsKujGBffDbWQg
9aMF8t8cx92Sk6h8l5A48g44Ftc0frjhFNkYmEuN8B5X602TpQhA8yov60LO0c02
CJ6AIP9qq/i2FDjGhNh8FWDXkkowgN3waj+bdt3sXLmJazVgrsv2AXss3mjlz5P0
HVDdkEoe/88xzRnKR4MOgD7PovELKsFoxUi3spLG7A42ko/SISZy5YZFF5Oho++C
BVuW74peTdIkwWBSWZ/iLmhU5ZXBMzXKgXboYDo7mgICAXZLqKYVG/st3XasnQL3
I5m6zzJ4K3MajNrlTLgIM+CsG9wuPkjN4vBimkuCacbQRCxsSEXOV9kQ//fWeKqW
FsLQAFIKF9witivvrMvfC1MRI6WiKWEfxCScryPPkF/XMPrGlnRmGSccV6b9pKT2
C2L0ilGRBWnzvkPemyXOf/c4JvYhwGp6uSilc/gEXloQ2TLkMLCjqCDGECjO4die
FkzDLrxWl+CooG0iYbjcHJxdKybKxnUkNfCye5CDzebGO/hMoifOYNfOR9dOORhH
r057gU/qSaudFpVbtaMuOFkGf61If7Bev+JnSDcMBGNTEwt4PioLHzXADm3/5cXl
NQjPRRsz7s5e7lPfowYBiQIcBBABAgAGBQJPPwJDAAoJEEEQszewGV1z+xkP/33U
4zH1Vffxp/dL5YbWLRwf2rOQ09S3uTYbDQ41CYfKurskgCi94VqsNvuyEbCnGDNT
UnfAx+4/4PNmAytjpnoABDBYNrBnK/K5oSTaYVYIAS+bmrl99PzYcgYWYMKSu4tY
7AhReYy2lDtquN9prFJXS293NPMRr1XjuDKh2WZ0c1JyquHfhsqb38SQENhrB41Q
bvJDGAYKfom3TamTMB6qmvarPajAV5KQMGrOsYAd7O2MoYDQ+4h4R5Ljk1aLeh3v
kr4aDfTXcTbPp/ODqj3SM1874IH9WXtCe9502927TBtHBR/yHhQYAIgdhQIboNQu
GeTyYynoqvfupEPKdH2oLyiMx8/YsXiKNdgOf/QYkrPO3X0qeMLZiXy5oBlPORsQ
n2bkOZvj1jTFTgCACRfvj5hcwtfVxYErp5icd4qtPL31PCTdb4VfmLX4BxAu8xDU
9kPqS7u09c+b9cxvtm9Q4Na8J7ZQTb5Y2WFS/VuE+Ub0j17p/5KnV6msrb+JF1F9
0EKbiHbbW8aMtGLApUm/h34VHx8UQYB7p+UFxgdPATzlb5DHUX/WHmlz9kz70W4W
ArhFkRNV+o2LcZSjBRVSpO913M/YD4Mytox0dhP5idm3eApohytYqkCOZ48mJK7H
fQuUDzwPhVtTIkl3zoXkusK+vv03euzL8n1yV4rriQIcBBABAgAGBQJQPk9bAAoJ
EMsfJm/On5mB3G4P/i2tRG3LzQsHClZMzHSXuSDHQqlZwwsvZ3qE4NQchmbUe0LY
mLWO+5nZWpII1qPobnQAgbjEJDlzvAXe2twHUcBW1ihCi3yTQTrxnedRl4nzLrpq
uULtxzD1JVt4ELVjslHSy0Mt38ls7XJKaO2PTwgrbhCsqr9N7VGGiRcyNsAkU+ta
Pbh7vEAT/ugHCI9NS/moZrlbMmn3kVpuV0i26cMHnsCdgQ4lzh5j5bfLkoEWEus7
HFgBpbTkp8OQ5spSjo2S5lZyIV/ksww1PgQy9cE9XmnCQ3NFNdHKlUfbsNPF99sG
SMTQDDHqz1fcxSa7jQl8qMrxdXjaXa/nvQN1vhwUzbC9hiHdLKglELeX7N358xw3
AhL1ZWLSG8xe3tKa5XryBnTTt0ou8bTbN4naLfNEPcBrmbPJL6XrtBY4f3bwFJdh
dYcRAowyFLQvHfUGAMHRWN9+xmYoKXOaYPAmqq6ngr3+CKMeUA1ty5Ngctbqnpmh
hgrAUH9/3ypQVlKWwyJqRsxwgRKVpJ3DeRBA1tNqhQ+7iCe9LTKDn47RjKFETp31
BQ8WYsSt3/R3XxIraI6xk67DHvbwuyHf39+qf3y8dQ6I4vueqdZQIki2oPyOHSmb
+O+FOIkAznFtu0MhFhDa8Es79bWvzUAxr5rClPQ/aTXdM1R5ZQmqIi4VLLshiQIc
BBABAgAGBQJQR8zyAAoJEKFvmrgMstOVoQUP/R/jEEEpPA6Lj5ImRoKm8qQ2OYvw
DR+xW104L4Vlzjey5vISypnMOcvc7WHMAxomuLKwwjAaunPnAArgwNBgKQ8DNHIO
TUW2mqmsmNuAFSsvCrG/+PM2oGMBTagrWXAAOVfbQwBAf5JAEnhShxLApJfaG4cc
aN8SaHA25GMn7XxpkATc3TdywviH7Oew9XBf618MAK5BcsPE93+VxqKA6bOQeRSn
7GXnYO2/SZ0NfrTNl0jRMLkHqSZ01C9PXI2InhUSBfydIAkvGw/4eqvkzdLxD7jK
/xfiYnX8+qzdchVK3LPy1t3V9XS6++0z8pOyoLBT2UyAdNC/NXH5z9GRxPavzPnd
ii93r+/Z2ehEARoWlhuEXuipL2QnqdU0HMzCaytEo9S+8gJRw7rzpJxR3bozyJyb
KW9nfPRuPhpSuvZC5gO2hxsYoDsUo4HBiOOF9vTXPO9RqxX/sU1Nnn8BtvQDX7ps
SCIkWOtpApIxlmovAHtjny5+v72hMBy8c7+/wao4OsLvntlFWa5/UZ9GlQocVLxG
JWVkelAW+t5CuuLdZKzxzm4m4enHabVw1ho1/GcIU7nXLJYoc7JphoBeEx4d7ARm
r3PJeHzvlMNzVvfRkQnB//JA9PQUdjQuTZon7DZuX8WC81oqrSVFUiuIHBZoQGOf
Rshx74XZDJDPWGITiQIcBBABAgAGBQJQSCX3AAoJEMU8XTeNhnafrGYQAJuN4S1r
nZBE68EQtYoKClNaXGAh14JXwfpkDRhFwug2IQq2WEgjiMKIBZHpyvviYD3nEop+
YVzCfwGIfJew7P7APw8Z3+RU67bFLf8L1CH4h+9a1jDi5kAhCL19+BNyBXnhDxN6
7Vi61eL+De5+RhhbL3N55ywyVzeXea5Q3jxc6nRTuJbTKu8UBXWX8vr+cXPGV24o
/21oBeXjycxkY8yOFvpEbnL4NJRXXux+EX2q202M2rnVquu+ccpRcrE6LuskQkhh
/ewBp4WRe+WO+mnOwW40dP7PejLfEQsYGOScmD9HLV4EXmkRSVFafZSUdWQsdANd
iaeC6mvU31BB8idnTBnHPHAf5I85vxe5Q5cMi8xq0ushYFQYPsD6pSxNZGQjfohX
3F4ndjk3Ypyz/Wi0wBQhhXOCQpgIuOS/hV+KIAuevbmCucKy+IgcncWqZDt65GC6
TCCaDPtiAClxab7qrI9hrlRfdxTvsWF7kMGpcPPHWk0/GvdyYthtP+pODhyCfz/b
MrmLJeRdwiqEKvt73hrxnWl5XRCjxfwxejV810QvNX7+CPdCgG4hwNI9zgfvYtls
u3ECmc2QV0T5aSjmp1sAxLvvJpbY9iYahkIYClc8DkGh61OEocdi3k7yFdZnN7SK
vwV1cviqT1MdGY/iulppltqL/Htg+9s7D+hNiQIcBBABAgAGBQJRKP8rAAoJEBvU
Pslcq6VzpuwP/A92FaRFArSJLcp6RKsj0s6xpTLBMJTuJ4DjI7Jlj9tvegwSWZAn
GKM/EZMrlo5V9JxwAwrr/sC7dQfsiJ4Hpt4y32X1SYj6gcz2N/cpKvoOPN9QMEji
EhO1R5G5Fv3sir2mXzrFnE6kKtPz1AH51Fz6XQXKVWb+opGTdq93ItB4ohTYGm6Q
Y8STOLN8t5NWgczXdGzZDD7HPdGFW1oG6EF4Q/OwN17pc1wT+gekmFS3udkSJ1Al
B7Y4eZW+z7yxLqf/pbBwR3wZmmaveT1jvObURFC2bpHyR7/4yjd+0zuey59dfjbf
a8FGAfzHXSHLKzoffntM/bZP9j/YEpUL1MvIOXKhduBNdmm9fmQgUIyaX3Rk103E
1zNbCIwhkamjqZCI6zW8DMnE9TaZSk3sQ2TncCyEnUJMAAJ86MHMKezLRu/yI7ro
IhE/xH6inhbTJql3Baps+CJ5xGNjLdyLqX7K5EwRsiu/vOae1OyEF2xaC2LNMnpV
o5J4cD5/N15zeWSbABJZ80Q369DgteXDZJeT61HeZ2U23OXVg4r/2Aw746MP9Qcx
fgxyr09vPyeGTKzuMnDvSFhJvXKh72Ncwrv9u54UXtVOW6R25TO8HTUcZBVCBAuO
yfDVtyCPHxME+hEUWhypP62ZyFGCMRftfO9Nc4Lw33EHecRTnvOUYIlHiQIcBBAB
AgAGBQJWafYsAAoJEFKiBbHx2RXVVpMP/jjlSFXk1bWmreHbNE51cpmmvDqSp8k3
MTFP4PAiwmqR0V28yvHb13z7rt1rFKYck/7uH8h0H3TM+4zkUKjnsvn0crvGPud0
cj8UPZnaMtTxgt9RpysY0mUbjZuXvPwUKXLnCd/xArZwK+RT+nhOYBqyZkehW2ez
1xfgNCeIo1B/s6QHfCAcqM7h5RL1+GzcJd8S1kSQ4nKQG8JZHAQxwbOs5lVM+Wwp
A1f2OM2pECuyVR8vOUWrHyQmem4jpooVMtD+z5C5zQ678BgKcK6E55B1pO2dBDHy
ZJL5eJadvzSmOwszR55adBFtpO3b9drGQO35vLBZRzlzxSE7PU82eyr3980fCG1I
5eWJcTX73bt6H75roYkpUK8WQt5xrznCBg1yUDYb/if0xQOneeDkG+mHZqhDMCn1
lLZ7Z8+MsWQeZE4cGqjT6SGIb17vkNpiWoayoxXhPH908h+NsDnqSGVPvbc2IdFb
rLtWxqddS13MjSVvXJsT0NsLFLbJSOAXNA1pG4fBGw7a/cLiXrUe1VvNh4GBoXJ7
TBGPN2zH5dAgH7P4av/y7VX1wrviaWnMje1MJlOG/f7ir1Cd+mdS2asMxUbppLqi
Z7eRFTQff5L5oTR2ulTehyODxeoiEnKk8rsNs1BDmhaM9XFGsTNhZQAIsrXM3Rt8
Q1OTCFjplTObiQIcBBABCgAGBQJOpr8UAAoJEC379FI+VC/Zd+wQAKtsMdltn9C3
f0hNpQfimhWP23dDA9LtOI4Jsh/UktaCZYaOC27zAwXagfI0HM3RpfI4ozOa4q6Z
9uRR1V4GOxy5ukxuvMYbbhhy5uxD4dpTSzljrXIkc/NESs4rlb8/rpatfl5+agRz
sDb+zz0w0MfB320KdUN17n2usC640M6KtlU3KfmP5YbtqrBQbcbFKL4gOTVTSTT+
Mxn/Yi6G92C7QYgSe07YZ2ekNwxo16Q5Y9248BHDr4hKDwBTvQBM6CDFNbs4R0Uh
kT4D/91QqzqrYwgMuvolXj2cNd+yT5t8sGxB1iw8umCmvrE/4QGs/I96qtvlXu0g
SBPINnXLUVHqMpOCdSVtD6wM9kRgtAlC4s4sIKzHxigQLak+BZ7NbqHpoLxO329y
eHtWpM5bKMRHHCFRGxIXG7on5Ss08tDap3BdLfr+IJlzVQok4mkwFy0L+A8O3yZC
oSDqE4dj2/k4oSRxnxq4B0pjP50JXTMZoZhqDn4ZhUZN6PzZcu9KkvL/jyrhEbrb
fzeWkv56L1j8irzl+tq7TZJxYkMinIlHIHjbOhHbNf4NqTOFwy97QG4ray0d0NPe
Q3Dduj3KJEUgxJ+1dTBfsJB3plj61R2Xuyu4gKjPaWY+JRmEaaR5OzeE61lI8JtD
k6klD2nMTKIkAWntr2khYmDwVd4Rh/gxiQIcBBABCgAGBQJQW2jyAAoJENidgRMl
eOc9sloP/juKZpPCJuqd1uoLL+leg6h0ixV9Ct25zzfukasHoTjZx4QSyail0fPw
kp8rVUcnkNzrPNcS6sRmCyebzi5hhP87zwvSIw2g8MH50ji9VrLqDN7PnvzolWcB
JoVl1D3Uikm2UdVXJY0YBZ1Nf0nZZb6/58fnwiCEqAO98u2ITq+TnwH15xwrbABV
MO+he+9nfV3DJe9YEGasA40g40ZKyZQ96O3/0e7O6RBjdcXF+oTPHA3Efiyw8RxI
bdpnUgsbUXkseeb7pTIRw2SCnOPUXZE8xAbDP78+aHTu0oJ77MKof+GNhA8sJ+uz
RTHYcBqxQL8oBFGOowmS7KUh39L0VVsH5OELD0BDlvKrwuVaJf2ATm3YNO4YPUKF
0gw/EwB8GHbLiUOxF6iuqLUj8dIGYTFj67m9ijsdlFj9gVfUBsWbEjpm6tzlKsU9
q0LlvbKBAXFoIYCRGnLMf8n06KQyZeKlr0+h8D1I/JmZxKqBWO1bCfBo26wm17gG
vn+Z2BUPoRyCn8mbcRQp5jiZD8+TtA/1nQSuVcCzySglvOcVfIeEur3oipq7x0Ch
P5G79sH2sp77cLXpfEPqIeCgpIPFjYwyLjtkzfeiqNByLjhRfxJ88YDAy05YYhqu
r7n3l+/eW7yizNjvhHZs1Ex7vvJUUMMKTxkNuC/sdcwiTufSobOwiQIcBBMBAgAG
BQJOrrctAAoJEGvWsS0AyF7xkmIQAIk3l9g/+CSk5R+yt9u1OARdY3SnI+vI1uJ8
PjaqA2TUdBtcGt0uo314s1r2bomS8K1QYCKBLdNnMRVl4S4Ibglq1I5okYnzW4ny
K6uJFCxp1bef8xRCcun1uNfiujAGeZSPQwlUwqydkQAZIJntQTp1jtxnapg7l2+I
wmyFGWpXu00e2nHnTnWsJ5m2wa6Nceln1DAurzwoCodU/g6Eh8HD7XFpyNAVwc1T
Vxtyr1aANeTT9iiFD0YMg5lZoswKz/ifdUbubj1DphZxCBkU1J1nc+l3dr1yY/60
vrhmnSfJofK9sp4LGk+aglCPeIvMMuNjiUpQadM3JxqReI/px+O1ik4JkaVB8J+0
Y2DPCNwdirVYrgcGKTgH3YgO3ruAKgzxlaxcOrqYseHeqxCYhFiybKs64x0IMAtJ
n5tVZ+toC/yobEhVEupgoN9ozFZOvm6TipFNiJiGp8pEC/04xZXxDZ3JDlDCvruI
eLR+nRNKDsN8L0jzNwy+zPSWWFYOWUDt4VCIIWU5m2emeQ2upgG4/buC7m6tfpXy
sW8GFOnbNfJ3iAITnZqej6HhOdn5gU2zk6F3MAfgyMUL+bqhv8jWxXf47NJdtpQy
QNUmtCZsBh28Zdp4JjzhjX4069gQXZaFrpTY1Z2L7ImosIfTesr2gfKdJsx/z/c0
GZq2Bq/AiQI4BBMBAgAiAhsDBgsJCAcDAgYVCAIJCgsEFgIDAQIeAQIXgAUCWXJV
CAAKCRDmup9cXlTfgtUpD/sG20ZhrbjRS5xzo/C/Dwj05O+aKESNdt0pzmtxmGab
/RSwssFkEZNcSkCSQmub0mCKA7Rmpw/ewEtHh+R69+O3asbRmAv7BQ0ngfYvtBkJ
UXnsq+Yf2PqMyoAWJgQOaooZoZE+QKu7SXxKBcEmu3wf1j+a0thSMrnM2O6x84j3
vf8L2XpZE/+DADReM7c4AxuHsaqLXJkWJ4LWqlWUFVX7RbxwS8ypXEXNI8DwPpyd
gjvsbAnK1/I5vYpvvuGGDgKjXnDkOb8Q96JFriMCdN8Nckx6gPf3658rhSQ3WtPw
fFLkjp8VmTHT5dCd7BV2WQtGPkRUth2eujBgxxMr5b589dWY1gtg9y4spwHf16Xv
clxIUJbcXfr2+79aeXIjRrIugu+BfQDHR6alumoQBPohX5uD7qC5dGSrGZc1CJAw
jcBo2C6JXzX/vC4GGLt5TE3TTkGG+qQnATsKcIBiCzzwTQMUwyC8AitGZR9C408j
F2ED6kcn6/8R1GuzPYRM8MUnChKEzqYOAtwKVoC+cAFv6c2zS2zjBgSUPHWw7Yrc
6qVp5C4bZrOWZtlX0zF6alaLAAZJNOxAdiItQyNUi9YovYgjn2/5vkfAZKHHmD22
awcI5cX8tr9fTB2gV1wnc+xDEJUDYM4XKtKF5IzATViufCPnZfgmE70ta2kXfLgn
vbQkRGF2aWQgQnJvd24gPGRhdmlkLmJyb3duQGxpbmFyby5vcmc+iQIcBBABAgAG
BQJWafYsAAoJEFKiBbHx2RXVEysQAOAexzEt4CDyDMlQh6iak+r1hQ6x8QUl7n4Z
dO8+e1qEzR7JQT1g9NDtLEDDsWOTv1zylB2xQT8HlhY0JvNHOxUj9McMzf379aIE
F32RrL+9fsrZNfWqYe6tHURU3gbwbbmTNuFsx1NIFPi6n0EkDHgSa/sjYeA9SpT5
I8jN0MorUObzNGbzr6ZOFS3OUrnEGAi64XCSuuw7JJ7gOBf1n115iuvpYKRyHicI
/HR3Diao52uYPCkWWTB/3sSiCDQovtMerJMsEHWkDSdXYKK20yYBM5UhA/DMIQmR
66j6Pg17jkRROLQbLjuR8gAb14R/nJBoBhCeGjHs7y+sFzKXMcAXoWh5PhoCj0S4
Ty6N4Y/cGX02pViS26j/TYBPFYRNOTJqeom7DiPTlVlKYg24rbICTWNqvLalA5sD
f8TTD7yJnr7+tEA8xDw+bTL6Ll2LAIXUnogfySGhZuqhzq37FHt0U7uHls6in+pW
I4WzWR6+bhOZ4tezE7hfs8pIs/qKngwLdB+vRjpMa9q6xK233NBU2vVrMQuVUhAE
sHz5XUA3NP8QZouS2Qxp4+0A0ueMc6BQWSq3oYs0v9erwsxH0mqtrsNFG4YMkJui
8ptMCSvHCwWPcZc2dO6Q9UxsWI/WeehBmTo5SHGAehPuB+x1yRcUppeSLPd1sKu2
xBTQh+RHiQI3BBMBCAAhBQJZclSKAhsDBQsJCAcCBhUICQoLAgQWAgMBAh4BAheA
AAoJEOa6n1xeVN+CfecQAMpXtw+7HAnjQeKhSb45V2S29eF4aSngX6CiC1sWHzd5
NDWS4QZihQhl7Qp/OuaihUrUZdWS3cKw1OdP8CyePLyhikBURcwSCAygGfPq8LKh
lL4wrxO3VU08iwOhYzy6/qYqRlfGXLKflYFFm7EcnBr2DiV3IxHxpyYf30BJ0PzX
USjX/iadBpo/nFqdYTdl41mrCvkxeZU9SmZWalFhFcF+bw2w+ZebqmE6R7eNFw6k
QySqDyjFPSvG2K/xQoFiKSh9g0A2LRZcbEkXTAbQSsKzoVeO+GkCoZrxFG8YqaTk
D2VeJdXBR+39UX5O5zdDVPFJ9MgQuCsS/G3e9HTPv/ESgNONDzGL4PPxZX7+0HJc
vJUf/oSeR94M8QrI9PXytkTMMtdKycIUvbxdLPHPqKTFmDQeM9uuS7IsL+whFOBa
UVLhh+GtMBoSWKyBLYud3nXW9Mk2VThqN4pV5Z1dupnv/vlxIiieOZgEi//nes/c
jEhzEdyr+aETwo/xoueMIQEy+XW3boFfEs8YcK2/qOuBmtgOFTxBNsdYDYuqfELW
nb8jnMSivs0YmN7aN2/o7/FiZwrzSwCQUeFiXHwAcmhTdoyJVKVVotcbQ36XBkje
7z1eYU4UH9oKz4y0KGdbqpMx/voUF/VWVmP+02m/KPdUy96DG44PCgEfSh0P7eM8
uQINBE6YxCYBEADIAloSh+eOBGQDsw0o+/MxhRxJq9oi3WM3LkhXbvcyhHFUI9Af
vKMYJHkZDrVoubVzhS4cI4QRDJY3TAlLP7iDBD9SPX0kY6bh7SbEinrMQ4dN17ii
3jFgD4nK5yhIiRBXKnpL0g9bRemlujtHObT1mvqxNM29nQpztGB3afXucfK3ow3D
5UKPIv60IBVtIzw2y5wOwddKv7pgY5RdciiHp/AF7Xd8yQVv5utoGirif6a9vUaw
U93z046uFEM9Xv3aDihDblmunKCnfJim7d8qJZ4KxN9G25BPH3qdAde+H8O0dGne
WDhdhQ3/ivK4pnn8GgVuJuREHirSAk+Deqk2A4C+OMAPH+unGhOwzNKwm0Py2Fth
mj+nSjl3T5HkxEVZk/Ebp3GfnF1FF1wlR3XuVC2Mitq/3sww6DluYuJZe+SYxr6B
rRayBAc/7ln6VMDmKx+f1FS9EcBwAhmDeuQecD95A0fa/z697MFTtbOCzQxs6GF8
xEaFXCh1twe3Z0/2D9JrYur+St+ERpfhui+olc/NpxhFb3QPO3gn2u9Y/rTKaKXA
ck2NHgEvNHdrEOJ7Uw4nxxHYBog+Gi+nWoGy3JPhOkHb3Pv8UyiqawyWcn5DOD2u
22FahHAeJhooh55dF60DWvVZeObYvSQ/xvU808Od6KStg+rBMu+numTfrwARAQAB
iQIfBBgBAgAJBQJOmMQmAhsMAAoJEOa6n1xeVN+CUuAP/3K/c0tVDobxwI2n5owZ
FxfeKs92coT4D80G5411lhi/eHfzACSlfXqOQIoTGJSDxQSLwZHdczDgL8nocTTr
jDOJClFo8vnlCS4gV66vlELLs5K7Lu79/MAwp4sTzTYBfv5gxwkB9192YAI1EQ69
B+7ZawfPILH0sUWFxVbRHRlxGSgU8VBTkPtCtU2dwuffwlsRnUV3kHIEOOHl2NFI
oKSJzRKvNmvZwZtej86y9Mt3/BKlYXykKXj0j4JIlahDTLVnFGCRjHn1JtXs4CZ5
RRY1cummzk+BgGDTdVKB6+b/BW3MDTgAFUkauN+VLNYVJNVZzn9iXJdNVSfBbQKS
V33jzbx62i42cmHdJOU1gT7hAaIIwmp2REIhxIhInO3ySOaWZZMtGD8cAOou0dyD
SFUEYmwN8e3HSutWJ6mWA5eD7k8oomFoiz87R7qoTQZUOWs5X/12WfwyyQPqTqd0
9raTs1hGG3QVGZHrw9SRDSMOGs+A9S+jP2jwUuXEiQVOuYTPIl3hZjy5nggemjlb
VmB2tYhSlLh+XI69mCVPar4Uk6+3oAi+ai81Aogrzg/dwxQn3iHvhOBTzt5+Qtvy
+swpZTGtif6vxJjEni4JOphjewNL7U7UkQvsE88WCDldqgKgo7D8dBeUXdXPHh0/
E7fR1g1wGAVTgMqBV7xbpbSt
=W4cO
-----END PGP PUBLIC KEY BLOCK-----
