pub   rsa4096 2011-10-18 [SC]
      CD0A6E3CBB6768800B0736A8E7677380F54FD8A9
uid                      Ian Kent <raven@themaw.net>
uid                      Ian Kent <ikent@redhat.com>
sub   rsa4096 2011-10-18 [E]
      C3D44A142A09029EA88EE7EB91462FD8B1DDE5BB

-----BEGIN PGP PUBLIC KEY BLOCK-----

mQINBE6c/ycBEADdYbAI5BKjE+yw+dOE+xucCEYiGyRhOI9JiZLUBh+PDz8cDnNx
cCspH44oE7oTH0XPn9f7Zh0TkXWA8G6BZVCNifG7mM9K8Ecp3NheQYCk488ucSV/
dz6DJ8BqX4psd4TIgpcs2iDQlg5CmuXDhc5z1ztNubv8hElSlFX/4l/U18OfrdTb
bcjF/fivBkzkVobtltiL+msNbDq5S0K2KOxRxuXGaDShvfbz6DnajoVLEkNgEnGp
SLxQNlJXdQBTE509MA30Q2aGk6oqHBQvzxjVyOu+WLGPSj7hF8SdYOjizVKIARGJ
zDy8qT4v/TLdVqPa2d0rx7DFvBRzOqYQL13/ZviekuGbj3XvFibVt2ecS87WCJ/n
lQxCa0KjGy0eb3i4XObtcU23fnd0ieZsQs4uDhZgzYB8LNudWXx9/Q0qsWfvZw7h
EdPdPRBmwRmt2O1fbfk5CQN1EtNgS372PbOjQHaIV6n+QQP2ELIa3X5ZRnyaXyzw
aCt6ETUHTslEaR9nOG6N3sIohIwlIywGK6WQmRBPyz5X1oF2Ld9E0crlaZYFPMRH
hQtFxdycIBpTlc59g7uIXzwRx65HJcyBflj72YoTzwchN6Wf2rKq9xmtkV2Eihwo
8WH3XkL9cjVKjg8rKRmqIMSRCpqFBWJpT1FzecQ8EMV0fk18Q5MLj441yQARAQAB
tBtJYW4gS2VudCA8aWtlbnRAcmVkaGF0LmNvbT6JAhwEEAECAAYFAk7KccAACgkQ
AA5oQRlWghXvMA/+MRuFQX8USjReIXM71VpqlH3RVrrYNxd/OuF/2Hk1GHen6nsC
kgqbqkysPjD6Vv6j8b3mLd3o4JIkOpjgMzTafiC5ngwf2LYQMQqf7xjmAzcgnz5t
JyQCtTj8ct9BpxUVFAHTKmuDpa3m0NqrEifEuwcYWqB8aVsYd4TxNizS6crWhubZ
UxLe/HPweOoxXrzTKwg+J7D1q0RYOGjITuxGoScRTGR8YU3ApDyN4p+ak75y1ALV
8twg1VVTXQjBNEWL74MaO/EkUE55N25roYZXu55s9f4uny8hzBUXEBYyoRJAdUp0
ZqgDQp0kCPjcwneRgUOlpPQPBd7BRS1/ljtg0700+Gun7C+MsahXB4qj2/tmrEF1
BsD/JgPJT7l20KJDQgR/wThgRVE5i855So9db9XPpc3MgXt9Jj6XuqICAzbvtLoN
qhTo+cycoD3lXxGkRIXfdf/MWeUD6r4j6aZRw4i240wLaKnJMUDsoBwWn0FV396S
V4db+9d7ZQetQYIHjuNjzuEWP1Ng7adUCGq8MieQEIXbcX/W5fWjmy94MI38PGe8
3oFGpHc68FXJCNGuehNwMFlRqLo1uixyE3X8160qkEYaWsqQ9jCqFyMijF6MrUOK
u4CWCs264cPxAdhyuKzmHr/Q2ViZrUoeTQYcBGG/uG9QheyZKT+bw7VmkRWJAhwE
EAECAAYFAk7OJEQACgkQ+7dXa6fLC2vn+Q//agUlZMaXO7rp18SF6Qqp0P6IQRtK
niiXu4x6sFopJbC/o2ZUBVfxMYEpVQ7IyIR58rVP5i8zPoVsHmn2zrmlggyIi2mu
Dy66da7N5SFPBbqf5YLuMnI1dO5bn1Ripice2DeuSpsMQDGqJOyouhhHrlqGVS3W
6NzYRmTU5/kqgK0rgNh0n5O9IqARU8T9HvzzB89fp0wcEoLP6pbgiOwSiWQd3Ux8
9m+S8IWK/iJvkqqvsD/r0F+W/+Qi1QHlRFiwQtNCOYfyoRl3iqfH9t+oHCJUvv+t
2VN5hAh2X5GYM97Os8gBbNASOLeksGEigJL2Z8OsUgJQhXB/5pBTlkgAS/kKbgZU
zbA2Zj/uqmjreslHCbhVflbdyRzBV65gM1uLzIu46YfmVTg+m9L3KpRQgM7pBKp8
dvFsf73R4v7t47nyzic8R/bBk/BcaFUwlbFqOMLPItQiF7eFy3/GpTci5DceNvGc
5jBqEHWQ5gztgSGYVq6V1DdFuRgFaLR6XR6OZO5QcVRsufPj2/zDdZcLz0yAOzEl
q+UHuiAUIthjkN3Ip7fuJScOH27TJGFyV9Ob1QDnmZ5Us1mtGQvrs7Y6NUCXml3D
m3hWRzwHyC9Dq0J9Q+fGOiRZaJqUavLILMKFVsSI5PTt/ZrDv81z1eFgMqhHAmTF
bqJo09qt7Y649aqJAhwEEAECAAYFAk7c3tsACgkQmvsdaBoSUXcrlhAAlAMBI7rs
TWPjUi8Y5uZNps5oYaSt2NI/pnKnL3HrYpe6OvDT2LKCF0U9dlKQOiel2BJKe7s3
Q0rRE4FoMWCbZ3tESnhno2r8NGyx3O+VGSQMCIMll9/1fakbmP29oYNz/li5fjbE
7vvNfzxbwcfG2u6jD+9hm79qvUtq7ATY/05+7qi/cJDhPa8gTyZbiGptlV0hjNA7
HXHlbi8eAPCxPmyrGhv64hA8HsV5XR9o1S2mla5YIQvHbhoMxBJuwwTiTnjSA0xA
7q9ulx28HmM3YQ0r0gKuJtfvccx/ThHs6SjvQ+qAYrANYoD9Q77yCXNT/tC45F46
BJAM66Y4WL9qrZFh/gItisv6Qz+gKUvO4aRTuLYE/W1MYQJOhioMowZPuLn4p0/x
KbYk7phtU9l8Difn8cKTkV6MRnxRjH8D57/+jI5tjKjkDtLP4bhoudUhfH8jfBxf
orTAOOaRtZQHLeHV9idnrl0INtp4zDIsGwP1XRTNmf15MDatRAVtHyD6CCK0UK9G
0Y4R3IRohe2uC43t8DMkf4Fv+v/W2bmmebOuotzuuRxwZJb5DBphrpSITrA7NpCD
PQvA+HHCaezx21fqUUQbcbJuoJ7VTxa6hwpMrPHitb1IUHpch5SnguTeWT+kWh4w
+3VuBOokqXSzsgF3F8xVpmK3jaGP4HG1KXGJAjgEEwECACIFAk6eM44CGwMGCwkI
BwMCBhUIAgkKCwQWAgMBAh4BAheAAAoJEOdnc4D1T9ipMWwP/1FJJWjVYZekg0QO
BixULBQ9Gx2TQewOp1DW/BViOMb7uYxrlsnvE7TDyqw5yQz6dfb8/b9dPn68qhDe
cW9bsu72e9i143Cd4shTlkZfORiZjX70196jr2LiI6L11uSoVhDGeikSdfRtNWyE
wAx2iLstwi7FccslNE4cWIIH2v0dxDYSpcfMaLmT9a7fxdoMLW58nwIz0GxQs/2O
Mykn/VISt25wrepmBiacWu6oqQrpIYh3jyvMQYTBtdalUDDJqf+WaUO3+sNFRRys
LGcCvEnNuWC3CeTTqU74XTUhf4cmAOyk+seA3MkPyzjVFufLipoYcCnjUavsMKBX
Q8SCVdDxYxZwS8/FOhB8J2fN8w6gC5uK0ZKAzTj2WhJdxGe+hjf7zdyOcxMl5idb
OOFu5gIm0Y5Q4mXz4q5vfjRlhQKvcqBc2HBTlI6xKAP/nxCAH4VzR5J9fhqxrWfc
oREyUFHLMBuJGCRWxN7ZQoTYYPl6uTRVbQMfr/tEck2IWsqsqPZsV63zhGLWVufB
xg88RD+YHiGCduhcKica8UluTK4aYLt8YadkGKgy812X+zSubS6D7yZELNA+Ge1y
esyJOZsbpojdFLAdwVkBa1xXkDhHBK0zUFE08obrnrEUeQDxAhIiN9pctG0nvqyB
wTLGFoE5oRXJbtNXcHlEYcUxl8BitBtJYW4gS2VudCA8cmF2ZW5AdGhlbWF3Lm5l
dD6JAhwEEAECAAYFAk7KccAACgkQAA5oQRlWghVNsw/+KsO9cgYtkmq3UsAG//5D
MUobRBP4+RspN9rPzByMo31vT44u9KqYbCeLsyG5UGgeRaJROoELa+yDy7omlS48
RYM+kmcp4jgPmksX33Hcsr3nItd350p1PtvCc6QyHl/Ihdq7xlmgonSbPzJm5H2O
EMW8LkGiB3IhWWKJkAAUM7qRiP52nxg1iD6+7FkJpQN7ZJszLHSHBSKFCYlfILXD
CUnCB3Zd5PAKBSVsgASjjvpIf7DRoTaz4jnyWV7sgfaavjLorTsTDcLamMQLYYZo
ajVSfs7FE2cju6eCO+HJc43VoGZbyAhplPizfiW7vMTBCmEUQ5rRbm8BTItxpRyH
sT9KVmZ1JLmkEEkHTIKnlRklmwhj7QVgOoDPI1Q5kuIBgm6kqPT2tj/rVilawCDs
NQeJV9aRcUhDeMRLJEnH2TfkHbu3gQm7P2c2n3hInP0bDCsE4pvafEg8R6GltBPV
zLQhgzfcbUzeCFJZF35Z6DjbuxrTz2FeLAXLux6nU/sJAs7RJPNxj5B3ikvkoiUC
cRXmZY2xeV5qd19pDH93IaXzRzZcAMIrYuHZV6V91txxTgC94p66NUI7rxkfMOxd
EP6b382fH4okrZKh+BzMTAYPjQDF89pO8z7gUEZcVtTxE/SLWK6fDZO4HP1Pd2Fq
NYFdEtiLaQMAnaGKJE+OA5mJAhwEEAECAAYFAk7OJEQACgkQ+7dXa6fLC2sTMxAA
hHt8+LFa6UbW2Rh/1AJ6KMkt7QncEoOVLUCv98mQQpwp3X2xoyrp8YuBqSHTAK1O
I8PAWq5f+7XMwIoiibXdvDscPlhg8cN14NSGwqWPyxbG0iUwIl07/3IKhd6UJPOJ
dx46qMGck5Awa6q4znzfqlq3Q+niWhsPYpSlNXdx71TMUiwXIzoacgM6sB7Q/mUv
6rlZil0OXwT4tv5fbtPCkTjswSi1P+pw75mM7Ime0LJOD0IzugEuWXxW3ZXhF0BN
6J/igEXK/NWNGhDFsmfKj1vF1abxnLegPpQb91DnZCSraXM7rJhmZwXomAjpY/EL
UxUa+63Df1hv1Z71dkPHt00+4P5lTOnEcF3qFseq2jg+jcW6zr4OTVQDCOhSm4Le
5IND8J4odZs3JOv9BTqNFjsRz4Gs7zHiVLBMJhRQKNzPqNs0iOb0s2Q89qWC6b8m
Eo4b2CzE6r60FUWr3oqv1Ws4qRyh2oP482KicK9bG1uGJ3bvwXsIk6nLB9tu9rH3
9l/ocaAVX3oSQzvhFPAvfTIg72ZUzsSuip4T8xju0stG16N2QCsTYJI//mfkqK1c
BDzAOiMweOWkNkgM6WnWiKtpVhwFr1tSaI243XgTJqcz8YAA63aHdDYP80V+pm/S
tWQDnyArI4sqrQ57SIrm/98VQ1KFbR3kNlJyvJ1jYGyJAhwEEAECAAYFAk7c3tsA
CgkQmvsdaBoSUXdajA//TQA5lJ2Ui6Y6EK4+GdRYVLJ4xD9oOwFW0arY+lLIsEft
/vINnNXjz7tftUOiFWKT+roLaKhrI79pj+95vmvH6q66qiV/ThtoYbQIqyTF8DeL
guL/bDYMMNqdwDsV4mnIvYGYCjgfGSEibRhHrpTZwwnXVbn9m+U2N4szVvwaYHtr
mN4W9gR6fReV09gHu1rjE6xJmmnMRFS1K+pgqLaJgMHz3+6Ws2nERFxhdCJO12xp
2McTep7hYs/WyRbKaa3tTS5s+/1lK79iRTSnx8OINt+6rvuAN9c8azAe7ETSizQA
Fb6IbCrfMDwky4Zb3Ia9OKptkfSOJ/bCiFmd4eoy8o777qYeW2q5zl1AKhnejQ27
4OGG2icpaIO+QEoCJkpCqyShz1rAArskDaen6e+7tnvOKOBaC1/LbghjUjT7WlLL
1j1/43sYLtpduim7lSPxnusZmlkLG2Dlc0AEj4u1oUQJ51P2ApA2QuvgI4VAdQuH
b5/X+RAibC11IgX868Yki85cjUbTwzak3bhVvysSLyGqX+8tCRq5S25HOmI4R0JT
xCaSyo1UHtla1r5gr+MGckeNdlP0bIzF+Y+P4sod8RzXXLvmsNGUs18VzBVPau7M
1UoBUQk3EgcjiocLR1kRFxFog1yQf1+IHOeAR6T627wNjeEFzKbbsMzE6OlI+V6J
AjsEEwECACUCGwMGCwkIBwMCBhUIAgkKCwQWAgMBAh4BAheABQJOnjOcAhkBAAoJ
EOdnc4D1T9iphrYQALHK3J5rjzy4qPiLJ0EE9eJkyV1rqtzct5Ah9pu6LSkqxgQC
fN3NmKOoj+TpbXGagg28qTGjkFvJSlpNY7zAj+fA11UVCxERgQBOJcPrbgaeYZua
E4ST+w/inOdatNZRnNWGugqvez80QGuxFRQl1ttMaky7VxgwNTXcFNjClW3ifdD7
5gHlrU0VZUULa1a0UVip0rNc7mFUKxhEUk+8NhowRZUk0nt1JUwezlyIYPysaN7T
oVeYE4W0VgpWczmAtHtkRGIAgwL7DCNNJ6a+H50FEsyixmyr/pMuNswWbr3+d2Mi
J1IYreZLhkGfNq9nG/+YK/0LQ2/OkIsz8bOrkYLTw8WwzfTz2RXV1N2NtsMKB/AP
McuuodkSI5bzzgyu1cDrGLz43faFFmB9xAmKjibRLk6ChbmrZhuCYL0nn+RkL036
jMLw5F1xiu2ltEgK2/gNJhm29iBhvScUKOqUnbPwDSMZ2NipMqj7Xy3hjw1CStEy
3pCXp8/muaB8KRnf92VvjO79VEls29KuX6rz32bcBM4qxsVncOqyghSE69H3q4SY
7EbhdIfacUSEUV+m/pZK5gnJIl6n1Rh6u0MFXWttvu0j9JEl92Ayj8u8J/tYvFMp
ag3nTeC3I+arPSKpeWDX08oisrEp0Yw15r+6jbPjZNz7LvrYZ2fa3Am6KRn0uQIN
BE6c/ycBEADZzcb88XlSiooYoEt3vuGkYoSkz7potX864MSNGekek1cwUrXeUdHU
lw5zwPoC4H5JF7D8q7lYoelBYJ+Mf0vdLzJLbbEtN5+v+s2UEbkDlnUQS1yRo1Lx
yNhJiXsQVr7WVA/c8qcDWUYX7q/4Ckg77UO4l/eHCWNnHu7GkvKLVEgRjKPKroIE
njI0HMK3f6ABDReoc741RF5XX3qwmCgKZx0AkLjObXE3W769dtbNbWmW0lgFKe6d
xlYrlZbq25Aubhcu2qTdQ/okx6uQ41+vQDxgYtocsT/CG1u0PpbtMeIm3mVQRXmj
DFKjKAx9WOX/BHpk7VEtsNQUEp1lZo6hH7jeo5meCYFzgIbXdsMA9TjpzPpiWK9G
etbD5KhnDId4ANMrWPNuGC/uPHDjtEJyf0cwknsRFLhL4/NJKvqAuiXQ57x6qxrk
uuinBQ3S9RR3JY7R7c3rqpWyaTuNNGPkIrRNyePky/ZTgTMA5of8Wioyz06XNhr6
mG5xT+MHztKAQddV3xFy9f3Jrvtd6UvFbQPwG7Lv+/UztY5vPAzp7aJGz2pDbb0Q
BC9u1mrHICB4awPlja/ljn+uuIb8Ow3jSy+Sx58VFEK7ctIOULdmnHXMFEihnOZO
3NlNa6q+XZOK7J00Ne6y0IBAaNTM+xMF+JRc7Gx6bChES9vxMyMbXwARAQABiQIf
BBgBAgAJBQJOnP8nAhsMAAoJEOdnc4D1T9iphf4QAJuR1jVyLLSkBDOPCa3ejvEq
p4H5QUogl1ASkEboMiWcQJQdLaH6zHNySMnsN6g/UVhuviANBxtW2DFfANPiydox
85CdH71gLkcOE1J7J6Fnxgjpc1Dq5kxhimBSqa2hlsKUt3MLXbjEYL5OTSV2RtNP
04KwlGS/xMfNwQf2O2aJoC4mSs4OeZwsHJFVF8rKXDvL/NzMCnysWCwjVIDhHBBI
OC3mecYtXrasv9nl77LgffyyaAAQZz7yZcvn8puj9jH9h+mrL02W+gd+Sh6Grvo5
Kk4ngzfT/FtscVGv9zFWxfyoQHRyuhk0SOsoTNYN8XIWhosp9GViyDtEFXmrhiaz
z7XHc32u+o9+WugpTBZktYpORxLVwf9h1PY7CPDNX4EaIO64oyy9O3/huhOTOGha
nVvqlYHyEYCFY7pIfaSNhgZs2aV0oP13XV6PGb5xir5ah+NW9gQk/obnvY5TAVtg
TjAte5tZ+coCSBkOU1xMiW5Td7QwkNmtXKHyEF6dxCAMK1KHIqxrBaZO27PEDSHa
IPHePi7y4KKq9C9U8k5V5dFA0mqH/st9Sw6tFbqPkqjvvMLETDPVxOzinpU2VBGh
ce4wufSIoVLOjQnbIo1FIqWgDx24eHv235mnNuGHrG+EapIh7g/67K0uAzwp17ey
UYlE5BMcwRlaHMuKTil6
=ecB6
-----END PGP PUBLIC KEY BLOCK-----