pub   rsa4096 2016-09-15 [SC]
      9976695FE98693307BF360A2F1591ABD9588DA5F
uid                      Niklas Söderlund <niklas@kernel.org>
uid                      Niklas Söderlund <niklas.soderlund@ragnatech.se>
sub   rsa4096 2016-09-15 [E] [expires: 2029-05-25]
      C50B5BD8C17C4F6BB0CBAFDEA563EAE925CE0504
sub   rsa4096 2016-09-15 [S] [expires: 2029-05-25]
      70CBD27438B34F5F76B4FB7809B4FF7904F94D24
sub   rsa4096 2021-03-15 [A] [expires: 2029-05-25]
      D80EAB76D2C381E30824E5CDFEAB37FBCFE6E410

-----BEGIN PGP PUBLIC KEY BLOCK-----

mQINBFfaW3sBEACUoP8yDc3qB2evsDR/na59o6Xkcq6WK/+YnaUScq+9c27ZMtSE
uRzLryYjXdX0IRV65uyVGUAjgY3MNKOw+HCwfvge7lu12ubgCgESiMqlpu70j1v+
yniu15cgF/Gn8mvhDdi5fzViVS6AOTEKdndJwQgf2WMC6XTmSOornL0Wq/YFaSKs
eUpKUnzRgujLGTyubPMcCLf+FjQaBWXoLTxCNbFZb5/Xle2UwndBKwLdMY8IQw0m
ru2hI0vb+BXsfwARZ0ahVO0kVvirSsZOvg0NZO9d0G7xfMWM9DgkKRfIr83BHnIb
GEFn66VH6BUDWbgS2l0wDhkpPtqZvp90E8PZM121wrJ1KAWApprKn3u3C0SAmenf
hiIQ0K8IiMj+1KmhTvg4KCGY4izGD3wMxVbql+m2lqWtyGCz8DKuDr3pyLuwFsGA
8LMCBQYUq3/WAz/5xFQup2ybicJQFkkp3gZ7Rz899/UZrb5JqujXZc+Io71vrEBT
0PqsSdCXt2QMXUEjaFLeWwaDohk0K7vgt8IweE573furXKsFXFhG/mNhzzUJfivf
LSoQkfVcdEdw5J0fVxijxwvYsByLZxpmo7n0PKNvcGVb9WXZR8+KnzIXWmlfe4Jt
WXlkQC8Yijdsc+yFqhmViwZcpqG48kGu1zxGIWfqhJrP/Aux4uI4zMlGRwARAQAB
tDFOaWtsYXMgU8O2ZGVybHVuZCA8bmlrbGFzLnNvZGVybHVuZEByYWduYXRlY2gu
c2U+iQIcBBABAgAGBQJX+lL5AAoJENfPZGlqN0++gf0P/A3EOhyKgVDz4rKuB2Qg
6gYo+Es68XW6MS+vESMiMeZBt/bfhx5kvZ7O2UmDMlwkWIUlWF5e3e/txyZMNeoC
jMrMeBb7SI6S4ybWtY+divSbkY2GbV/Hu+32c4WnWSdl+O0dCuXwkjS+18a+cCR5
WOzB5V0WbYnZEQnlAoEhL/UbBLd4T35HUEdQVjpaYOR3PR4TVc4inUNUl2FbnzX0
pzaHaVMbp7H9WyqSH3h5WOckYnJrshIp/6RHm+d2YiuywUTJEH6DEpAYZcQN0HAX
BhjoE+c2rUnzBoWFizSktpMln4zjSXQZ1h2U8sMXhtzvjYv8bVHYeOwQAypZN4Gj
c4HP660cI30+mVis95E70D2KEK/c0F78sO1azZ/r2SwimzJB5g4hgxQTZpUAU9Sm
q2s/il0lPY5UrVVcfos9WFy4fckBvZKgl9mmvQQKgSr4KvxxIyEah8/sBbvw1hpg
NKVjoDll8/wZ8+mKFprH0TGVZl0DspxB5dza8+h7u5/LZZ2RRwRctUWFDAEgHByR
sqpixVBSGcLEG/o4+UmG/sBOmQDx6jZk2C2L9wC6A1565+XXLfWpK+b2HILnLWST
m6IewyglJjB5kxQzsbfR+m0CYUpwXePorqW5657piIaZlKFec0nShhEnSVlTEFbV
pm1S5G9atxHK6nY+NhBdGbMJiHUEEBEIAB0WIQQnDNzTW51+JsLXIJe/U61SMIrU
7AUCWfoTDAAKCRC/U61SMIrU7AzaAP97XUslnItAw62HsXCgGjbrth0jo21wRHWE
rJwEKnB+aQD/bLvYK7YgcW11OPWs1eZveKG6JWHHabFDvDgB3NrtYTyJAhwEEAEC
AAYFAln09ZcACgkQ+zc9RfizbSg8/Q//W/dsdpL+y/1/7wWWsjgdt4IPIOXbc8wK
coXBYqBKWSllJuPJ4QsKIqTFbujz/tbghBnY9cdxPPV6o77tPBTcaAt2keXn1RXx
9UhjC6dqTGl4lluJg4qhZU1YdKO9Bf98eM8tpSdARbHcmggXneu1vogHN20UOIjs
6krJ14M6IOUOHLwti6fzxaQU+VtWkmJgkAyajNo1zUQ7FlkYeljl3pxkZifvEGtN
VvHhPz2ttrPqioNbH3aXo6Ly2d7CiVLes3roHejIkU5E1GiPlfxu0ABlehSmJwNx
StDgO55hp1XE+rsyNPJGFxQfSsghbitanYVreyVF+7zuQcl/JtGYeN6TCzPOMvYC
XjH2FOt7npiCysqOb+xxn3RbizV3KzE8+unMILeI1Z4zrKzP/EJlL7EXyMe9qH3q
cfQyYN8KR9DcSD12BlkdIaEBjRDOCWnnd27OLXXhTNn2YfooY2sePMCiIhfbOLV0
SEcQSAn2lHBONagcUk20FXzSiAnS+pxstXRcckOiILEwDZg5gH6l94DfO+auls0B
kIKXDTAimMCUL6pCNxKKH9pvjoe1AhlTLk8hKar/P7IbL23g4725Pg0p/SWMTUAZ
Iuu9gpQchVn/hkBIydsbAITayOKemxKguVo2mP2+Xt2ENJtK6ZAZc8quINbD0VKW
h0jSg60I7L+JAhwEEAECAAYFAln26mMACgkQCF8+vY7k4RWRrg/+M/L35rpEwxGt
gExfst3xDx6UhBAaBKmXbD/jhtCWV8PNpdxtSZSljN0RsLTaKe7rH2ApCOieUUhk
DaYnEkI9ox0lmKboaQHhDcYopXnpv1r1Z9hpRv+6bSu/RP16O5WRQwH+NJHhGqbH
voNp0Us0qrEtfvrhlMhilIJ6OJUPvQ/jhj+5/FYicdcmkofWsUiG3k7UkcXdSfGt
B7TNKs791b3FWc8lW8VF7LSKjMo2VCiuJMR6tfBKSk+/XNow9QqwNSONznDX1Zf4
0utvZRrOr9cUbTAxEVkoMnJtw0sx66US/ytpSMrgY6YuDh07LmhfkxMSczUlrOaA
DiOiMIQZSHcYcPSfSeCg3yITD2TOkbYAbTibsQ2f85C7fpYFdmzXmdGrdE0VPUje
3sIVLV4dOvdVk+KF202r1cMBJfo2VTVrFPyzksd6PgvN2wouwn0bt/7DnNXVd9uG
RYGSvUhKUfF2q6fJ0CJ3UOREQAejg7E12E4mVG20X1Wxl6aAKfsLcHTHeaM/or4x
6qDmKexN+UWCITB+f+YpSVnvTNSuspx5tvBI4y0O242qRRSoTaYO4IQ38mmXHzaa
tD6nA2xDu1CiLcZ/vpazNGb0XbDNUKEJkg9Pco/FAoicoAcs5zm4XuiZ0nbwCtY8
ku66n5AObcYoqgd2jWrgLOgu5IPlMPKJAjMEEAEIAB0WIQQ6WmYIh9nsNNZi+ycE
sIyPFST6+AUCWhl48gAKCRAEsIyPFST6+FpCD/wKKtt5+KnJxPU3XFYqkNrnx5pQ
c3tpkiv+X3Z06JMO0GgUgFqgDr3UckGeI10p/0AoUoJvD66PDOA/sKmerffZPLU7
kuI4RryJa9VeFDeLjPnZRoxE2Su71r5VdB0N7MpOzI34Kks69csb29UmIvWvkk7X
xQcNWkuamYm0DGU1Xn451hFuJ+CZlwGl7WU0NpiJWW9m/GE8lWFDipuGwlTCMi5L
/+Be4IJDB9L5JxM6up3ShLK6mUV+KttCFkXnQqwJz6PnKHmCmQZM+IavLOajiOdo
8mL6tQ3e+eECkJWwa7qaLlWh/mcrgtyXpw1GMuH3co7CthSYD5jZ/Ho4+xWLpCdP
r9ihzcT9NwUgv5Ua+5mOmBv2t9Q64M7grVFaZL6UN23pYIRBmBGtPKOqXaVzrxL8
N6NA//1J1X8O5/AmvcvaBpXd4mctdISR4DP4Jh9r697DwY4zHzuwnWc6ekS1Q9XB
/v7DRSu4lPrcNwORRKgD3ZqG36qfWdOv2IJmvfKXUVBUKMgA/29A/72Cc2v6omSt
1pBXkbb8SgGlkeQznD3YLgtrx+EQVSZKUPtn7VXQ1t7dtX8DVoxil9cy2kD5NYdG
o317MZ6PiuJlWcDxz6d49gf+ao6p6MFCaFyqNboAhhHoSAtGttrShJsGKQfFILM5
c8wjK9rLTl+RJnp++okCTgQTAQgAOAIbAwIeAQIXgAULCQgHAwUVCgkICwUWAgMB
ABYhBJl2aV/phpMwe/NgovFZGr2ViNpfBQJbztxVAAoJEPFZGr2ViNpfrm8P/iJt
oA8ON6/0ztdgs91Fpf0fPK3z5FvKIHu30vKyl5BxB01o/7NaB8AakAPZPrrLl6ZN
pu2DDgnEszf3XMs6bDs1Mm0gOjp/QhA6+y6ZrKsMrDTTNO1ChVb9Rq98s6Mw6pTt
X6fACoQb4id0Gl/0MZGOU7ku7xXv6XjGiK67KrRenZeX+kes51CxPW91uU+lezMJ
fusQ+UNF1ZjGDZ1NSNN5VpmHjD/E2rkctKwer6f857T4MiisJ4VDQAy1SgJG6bJ1
YtCFjjoMG3nES3MIE4lkxBd6RqE6jm5tcqNcdbvFwkf0Y5ROvr992FXA+Bc2KTmn
184XAeIwk2OKz1WLl8s7a4GppH4XjMPAr2LT+cSzQhxpk0+muzWPDZ8rj5P6htIr
unz9yYm9RmDZdbMkI4piCB1U+vGCCCt4wEEcAlWSfVlDyp8ppubm6fZFPRjT6r3N
lNl6BCeHcjAokMfYRtFOsXEc4ni+atFc+CDOnj4NfODX4PzbcusC8O3/+9vwyBZ7
uH+0QPN7QdsiXRFVgdrjJKBqYmcaCtI6XZpujtGO4YgAA+egXlJVk81bnO9EzZDx
hyZ+gQBhP7s1zy3ZEeU6WzZNmQVfPgi8/KZKKmPrpktd3MGfyzm88HKh5yvbASuy
PZX2bHLE4122Qp3E4Da9nQMtX+Sp2AFRbt/SkOBNtCVOaWtsYXMgU8O2ZGVybHVu
ZCA8bmlrbGFzQGtlcm5lbC5vcmc+iQJOBBMBCAA4FiEEmXZpX+mGkzB782Ci8Vka
vZWI2l8FAmVT5o8CGwMFCwkIBwIGFQoJCAsCBBYCAwECHgECF4AACgkQ8VkavZWI
2l+vMA/+PV+ekSIX+/Kw+JZiuOaqcFAxsnSf90BPVCYxVi1qunTuXEvx2Wr+Ggec
DcvtUQ1Bt/WbLQ1YvlvRDy2CDNmL76J/Ptl3pKvcx0gYldzaS0CTSgA+JmLipBKO
8LX7XhULp/c7Pexa0AGVNbOG/CQe7zc19FoUAIdpmN19X8YZf0A/E8O6kM39HUAj
6TRhTdqT6ojxwE9/GkJcbxHrCmczs2/6gj8d5Ub59XzfrTfmaGjZ1C8BjYzxSwGm
zN/ThC/T6FxcNFVwHRxXa0Qa60N0YtSrzNfCOK2eVNA7YAk6iR+5izkM0ZqjUKi/
EawBQqT5L9waCe0qDx3qCbsY05iFYdYK9qd8jUKfzNxrZlDugBdvGGLcqac5B8G4
qDSIfOnr8tILyyEQOQTCqnwN4+nI+aDkh5z1ph+HhzErAYyghSE+ZrtanGSJTdDz
LXnvJp+tYWTboBm8OW+Va20UNdR/u1+gcC/cgm62tYEfQYgsXH8Qr1akFMwu6zv+
VSwslgI7fbHqDJVGIIydOBDZDB9D9/3dL1s/Nrekjw+LGvnKzrb8Bu4bbiucJ4G7
fhwjACBRy7lARnVV+qNoBrGj13RYJfOgrGCgk0IxtDosqU1XNPxWBlNWCNpD1IXt
YJi47if0pvNOjnIwPKBNNuAJ66pdTLA4RrP8wRjHMozOawIQvs+5Ag0EV9pbewEQ
AMomRgwANAd+F9Mefaj4rcfNgABzNnODqM1sXREc5Wk51ayzYxkUNNOspats20wK
LrLW8nQYv+H4FX2K8QoRYAl23g2CLOCmblL/Ncfh1F4Zd4+kz4pXBXmeUUjhXDfl
tUwnk+rE24BaPymVVK4vjOISLSHK1KrLUFYrb4tfm0Fo/l4QGKcgslT+TyI5qr/Y
fsCZZyYOD2ycaBse2BGy0jst7LBJojSb0ORXpyXkPKtJ/XSFVl0pB7zcPJXUVqZ2
LIpoDyUWIGgsUuhTxavM57Bxfif1lYdTdtOSPxpQYsr3kVPogk+chGUNgkqJ8GEP
iVFGdZG63/qDVxVkrmdc26Qyhs2XeL0EWD/PuRsKa5yQNCA/Kvi8cLO/XL3s25+0
8Y2z0gKakw6NApAASx31UuvjD2au1o9MXznnonnwjq6Nh1sie75gXymQ8EejooX3
fVq/krYnVxSM5tkg1P0xTbbWZzJkA5sqD0g60MH/R2Eaz177C71KrjxrsOSpAB0Z
iYgywVl/N7uHV4z9+K/OEFtW6WUY/i2fcRYkYktWmU+aq9oxPDqMuFTYK8guGf2p
sh+spw4vjX87Bps3QaGbPWt+KL4Tb+msVrxy5bhwu8jvBgukpM2EsjymUHyp36uj
FqFDVLkBue9a+H7T8oW/7gMw3E9GzwBRprqSuPtKYfS7ABEBAAGJAjwEGAEIACYC
GwwWIQSZdmlf6YaTMHvzYKLxWRq9lYjaXwUCYkR1uQUJEHCVPgAKCRDxWRq9lYja
X5c7D/0WPadshbWfHJ4VZQsL2/vhVGVW0M0mH55YycUc/6wkurc0E6NV+aA4xvGv
jTBJAJH1v0cbbElFed9Qbpjdwmb1FlWC+W6cicoQRWJf5uS0t7bT7WUDIMRwEQ++
+uI3wDloTez6/0TUIYkps2GWBXpxsTQDh00PV+yABweumXCGZZzwGNq9J8LQbXJP
LwtzTiFR1n4u8UNA+nok5uzufhIYTwauDiTonExUzLZ7WqeIeIcdHH1LJpSDY1W5
7Ofphu6zJjs0vp5T94644YWcj+eid2zti81MU2LzaqmV7L8zP5pcCIuCVMtFYj0+
TPnEi6J7RQSTFZpwX6PCpvAVi/bT9dssbNOaWwen4JyRzSBxsOgB1tFoYWCKokiL
QD08igBDL+8oyE2RDJrlTtQfaIJNib+Cc/e3eglwwy/gqmABqEoQ39EUjwMGle26
wU+fYcTz4xHVthzoYUkDX5tYaPGbbmGxb6lTuPHAxTLzO6/eKFeWRu8bhnpeasiI
IchKqmj9W2VxbqR1HMo48HVxKr/yffV/4CALvOP+AxPlXiaYvusgSPlQPwU/f3Ys
rIGhS7eLymabuZnIPa9n3dJzQ9EOtbo6aM/A0CQMy1qrfhU5fpMxciqDnuaknA5P
ITyoYWvTmtO21Udyi7MpTgqskyy9kjhaVlL6eivKOYDWbeq/KIkCPAQYAQgAJgIb
DBYhBJl2aV/phpMwe/NgovFZGr2ViNpfBQJnU1uXBQkX3z6cAAoJEPFZGr2ViNpf
Wz8P/jC2asWFErzehgJ/7XL64bALdwKbDB5vrVg7Bxhu8Ynn5psjy+lCIwtJvgo1
YDpHIdJTGXgrOIGZUH3utuFOJhZwtE2GNCvPxbSWRejHOdIb/2SrPftd340aL1x1
aYriyCDOAdpz1jjJ/tG4xgk+tLsi8BhOHXBgj/XGisNlkhWaC0nb+sXBRDn4rOZp
qiFSHTP7p9cuQ+RwVj+bmZWje2MOvabP/1LXWGkSozWSIyDKbN7uHC/g3SGr5NjP
9sc9oSL8zRs1LI35DWmKkldV3nlqpyTZ7OyGZRI5AuI4oSAZUOOBQhPREX+gp7hg
Ty72Z9/X4jELmmfXEA5gDIxkJ5hMFV1hg1S08NeiiKg4gNoDVY6MdvL/VFl1z+6N
pajdTAzOfVx3qPfZeBXnQ5zG8D3IotL3F4MNh2jYRD10VOO0SKewlAp8a9GAyE7L
4fCsRrXKd7KlXu7/VXdhvMX7Vr4YBtHWrFxi28ku7Fjc8hJhu48laZeGIJZB0Mu0
MY5mlnnEyOfpnSTYXbpyhkiUS158g4AjERfCPKXtcSQV8KHW4Jm+12VAQq/ZHCR2
pDKhoRcNGwEMxcwLjZMhOstCmzlkXmptZWP1slccB7NhTFc0ndWo3PQxFjk8Ks5l
Jd1L9WKI3omJS9iT6czI8Yi+kD8Ap/3641ewoHxwH/9Y4h7huQINBFfaXZgBEACT
RLC8ghzth7HfzaJkCc0ysiG8/wYPZPwKsxh05lXv9HfKdruDLzGsvYd+TjqDTEZ4
XPr+dwY0xHYdsT0o7To3F/qe81OG0zTLjUWl2vxzQlzkJIlWpoqOXhKT3tn/ZG7R
XZMkRWAF5UAGNUMYHeMcs55MfKnhV1UiLNDhNhggQ+hC1iNdkrrrxFTW3mrDlNAF
spitQ8KZ2HQonYRq//KMU6WYGBt3vSk+8vIkWXdGN6gw6R6PkPR0mpjxLvj1P/wk
tGaWSaoVVMAvRVRoeiUNnXrYtrsgUCiZtcxl8n369V+WVUuv4gB5WhXEeyYWIo0O
mZRQv9V8K/WqskinsZKbsqRgTZMULjmbR/82H+qJIr5AQyASfstRnw/cok8cMzDi
F39Mjj3xn1PhFN5lfSxiPtfZ/Kx9urQSs287HKIwNk9UM2muJC8rN27Mfp3NoDft
YbOlHs6Zg9DQEB9IxSAy6z7b28Qtrj1w30VEBruOFO7/0Vp0jITA5yZhr/XF14m4
OGqoRq2oh2ai8z5WnIkGn53xNwQ5IEySJqxbTi6MHLdaFdxJWOkdcEEYaWxTqwts
sdEreBXgSxv3NFZ8Kot9wuU3Dbyz6FSdvS4lZ2BPEasbhSTg57Z2+yZ30HSzFopl
5BPFcEXbRiEdnKeF3dtIv7oLuqLR3Wz7pn90BDGjswARAQABiQRbBBgBCAAmAhsC
FiEEmXZpX+mGkzB782Ci8VkavZWI2l8FAmJEdb4FCRBwkyECKcFdIAQZAQgABgUC
V9pdmAAKCRAJtP95BPlNJHYwD/0bIaHh4Y/U3YF2Eho0whmJdmR05MaJeAD/cvCG
ArvvK+oQkq7g/jynDlQTkFNIYwP+1W/rjc1s+cSmDFfpKJv4eszycfJHSwW05f44
ahrnMTt9qXvFnvIWWEgx2frJhUT2edei+i9bbBktt6QCT4hzsTCNKakg85eV8mLZ
hFjtjZYvA5cUl9cFg4zEfzpnrgN2qjjguZDrFOPFkTiJpMslhqjWJI7si0jtUg/D
61lvczUjps9k5TicxxG5ADz/HJ562hKc5Js5aiC1nTbs8FH2kGKcSTXLOVjb1mH1
2OHsAVf/DyTm7iRXM5pK7N56kVrN49mPesStyqCH6qPpgr928fVReGM+8v5Xni51
qh5TuewXsTypso/iix4VNiGmKMV927tXRns+431alVUXtOWbrNXiOJDKgSITAz75
DlU3AtjEf1njs5rBGEIqxDonA0J83RBCIY9xZP7cU9ooEiEoBU1QBHw5uTsBTty1
NeGIYISi/mIlCxlzmryNGiyv0dvzHsEHjEO2/96vl11S7G6FMlHr/SxggL5OJ8N/
+XP/YyjaNowyLlDXU4jn8mpSsYOwNtM/YpN6eqSnbSpl2R6hdAuCBjDIly12L3+K
pjNpOLAi8VVtY57CAalXO/MAQP8YetTQrC48sZpxsp7hFhKB0d9lsAvwcsug97LG
53O44QkQ8VkavZWI2l/5HBAAgnO5y5yltvmMIy9Hakpv4jQKcFLafj0DAKITJ49z
pEQvutfdmHVaEvAKBNON7TAR4D7w3yglykyBjDv7WcKXPgzeRI/b/bkEwn7Z8tuu
HzMm4Huw5s6owyFqYsvjQr6NlS6UCWtHt9oN/HC3HW7KXlqd4JHRDtvf2yA6nFt3
k6dtHB39ieNYwq85aUqKNCQiE4xUJ50OmsI3SHcy/FdTTMOAIebwSKty3aPLqSOY
SAD3Wo+mC43pcF1iEYGJQDQl/4NJ0mzw6VyzcobQ2RSmU5ce9N2djDNTfe00sdC9
O5HfjJheyBhl2ug6unoy8gFpH9EEnU3dZG0UmMZ5ns80bsnAbhcJgjadk0BcipOj
YTHDYaHVGVC9pKOtu/wpD+hY0UeObJ/0k9R1Sz2l1hhx0bP+ow+/eGTXLK1Evr3+
CFCUBBTdR5BIk+M9SeJH+AKjsMKeZvJAApRBHxIY9DuadcZ7j7oclcII5nvlk/KF
mSgzw9jf02S8IFxSz/rHY37r4Y4xmjRATY9MY8G4PmFZlO/P6XGsLT+niyvfxh+Y
HGHrOd+WhNuewNT3C5B51b74A62nZqgzTvbnsr5k1zLSJvbbi6C+21hhw+ANcsz7
nuLDg4MYKO0Vm6W2tOsrdBMYB0T/0ObsPjPKkzod5+2/0MyiO6JbabuyPsV+2H1d
kCSJBFsEGAEIACYCGwIWIQSZdmlf6YaTMHvzYKLxWRq9lYjaXwUCZ1NbmwUJF988
fwIpCRDxWRq9lYjaX8FdIAQZAQgABgUCV9pdmAAKCRAJtP95BPlNJHYwD/0bIaHh
4Y/U3YF2Eho0whmJdmR05MaJeAD/cvCGArvvK+oQkq7g/jynDlQTkFNIYwP+1W/r
jc1s+cSmDFfpKJv4eszycfJHSwW05f44ahrnMTt9qXvFnvIWWEgx2frJhUT2edei
+i9bbBktt6QCT4hzsTCNKakg85eV8mLZhFjtjZYvA5cUl9cFg4zEfzpnrgN2qjjg
uZDrFOPFkTiJpMslhqjWJI7si0jtUg/D61lvczUjps9k5TicxxG5ADz/HJ562hKc
5Js5aiC1nTbs8FH2kGKcSTXLOVjb1mH12OHsAVf/DyTm7iRXM5pK7N56kVrN49mP
esStyqCH6qPpgr928fVReGM+8v5Xni51qh5TuewXsTypso/iix4VNiGmKMV927tX
Rns+431alVUXtOWbrNXiOJDKgSITAz75DlU3AtjEf1njs5rBGEIqxDonA0J83RBC
IY9xZP7cU9ooEiEoBU1QBHw5uTsBTty1NeGIYISi/mIlCxlzmryNGiyv0dvzHsEH
jEO2/96vl11S7G6FMlHr/SxggL5OJ8N/+XP/YyjaNowyLlDXU4jn8mpSsYOwNtM/
YpN6eqSnbSpl2R6hdAuCBjDIly12L3+KpjNpOLAi8VVtY57CAalXO/MAQP8YetTQ
rC48sZpxsp7hFhKB0d9lsAvwcsug97LG53O44YLiD/97wk16wo/AiIt0gJ3FaAi7
pT7GywtsArfOFzimPCDmN0LyrBqOPys76H55ERHQ7OoymqrakbwwyflTQjVijPjY
K+Rgg4Qn8DjfTqnBC2ThVUPD1e/DicQAViNbhIAz4yPPOm6iquIuS7sNlAjYzlGV
QVWsQzHWb6uL6YHFqI0QBjCUNPFstE4527IenzD4PdruO3jilQ9KCGzKPQ4+2e6Z
4fL7cIwYZ7pxJETaZKzusty8P9S6wLWDN3Ko+Nz+m2J22DkjmENoiw2AX1fFKI+S
xmraWVKplIhzI/UOJYyPfrEre2W1Tg9qNpBtSkR89k0DBpz/LFSEahEFO5p+0AUw
utYezzTYqG4rrXtuGKhNnLQuGeGiBAC4RQwGlQVah7lEeMcaLht3MgFnaLBDVDXo
5jnHtu9W3Fc56sUfVL2KDzGtMSzUdqquEbCY50W1ANz8lIvNuHzokBhUQ81wvJKd
0cMewfig1GqAKDmKnbNnhVsktzOKWbErdMnrvOPUvajm+D/2p3TBOPy6S+zeDYbz
iCoG86+KoQxwqRre7lH+aa51twIth0l7e1Qh3oiDt2C8pM9mengfLdDWPiZ9Yezk
hTHaGsuyNfu5yltZcRJ/xFNVRvMEZkihH3AEeCIYcGbYiKry1y3fd3eCk7aLUyvQ
DiWxMKbqEeVqvAIZwwLq4bkCDQRgT4PzARAAow2lFhTyHZClUQSYcCu7S6zVPRYg
oCxvihBjX5CPwsOvUCdb6BfeXaZOULS4wHCaUD2l5DZSbR461Aln11+F6L6IXS7H
SCViSnss0BaX1Dm0/i1bYu4Wo+lJqUUIZK0fs+FZb5Ne7tGyAtodCVxYQPfGWRjc
/J3q9tBMWFlZqQ+e8RmgqfuchTSwPCdEBjDs3SBnUEr++Y3LezBon5/4pxu11SgJ
i6L0jVuNgVUMa3fwOeZQu4kwnCM05eQRMn/ICQX3rHj4bWiIojMzoeqBYki5RgNT
d7C/ijequMYCTH7/gHugD+u2C2t21SX6MH6HVXwj/aQaoDVHuMUfWGPsDZqUhtSW
3ZB8rzzEgwAFtnCdC1LVseVYFMJvyiC19GTdza4cBH7DgbOebfllOvcCMhErHSor
YSRses24YfSPRMH4voEiluHqS6T06Rzn419YIz4bDYCoPRNwHsKFlE2JdgmCzrAO
A94j11Zsz5Q/D6oyT9/6YN70aeqYkrewuuskBCSO1+4DRv2crAw/kSa3eYb0xmbR
1qznWoa2EHN1xKMQLQ2Q/0uIMVJe2fitZ2l7KJQ90Mda7OMjE16i8OS5yWRMCJOq
zQrAe9YaFEeiVHgWb4T20Z6FMadp0Pr7jFd8D7IMk/em8ENhPXlhc/9WQCdNyfbW
EkGDx7NcHKuIps0AEQEAAYkCPAQYAQgAJgIbIBYhBJl2aV/phpMwe/NgovFZGr2V
iNpfBQJiRHW/BQkH+2zGAAoJEPFZGr2ViNpfkdwQAIXcs1wQ6tIqxhDEkH4qEgwf
n/dbIZRfhIsEUlEdJBkcZSpGXutNl1wT+MSX8jy9l9yhAvSEk5mwUjrOAo1Ktl30
pMeDwD9z3telFhWRuUuVz4wW2AIBuR8/clRIvhcvL6PRjY1UjhxThw5bV1Cj/ROl
e4Lp1bPvWuSoeV6viffcdwnK7veHkAjBQWhbp7/QwYt3ChK41L+MNh+/jmRkUDv2
wRzp+xK7ps6l1V8FiNo9rnU81XpWHbIM3ra38D4mCfIBADur9JPbEEJKvTIkJsoO
8oSn2Lam7jILdy2KucuUAUDxy1v6r1irzcrUPySAw/VNT+H9DgvyuHt6jI+KngMg
7+hVWxAla8zJhuokq/1fI4nvJoyPoW3S8ujVvMJYLDzURC8JOJZ+iYh1Z2pg9jJ1
afGRRIzzAk0qMRX5PjpegLKOrg+fC4YQbo/tHpvbbfp2BQBP9HjBTgW1suG9GVuj
Rcf2hBHoQz4cuiJ9XyRhdLHfwdScUj3RNXoqEgPJZWTefWvRKtp2IZ6y4t5Fx60G
sN5AJF+kzlTI994ipvIthjqKSmX6teJ5p8NrVNHpOeaVD1nbZtd2pnLmaCalgqcA
2KAi7zED8tk/ATT/dHOh8/eSEWU9jCJl7t1HXD6AdXs2Agxu6Bum3PWQ7XzUSDbZ
kSVeIfUIyTGvFc0Hr5WliQI8BBgBCAAmAhsgFiEEmXZpX+mGkzB782Ci8VkavZWI
2l8FAmdTW5sFCQ9qFiQACgkQ8VkavZWI2l/blhAAjvRklBQ+nANHjfhq/5BI7QQ7
681ybxvEVJC8C86/AVokkSu+z4G3nhBzGE7lZa+MJiZqvlnjnzOQIEBOSb7meU3p
uQDw6sRZ4lFxt37XgSqgmsIFMT9RXsHa7vqs6RA1J6G2Axk9hBukIUxIFglzpCTm
u+fCtBAjrNxcQumgaa5V1POToJ57CgW58GQy/s8a3mjgM8V012poqer/eJfXSfHD
SJxYodYpFiwRY0hy5KcKdcgWJrxeMJQOjgm3PJDCc1PXYm8UrPp/7k4NVrWlVS1V
FAG4LJtwVzXkqkRohQzMYuVze4AqKzMM5Wb/fbBvAQrkXoazWABhX9nQHoZdjAGX
ngPLM6jP7Ipz2pMfldhOp3fItYRGJSLi0+j7K1LeaDhs2JSkpu3RjPjbzg5JzsKe
l21ryCn94FLIU2mPEaAIeqDj0u3sDh8PQyAJxBUCgVCUH2ZwpPZTWC7YGzFeSFL9
4Uw7Ug1XSOlbWJ3nC1Ip3y/fmGW/M1WmervwHmXOsdyRVwJqzVrR8VdpRFROmOoG
2riD98mobJw2DBJdM9Wha601MsaM9aSNB1f/xtLMNencFiCnYtLi+QNHdrU09Kqb
j2CurjKhibeOLwhBqf6/bcI6CvUp4qkEMy3Tsb2bZkeli6RxeNBefQv+k1BjkVBm
8gMQvT/svD/mgjSyE1M=
=doGj
-----END PGP PUBLIC KEY BLOCK-----
