pub   rsa4096 2019-08-18 [C] [expires: 2026-02-18]
      4A5A711E8E7E44F9F12F2CFAF903332F551A78E9
uid                      Vignesh Raghavendra <vigneshr@ti.com>
uid                      Vignesh Raghavendra <vigneshr@kernel.org>
sub   rsa2048 2019-08-18 [E]
      201251F438E2DEE4F6C8A882DAF4FE932C03A266
sub   rsa2048 2019-08-18 [S]
      C910B6CC08467068EB862344C4461E457C9116E3
sub   rsa2048 2019-08-18 [A]
      3D261263C8A6036761BB0890FE2D68454F77363B

-----BEGIN PGP PUBLIC KEY BLOCK-----

mQINBF1ZB3gBEADLf+iFnea0RjdGR1x1wqV8C1cJ/Qw4j/TD/5tqI+qOKC7RIdxc
HRAN4ijW1v3mpcj+dB6TX9HV5Frz9KxsFGwcKP5DieT5Qeia+2Rz0nAO7h8O/FNx
WrFg96AXn/Jbz/Vk9trQj98zPTfGWStaNiqHsbNbz/my2hKtUlkI0NY53aGjJX3C
zjIqcQBJPaYl2PNfZW5ybwjgyW0n7SDhGG/0vqEUexQ6IWozqQSnjeMat4sTjgK0
3McABFaafWcKrpGwR8x8F3sFHq/rGzLOJLUaC34zWls0KDP1KmhXhCX57N9PgWUl
DKo/gcq4u3RpAzLVsKhOS0SMccpsX6+WVIY7mXu3BH4fnmTmUTBm5HN5Bx/DI0I2
4ygoNc4X7a9v63IQmWpf7iv0RkK+6n4Rm6+ve8H5AVeDVX6yw+ASo0tBZIM5eJYx
uz1TfYWqq2noO5bBmHjzHlUgwKhISfuI1IyF//TiRvLWXzIwfo37xdI0ZEaEfFfm
xLCAW8bH5Sh+0RTaw1U9DEHZMpwniuuSn5bxCE9llWdCCRmKOXSbQQ2WNhGXELB2
GPlKOOPk5CBdzwA9jqs8gfo0VM6cRxFFsSNDIe3JNV7dw0MBeqYs60zv9D78qCR7
zmgzkCEPDFT22tU4I06jRV3PTP/YD+TNwpBY7rujDpPscMdGxL0NuULRpQARAQAB
tCVWaWduZXNoIFJhZ2hhdmVuZHJhIDx2aWduZXNockB0aS5jb20+iQIzBBABCgAd
FiEEUXMr/TfP2p4suIY5Dlx4XIBNgtkFAl1c9gYACgkQDlx4XIBNgtlV4g//dtZ9
kvBg9cXdgdg+uvfLbH16qgKbEGVLlJikBDio6h9gDE76KS+zVxc/O/r4WuHOFUqm
ZspCYuXktPRlBfH2QU4MbxmGpFeIjPg0xCw+9EZ0sBeWm92QzhmrZFmrMMKQy2g3
j8daImip7YNu2Fj/GPKJinPNbLbO7rSt2sapcCRv2VeXp15r696Cp3GCI0dcXzrq
Q1ZBFMec4Y253To+akIPG5y5zgohJBiLwY5rA1ZEQHUgNmI15H6l0DqVk8FFaLEY
+d5trOByVnhIvHs7pGkXCACuGVNCPuLB+si06WcMNUgIPjQyoXNUtGqIILC/HOVS
wQ/1eaDRl74V8ZDoVyXnk5DkeCsqSFaO5n/rVguaDrnrLn2yjKbBj7zA4LipLKX+
ejLpeUc4W+F71XX9hlqBgFEII7Pj6jnVq+6kObz0iea6URVRta43um43HFY1GPf3
/w3Z8GCS2J9Em5TZXeWZ4FvImEXcq58q4ELmzjHDbbXDrkIAlZJ/BK+ANxAosQ/q
AelbsfxW55owZvZosoBfFRzCHgR6JWw/nscHxzVBObMmpTtKj32jRTgFSqXNuvM/
qhT+EY2XD/KpVIQC+MCcKwblhFwCvU4GM93xjV6LcDYeyxKwA0qBHBzW6QlYN6E/
XKSXPbw4eq4tgVH+AncpHHg95roPme1dXwFoD52JATMEEAEKAB0WIQT0e5piduYO
Gr9cgMglauoYR71WhAUCXbr8/wAKCRAlauoYR71WhG5fB/9X86nuQ+8gK7fYh5Rx
/R1oB/62ZzcuuBOFOAATNOmiKAkAnzLK2iIGANt1Z6j2c8TRVcrrGNp0NRU8peq1
4gwwgGkmtdGnkcsdHyeUCrXCcZdLvoT9Nh3qmgOT19rQXCYCq25HHjfIkkRTXCgD
rLLmiWs5ljMmlifFYqc5+TDvRsKm7IVMGDG3m8oz4RuAAud6aLiGBf23sHjCHCGk
0gxClYW5U65q87EONd3pAnM2PVyP3pnRxtA5jQxakhfRwM9zz4mTiRisxOOLi4vq
Jgu3T0YzIWy4jsmLN5RDa9wJM4WIREybJBFQjpFyuRLnka8glKSAGLc/m6A/Cdah
cLmViQJXBBMBCgBBAhsBBQsJCAcCBhUKCQgLAgQWAgMBAh4BAheAAhkBFiEESlpx
Ho5+RPnxLyz6+QMzL1UaeOkFAl3Cpm0FCQnPoHUACgkQ+QMzL1UaeOnvyxAAszR3
j+mxgrUmP6Qier3fKcYeIvnV5FJHkTilqbnPBikWOfgxxLxA2bUpPFo8zmrj6cba
jgvj9ysJr+TN0QgfzwXp6Qv9ItB8m3I2Pi7nM98+pj7K/6yKWcdqcm4pwCCb270a
R6CkksHHdCc2DXoIBGxL0v4yz2m4msUPMYZS/jGhq96Zk2MO6q5lUpN/uN4SS7iw
ZJPXOrziCkGfDUHVnWk9OIqkFn12IuG6OAl/c8qFZFpG2LgyXCpvJ2JefHNfuij/
wrHg8rMfZAT9FakEdyllE9U4q1Mlwbu4j1lmqhnXxi/eGiLwSE5pbOspChTS2D4c
pE+BE67tReM2qpKX4dGeH6ZC/KN70y7qgNKMufrSZ8mWojSPaKFcBSwr0D6+CBWr
yuRZYPCH6Rgb4eBY6ol2GvW5ETMvb/6FSwGLZr4WhXZ5i7avRTaEC791LoIjbh28
FyN0i3vRLH0QDqKaivVe+tCTxavqM+GGYKQgAYFZS6vC/TIqTaDSe3wGt6o7ij+Y
WFubWERjzBrPE6pMjMnJA2fSvjFqNgw7KXF3EZkXmRXLJTCy94yidc8AhIBvohvQ
43CqQg7OzmICxJP+2HKcvL0kM2lKuKnIjxKI7vmDJf2TALmThmJShkaCYgzrTBr4
lx8WJZ2o3+ZW1YeDr3lMlBiE2G3NKEtXciz4DLOJAlcEEwEIAEECGwEFCwkIBwIG
FQoJCAsCBBYCAwECHgECF4ACGQEWIQRKWnEejn5E+fEvLPr5AzMvVRp46QUCY/Id
OAUJDDywQAAKCRD5AzMvVRp46dNqD/4nz9+RQFLEjrOE7hHurzUmlJQY98thVEpX
a99c9bY5Cgn69znj9qobx1ORiLircmjLmiEn6qaRimFXhQruVCJyXjLB+Iq3MjBU
6fhn1Tj5V9YjsTZYwTns2opscEtQwtLCodFsBGDyAfDHs2MbPt3ntNORl9bzO+7v
oKs6YnYGn+h3sUMvS8lkP3rybnZJCv7I9qUdjSSfc4bB0hhW2G1807B6HQvZO9a3
YTobTLKQypkCnCEKAaE3T82N+LeBEIaiEY0eqE4voHYey0jcbw2aCU0U04jZJgbq
vf/pfm8SRcI2ObFrotHSCjIgrAoZfLMjEJ/HywTkGk9OYjp2xeuP+2Zv/t71Ih1K
2FZDS1/Uy6UnR1w05J4DXPPMGmFy2JbQC7IO+mL8eqTl746zcGgY+juFUC2MbPyE
v3SxFMB84S8y2yB3lhDCa2qCfhZWwIO5K2mPmEtJcYDoVF6A+xV0/wjsNM/tA1jb
bLLWSqc5ioHqZKAjzvsgYq0Qc3MkO5rOE5WjuYBBBuOxyMW8jiKwvoZTUADwsCx8
hcanIarvIf8ZREen0Vu1bM7pSdjm3CTTi25KTchUD2kKkghNJDW58uw5VJgJ1kC3
DYVyb3W66uUEJnrm1dh0kjRB6RuNh3dm9UjkIvYNMan0MroV2TXzB2jhhONsFJxo
jExnTIbe1bQpVmlnbmVzaCBSYWdoYXZlbmRyYSA8dmlnbmVzaHJAa2VybmVsLm9y
Zz6JAlQEEwEKAD4CGwEFCwkIBwIGFQoJCAsCBBYCAwECHgECF4AWIQRKWnEejn5E
+fEvLPr5AzMvVRp46QUCXcKmdgUJCc+gdQAKCRD5AzMvVRp46XSDD/sFV0F5Q3yZ
3t3lE+5kzpqUl0utTV+BnNIdbgoDnHGKE4JXPMJoj/sbm0bHiNfEZXp7NetsF694
TiEu11y9SJIC9afWnm9EzCCzA8YYWKpFplTilLARfAvtddnDMwBNuZVIyby8eeKC
pB1kBZNOe9nA1hzehv7blSEyEu5wtxkBcdrNe//Ak+UrB5cuGfo6SAUX5t4vUv0A
Gs4B76p4hZ1R1j75csGq3ew+OOA81QJVGWV690sWjnAEdKFM1TEdehPx5Xh4EnyI
B+mHsZGHjAlz3WzAXp0oALUaYZEcRQTfeHIsbpeYdh30aQT/0MDcuXfUf+4VvfoX
gYOCL7lcLCOpbv7N6DySIDMNRPJe1ZnDuFFGSX0q39MxMDvLldLBVnnuoqe3R5ap
fwYiR3g86Vicz2iQrpd1na7UF36yCef+3SQmB1vKsCu7gdEXqVTZPSxJcpUOxBub
+99hQ+K8H52B/s9B+Ox4cRiMGcH4igBE6YdboWv07CwP8mFglUyKaw65FvDnfp2/
ytNT5xMQc6tTvKmPGBJfweKgc0UQCuXijE3Y0gXkwSA4SYKzklKiqBLZRdLmoCv8
SMXd3XZDz6AP3BehHTOCg19ieQ42CAP2pkOHCuDxJXkgC6DZXgJMVvSe3fze7r6o
QnB8n/eycEYosSVh+hT7ODBWjWtghfQW8YkCVAQTAQgAPgIbAQULCQgHAgYVCgkI
CwIEFgIDAQIeAQIXgBYhBEpacR6OfkT58S8s+vkDMy9VGnjpBQJj8h09BQkMPLBA
AAoJEPkDMy9VGnjpidIP+wRmu4FuzVhAst+93F9B9R3bquLVJt9oAsb6TiU+cQAQ
Rj3SrcVAppVqeIiiQlSozffdVj1k+Zn3iD7a3HJD09DK2wuW6McKBAkONUQstpmO
kmwg6/VjmfvvZJvIbmgK6xjKTuIbSQGEN6w5d36i+hA1FhU1ru4AJeeT32bspE6l
XfmxeMtmfE42DRfAOf82BB9f1lWwoeY5IYiG7/Drt6/y42afSgKusZfftCIMszKg
46rY6odrF3YrkIWFYW08MtoV3A3/oLJ0TgYlbCgUq9vn+iE6/CP8HKmaSMj0bOQV
tAcAaHYow+zZERpnDDXaQWJDLWi7H6STiOsEoIMhYmeNx8JVoSr7qsvOEEVP0Hss
T3VexfkogEmp52db7av/CU9AQaaO6nTF0cjiiPMXWONX+qzQZuruS1Ku1wxnyrGc
Yyjlpdt3hFPaM0V0ILsNjtMxV3YKk4mu5R5A3hLAje1Bh+/QeMT6FlBh4mV+Ko9b
CiOWm6x5MMhCXpav2vxs17jUlpV69NyUsrLVnpHkMOVj+rW1T8KC6/FpEWyCY/fZ
E6sgkHYl0PTgzO+is0NvTquxQNPE2gRG7CJYwhry+2/7UvhVj+Rl3VF66+1bLzwa
8KVcbE7U7zprstDI29WGC2tZH+GVciCH9gXdsFiIEgRXwmjjO+OI9t5iWyay6BwI
uQENBF1ZCGcBCADO14TgUHCk2clTK7B3ZsYMxeUbDuW3/gZdSltkdjPCwOMcs0WI
Iad5ZpcdCJDoORTphS3CWAXZWXjbPXI6aXAO6l2lsCY1bYZFPlR9P41aY0jYpmAz
3ZGrTbbJaziXx7Zr+MUYHA6nkWcdJefC/szNjQD2wfCvWP5Q1HnF9mVZ29aacpVY
VO8QadmtDVl03d18dYIu7jvh5wLNSXXi+wS0nFxapn/LDW9grB6/9zTYRNif5bui
Q7h9IhcmKgfQKR+8igZZwyuRJBmXr3eUWx3m6AMiiFxETfn37Hw2NHlYi85oX0E+
K1Ehp/6BZm24NU5pBvPy6CM6cgiGBdmoLQH7ABEBAAGJAjYEGAEKACAWIQRKWnEe
jn5E+fEvLPr5AzMvVRp46QUCXVkIZwIbDAAKCRD5AzMvVRp46XJQEACJezfwMed5
KeXAG9IMtky1jMwVtNiHjqAEyuQBtJAdxvTmz38p6q8FZGAwPBRkCnouBKvQ7dQ/
EFvyHzRJ5vxrMJ8tlnq4rP9Va7jvwTmQvESNcFbktsSru74GCiar6T67KSUW6yIu
OkB6C7P0K8RP7ca4/pC0WD3KjQfw+YhLN5yywR1MO3tkBtBdHtf25XrSk+IYbfTx
mCMnaOSPSEVs+jSqiJgQpJJVu2PuDhHJOT7TIlZ7SO2Tm51Nu2q9wDEenS/tmEIO
aVsLuMJ9HsSOrX2TYhJ61BABWgVQAnSU725gtM4mOs+kCbDry7KN7awyKDlVAvD6
Z8r4taTdnSz/caKGHWzq7QxHxtFDF5h3Dtmd+EDGvJbYcOySLSrAnf5scNxUSOug
aad7zcjjqsWOEBdFDYmGMGcqpdgeyL/lhA17vyjFyYDHzmgelRSv67Awu6ypqNHX
Hjedw8KCXga3nTyQFXg5YWVUCtG1dGfqviPBNuUv5E2LiyWkLe1eqRYvjdFHlGwk
DSR3X8B0Y2p6YJzCCirfLaQ81QqPKF0ndsWliQwWuUSCeYneZeuozHcvWvOeues3
g+Y89G/63K4RowtxnrHD4f/pWgiDW9PuLLhiRL75cmvqPaZWHGcDc6je1hmf6BiT
VSXE3KEJvO2/CwJGK5paG+wIzgINF3s897kBDQRdWQokAQgAyGIrXerVisSx9dE0
LPvrO0Y5Rsrr220/0DQMcValTBco0j+HzAWmb6A1RFccmHzRc0j+RudgkeB+f5dg
leYQsmtHLICyP9R31XOnCj45MntpqcAX7bEDs/QfhhU0Sxm9q1/9j/WjOWI8o1jf
7pnGjfZiuqudpIohW/hdVeWXybanBT9nAw4Z2a5KUuhDzB2kTXBo9+X1rBNL3to0
N9pXNMmNbDUQGH6XdYnRMmRQuJpaSVQWpqFJWsWac+CrtRaYmALHGKZaFDVNHtV6
Iiq/nRPJykfZHN9nLUnZDCdlf+1HJjVi6K7CWvcR8ZmBUx3xLu275COha7KolrMI
I9rDsQARAQABiQNsBBgBCgAgFiEESlpxHo5+RPnxLyz6+QMzL1UaeOkFAl1ZCiQC
GwIBQAkQ+QMzL1UaeOnAdCAEGQEKAB0WIQTJELbMCEZwaOuGI0TERh5FfJEW4wUC
XVkKJAAKCRDERh5FfJEW4z33B/0UpC894jQHFYWVSsCFdeYVykzwk35yIqN2ktiy
9gJunffl9ESU4+Y7F1MGt0WjIopq6lkzH8NPxh2T9ujkYYaFCEDOgOKejElXwGPq
lyKEAsc/Pxm75/H6qNQyY8rUk/Jzuoy0CB+QTxRPWJv9sKwuoW6f0YUcO9VBiE6m
9ov09Fyxd8ao/5LX/K9XfRLBZZZLypm5zZnFLmjAfQuCdnm2zEUan8z5EDaytd8W
UAabRKu8JnavJ346LPz1JMsx4f5Ldfb2kj/8AZrmbXPLRio5UTvOI2xPotMNJJNX
WotW4cbV/oPiT5jl1+91Z0e1tQaocfi3mkKT5GKpJrMmYDQrYrsQAI2zwsmk3YTu
0olznlL45zhgERQMaikH8YuC8QXsuybQMy4EMv7lxJ3RrzmFT9bt89YSdpi60OJm
sBEm7L7EL2HsJc27VOPCKA5Ans+IHPP15kBKazwRNUGdM4dHgKPt9vIwuN3t5adh
XdSvMp5hKxaKoryuI5U/XLWrS5apI1TawH9GA74OLveaH7ezTLebMSGhrAUUJW7k
FkkTU9GH9slLmNHXsIb0gLNG35d6saznMNnkjD60kbAhMQxMwOcmatG//33WbXe5
dYVmHeaycNoRWEiI4lORdvojjHXvK3Q6Si+zn3xSntdnSb9Czy2VtgBoO8NLYkeN
Pe4uDRSpv3sxlu+yz2qtNNwW/otro8Hf4yBDWWU5WVASIrKN6Zunr89K29qta0zu
Oqde4HDZgD2juKEGe3k/78um5s8o344dD3OASr9H2ehIX6Nn58ADaqlgge+Jh+Vq
NRYOw4Tz6ESBbMB1mc/kfYODVzIRnO3rsfuq+z6vCggaCyDgS7hKNvybPCxFSCoe
78VNd30k5URY3HJX+lpIctjVGz1o+6rvvGUaMrNrylUg3tbZt+IekC6aDMU6JGvH
wG3DVBZw2BN3Yn6YqbKcgOESTjDsU1egV64GN9SPeA79c2DRHIoeer4xxq57+kbl
w/mujZA0S0VNpGcH4xEw/sjLPYHJNa9IuQENBF1ZCs8BCACtiWaCvLuYDu0r8Uw7
NmakSmfFYAdE2tQdePgg5B+nUo0mPDn0ni361V+hSEc0pAQtrMHIABBFfOLgcWwa
vdUoaaMD14K5A7pqTXzUJ2AvIIZNzoLqxWgLPtHsFV/ZejbZNkAsMl454yjEFQ21
jBFJoj+wdJYE64mN3z8o8Rm9/5rvx+qi9ZMtvOgJiHuenscYzAhvdg3OJtJkKPoo
eQ3amTw4+/r7Ari+2h7c7VCen9Z7N00IZ8jUoaRRUEJ69fLMb3iUHi7fnDdZ3EG2
PruMJXVWC8qZcSnWAicgY5raX0WgdMgEqms/crV4g+lo9RsLVrbz2aW1MSSv6PkG
FHKHABEBAAGJAjYEGAEKACAWIQRKWnEejn5E+fEvLPr5AzMvVRp46QUCXVkKzwIb
IAAKCRD5AzMvVRp46YzXEACAugytLRvObaGWNricoyhrNkbnVgx3sEDTJUF1AMtq
LHFlBkJE1Ekp6G1ukUaAOiv8y3EDkdwIX0h+oHWX883W4aq9B1CJMl7PjExT6khT
Njzbf1X4m7xbX0TEIWllDqPzUD6cfSX07gERDVHdj92xkSzuZVqkC/S0ViEYqTRk
0CsbKvB00DjKuzviTOQf59lSjIjTqrqQrIeO5XB5GV1ZqYix16S6X4Up1WXNwbb8
3HMBA7q0sXGMqzzXncM2a+K5kSTpiRrCXMAJeZtW+bIpT0pJ4TBZvR9TKRMbX2s8
PWy42eAjHN2Gu/w3bOc2Ykh4aOVOr8GylJCXGymmwqg8Uy/9Wcv6/IuXSDoaoD+t
e2bxauD+Ke6zPXezqu01ZcqSvB0wgAuuggxa8uLfSKM1m9/CVWz6e2/KASxuDdzj
AlCb3BsDHlI3M2Ko6mprKjCB57ji/r1pXNUsOx9l0Fpn5Jru5se4wOubGgLNy9GK
e14ewwL0bGGxJOj5eQnqvrHMlOPt6xFwlJZn4XC//CrfrlQerDr+0YJ7Q+PnGJiZ
NV5vHAfukK/AUs+A8Ikmvu/Q/aAISYUXQYxIiWsyB+80Pw6apZAGyjjS/vhVbkH0
lTM756jNozZfAk5YJvbzpaMXiWVSMYvjIfr0QTKkl55RgwUIqOMYcFi2b21DxgdW
gQ==
=Vpes
-----END PGP PUBLIC KEY BLOCK-----
