pub   rsa4096 2014-10-01 [C]
      91BB0699882EF39D46654BB3FF98A38DA80834DA
uid                      Miroslav Benes <mbenes@suse.cz>
uid                      Miroslav Benes <mira@jikos.cz>
uid                      Miroslav Benes <mbenes@suse.com>
uid                      Miroslav Benes <miroslav.benes@suse.com>
sub   rsa2048 2017-12-27 [E]
      EFAC7159BC2C48D88A80F6E274C504C20412C237
sub   rsa2048 2017-12-27 [S]
      EBBD431E31946D30297BEEDD817D6BDC44AB1B2C
sub   rsa2048 2017-12-27 [A]
      B73FE9480C580AA7791F5E488F3BD10F700C3943

-----BEGIN PGP PUBLIC KEY BLOCK-----

mQINBFQry9oBEADM9bBcGS25ilCuoMNVNPAIxjng5TpDfZeavCvCvmPH8aVYRizO
vjQRUZLcEzOvyhO/+Udlk4t7NrqlYIos4Lx6xULbdvNjuOa2TnfBAhKhjMax4ppx
Aj0sAsEf1xNLkVGa/my96trB8Vs3ob4B/YtcPOQPvLIXM1VtIOPVndHkD9WVly3R
xdzXCQuxgY64A1vihn4c8hjsJYTRa4m3N1DwkXYWC8S3auZdSnFvYF+N1B1aOiHc
hX2ublVK93Nw5TVxzEV+s6THY02v4ivdFIzCN2yroLkVNxs/xLTZB1dhCRjcLEo3
D85/5rqioA/GEQaMXQqXPxkzDYNZ61Saa9iTX4oH7iD9EvOx7GwYoiSgVnCdhHI+
UyGJA5yKS8B8IxS0QOVS1USxygDeShD78o8k/JTu89wXuZu5TE//qrbFQxnpY+m5
z0R3ljiKH6NVpeYB+cePZ69VHcOr12C83L+wJ1l4n7QWyWTwldjB5HITfipTuqkk
6ZlwjCwaCAPBiPfDjhKQ8ZKyiiBmue3eKJ19H2tOtaB/tWnUoIYlQ4uxCePRUYIz
sekooRFBdd/L2KEDtTdIalSjiKnrbZzbMbk19PboZ2oY9f/LWsVWATmWg01btzfq
MvzJcmOV54Fxy0Ep5pPNGq06F+vuAcu0iDYpRUe+C2D/juxN1K3acdGwcQARAQAB
tB5NaXJvc2xhdiBCZW5lcyA8bWlyYUBqaWtvcy5jej6JAhwEEAECAAYFAlurUFYA
CgkQUqAMR0iAlPIKLQ/8DXii7NNCBgF3G1tSKz2Lff3Ggn9UBqcvyJHaeGpaidup
pywdRzzBkIZDnbUsuRMx3PSBVs9jR8QeC6hCQoVKBR25dmQ/0KelAmTh0MalElx7
Ml+nceClcpERFscuWXe+meSBeLhWB1AWmQtuznbxr5mvhzIl8TudhJg47wERwhco
yBnpxKErKSTVa95rdw7J2ik6rMZNxzT08QahJzHmbD29Nb4leqmsHI+6UGHavF9U
y5F8JwQ6gkU0duc9s4osFnFmCJp2kDoiwCyAWnj85AVV8OKjirzmvUhHnaqbjeZZ
m5GEdnSe8mzKJjFeuNiJGyjdxAttW5i1MEQVHS+jQW5UQEUI+mXHzmN4JjgEqilJ
qV5NpOGYLN0Octul/vGREyvfO7zNxXys5J3ptGXTU4zQB0+8OWOsPm5ePxal9SUF
Jd2M39yPEHxQKnR6hRxDVs38iHyrfL6egfrovRa2onyPsqWr4GosiG+lhRhfa4iI
SQx3lBf0Hs6EcUTYeGkTK4FHnz3NjwrDTXpwdgO1+TdtEnFkPf1fEiJh0b5blQ1N
NYF4d7tPJH0Bn95pLzCLihUKFkFwcb+jTStkUc+uhSvanZaoP+rJDKQsMNQBeuzD
JsXL051X/Xkmr0iXpmGNYDLxPJox7xKmAMJwR+bxsv8MLZcv8cLcxF8mi5fjU4+J
AjMEEAEKAB0WIQTO/svpQ724M+U9J8cSwfAYYd5VSgUCW6YmdwAKCRASwfAYYd5V
Sr/WD/wPAw7B5X7AEgOVkIoZCIpfb1UMSZ7PdMTiHeRR6+SS/an4FfcLcx6/XQIL
MhYacl/84hDyeChuNWrLcTe6LO4bfQkeEIapfgqWykdSPl55Jv/zB3RMYQl9P59V
o9YgjQzBgeg7Dp827DK/8dHR5B4ySAmuyaSNfc1JE+PweY+RLqWIf9zafIfX40Gi
cgx23n26sS/xztqPUeZxwsCT1rCmHbyZm2LIsU4cPs+/Agz+oxLNWBCSL5GpAMYb
DCxo0B9JaNGRubSje1CyTKwTYSU/WU3TXdv0Ajz/w/+tR2TiB0maiEEAJZ1dSWcp
TXFjEwkO10tp3NxmvUzztEjFGgfDGfCc1bp4vIBquKqjCKJ7DgfzzJfyrnC173Nm
vxUBpgxk6/lNsj0ntLwZohwcSDbvIjPgcoqdFp8at0N2ilw8KZNg2uJXNY7Q73hG
f6isZ6VJ2oSVbXrfutudsk2k8Xmf89pgH/3d6vW4NOZoFw13dWOgmRXqbYawTOHN
P5e6JutozPpm4N9iv6EiFXWeqQAMH+x72TTtd5ZvUNuHg8PjqpcgYOxswYnjqync
MvCasiqgBRTVrILl7UliV/YY1HUyaIqTrzhM3aAinhlEffGA3VHglsyB1oyp6aeA
yJBY9IzvEw3KvQ3qJ6Wtzq03UBeKi+ki7dPTmGpNnf0AY3HPpokCMwQTAQgAHRYh
BNaVgVYNS5b3juLqNr0lsQQGtHBJBQJboWOqAAoJEL0lsQQGtHBJfSUP/2HlmlK2
prbbVzSxhDdphAuAsEMgZuSNLNAd7ohY5ute7zENZhyYnjZ+eCvrn70ZFLS2i9iC
VRpp4WkhJlwmjidrwtAyy6DRykwWcq6WB32WVuw3Y3cTwt0Gi4wx7bnC6P3Gt+6d
KEjhiBNswxZItD7pKaFYjGFK1NDX0HIraRe7J//injbjyflO9NbrO0O+pmsXvM5K
OVoQT8R0zRjTtNIGS88LTMex5ndRdwxYc/n3BOG7HPdL7ZcCcUDO3FnzwSbgIwun
9zqbRaZoxPLABA3p0xxLcveIc7G2NGtDJz/HTVkksPWWPQ6FnguM/WA4KNAoQQnI
69efAFz++Nw1Ipk0ppevnr5xJLEM/2sJFTqP8t+4nn+HlGJSGRV1sPvINVgIXHM/
G/AQTFuMEL13C65sBncCP3oV9ULgF+Zva4JbudnHqgBsybjwtzyxScu9aberWw1y
MeUDx//qRd/VwOtZ5MbZ8ZjlseYKBPFS5XfS/7EwmbjmRH9l7KZ+lqn3evtk/DZT
MNtylxgJS2AmIPzRW4oqPnS5aDO1kFJx0/xMnZtS0vRs41K+ms7SkG0fpWQH/yWq
DUoz3er2W2Jc4fJesKZawNOfPb2XTNi3QsH0LYN73lsbh0DoU3gpCaENyufyAoY2
etLFgI5vuv0a8qcQxz/wVzN6Z7rVlGvy4sNhiQJOBBMBCAA4FiEEkbsGmYgu851G
ZUuz/5ijjagINNoFAlpDe24CGwEFCwkIBwIGFQgJCgsCBBYCAwECHgECF4AACgkQ
/5ijjagINNqSUg//RPT0CDCEgLiuHbSdA1ZrMeiKFlWlx5ENvTGX8H/wis9dC/RG
RyUfhWArZSH69sELez3t/djeW3CKpQ9demLtc6wRxzQu8xMZN+cxW0Tzt9i11HWA
5Yf+aZzgk/Q2lY9GUsvnSnqBoDlMBALXACQNBUUjwJbKy3mqpT5B1uwEs8b1dFV5
ss23mNzfHi/42PRaBJMwAnvWda4xErITaYYA7IdsZkWdnBNagCqTjx6qYjp3Q37g
ZChdgx3IBQggTgEwpFGf64y9EYU3CRwn9luVTRFMrsEfDkaj6sRFyUCWHxHZeB0E
kKtAm0c6MoeNs0llsaLTMudF0h4sYPGZCbsIEHd87hmah92rbDu1pXRLGEhOVdli
VQrcEDfmPjaQNKULgfPFFmVJ8qc8InNxXeF52oOE+OvkEvYilU1pCUc55yH6E7aT
tB1AIhRr4VUOmLnUp/i6pmy+q58wwbenMGjhKjNzbkyBlxTyHwsHPqCds28UYNNh
fPp+R4BUbKVbmv2AeWlDNLcGm6GYKgzEiCA0Jmj2WIYomRWp/aT2XUs8gz1Ny7f8
saRFLpoMMGHRGXnj112MqMzIVc/3jv69jWOdXdUDOx0Ao0UthkWutnBmzx4W3RhC
QjOXorrJeKoKFKm4BiE1fzWFCjjpWHpPXWkXRmDL2KAdVKQ+9DFk92TK+QK0H01p
cm9zbGF2IEJlbmVzIDxtYmVuZXNAc3VzZS5jej6JAhwEEAECAAYFAlQrzkMACgkQ
pmLzj2vtYEmovBAAtd49CkFkiRki5/Z4EoNcSfHaLte0KGSPgMq5hT/GEspLUK4N
LED8kqYDGlSjYwwvicQ/uQ59rXw9FijUPvQ0IB9LjeSiRbqF02tX+2WA84BYhiKW
DqbkH+PD4GqzW0sHnzbubAlvxE6lG+IJPrYJZnoI0BkeIgmdwYcjZA6EHxVQ7RMZ
avaGyY3e6g0e29PwRoXJ1Awnf+YsrmYx22eSJU3RYPJlORja+4OIRLPs9c0psW3D
WzJicRRBcuou1VHNfbPKE5KVvQ1zZzrmPxeb5YabX3yefTI4ots1+QxdlYlTgQKK
GYso6A9NQG9Snio9shk2pPAeA/QYc5SdkYk1lRQAWD5U9Qb5vDGE4N6E1y5NpuND
hQE1jMtxwbrjHN9TI3yVqbEvqDaVoHxbcwIn+QnObzVahlN7TmWiTy513MOv/tWh
L4OUCza7mnOhTfDpJyZrnyXP3g8s7S65WaBP29WX1B2rW2ocseNqCjh+uw39yO/d
OWt7i6KGa81dpbASzEQsCmoiiXd7HP/7Aqgztqn7bldfs/0fw4kA6NFcIWegMWPc
GSozTsuIX34MUhnO5bPOYYzl5lRuUIelMZxWt8B47N+cQdnjtme2ln/E9d3ua/9K
zaH+ty7e7MWoQIpmstNosTW/iqmlFjhfYoAZXLsYwqEkToTBUVmvbsI43zKJAhwE
EAECAAYFAlkeryQACgkQSOIJorMQ40cgrA/+J2BYBS9ZHB/yMqyYJKUJOrgBk9Ny
5fyRZi+V4MS1yV3w8i+/Dp4AAyONqQ8rjuXpebWeLwTGhOA53ddRRoS9SWIotvoc
spRgW/gaGYJLjen9rjrpwdVXNF26HwzMuwFK8oHlrdMInWjKIOxmT4ob2eoPCgZn
ea603RXg6DIlHJSlsOGDRFtuKqnavjaPxc0RT1PEHl5/+Wmul6JzGW9g+ac/FUNA
hUdhL1Hkf+X9Tg4tMbJsxkZJa20EIj18A+2F/LgU2YZlEY0SPitR+UrPd4nKAUK8
cyaiIUOIpk3upPHz66BJgEONviHuqSI+dHKy+DOcHMj9braPM3ijbUWmcXCblCXR
gEICJd3xnpWSvHo3ByFs2m/kSAqvVLSedtjKlgVV1tj6TJfEEmWcIUl4HfXv2kBI
TRcZmzSK61r2DXmcBsz3ALA7/E7f/c0yovcTQGqKPg9NiC+/oKng6fAgfCplgm9a
NFcUYnj41bfc4fZS18xj7HAJE/2XAs8BoqCLCbzBjotutxaGVKPqdCJ6dFsPK8z4
AoRBEkGS4dArGSnozfRdRkNCMiGlYSUW7xUaNclFA1VGReacf2J3Zl7SIhzeuqMp
9+gVQjij91hAIN0t3WT2pUQrvgQx8wqvs+LuePGgvZTMCQG5tWD8iHnMEVJcPvG4
HALfnzc78mDV92mJAhwEEAECAAYFAlurUEwACgkQUqAMR0iAlPIOCg//UDjX9N4J
EpyODLv8nuq5E7faPrJ0dUrir2OnCtw279lE9c39eAL97SOahcePmwEtVLWAWIK/
RKS7+qC24qZoIxm8YChlS+t+H8jEP/IiLXZbM5o5px4lwkYT9MAtE5R1JOS/sgLj
qmN+OSn0C/awgUAEC/4jgGMqaaDJbWJZdqLDobngRWtA5A+KT1kDiwoDGVeuqaM4
sH3ZujJvionoWqQWOFgYkWiBat1RAe+HzHKx1u9oD7n1K3OsYcJRYYnQT+1O5oQI
sAyEUbcRdl/Bb713mU6ErRxR7fWxT/vVciOe8vd8XAaJjbuQ0olEDJPp98CLzSsw
4EYHOw6JSZ3YirrTyahrSRY5ppTP6SSdbZsc41OTu4DMz+I+GNZvdUsu2B8vZIR+
knvdfNi0A8BECB1MGLuuMujqoEjyIHZgtGPzXadoWwnIp6WyP2tUBSrNAHbDd1aE
hmIscy6GQQfuRUcbZr/qR2N9DxhhXYGYpeoM1+F5VNzPPFFUltfBkSf0IeW3iG5z
dfdlSUtcxxDBwMWkjNJa5VzWKiTRh90ToUHDvpbiI+Gaa9Pvs2lL6Ea6c2Y1Z8ZN
Ce36+Mq8FIgvbsskIeoJeh3YkKeZtiw7IiKgqDC0UabD1HmKBU3eI1d9Ja0/OOqF
jKdyMCovzu9iw+BVqWHVvFo4WO+gY1btmeKJAjIEEAEKAB0WIQTO/svpQ724M+U9
J8cSwfAYYd5VSgUCW6YmdwAKCRASwfAYYd5VSiiJD/iJPECP2Y4n99uMuDnwtnR4
4CXYmzxBN/JWq7tBGyeeQ6J+6veMIZgRYpXukSs3ULfY/Nx+fvYlXxhf8rzPEhl1
445J3G3FYKkNAyPq1d1kAa+lPvGXu8XSYu0oSxfWGGJ7mVD9XeVvkYF1lADTjB+p
HhvAcl9OFheNZc5Irbv/XoGYwPeu12rasHYF1VrC0BKyRiWAndAFB+JZkEOsnvle
q+SOhGvqRxRzyMRYDG8DkEQH9C8zDZ5urRZ/lmyaFrvugVUho9C9cqVefZRKd3ZN
jE3BdOCYprk+GsQBcMdGsLf036BmWP+18iAbFKxwkAX/1fwQYUGqxSMGgy9EJPSC
/4bsVnKw+cheFJf80Gg/QMzXgUaF79+oNP1MU03/iJDS1SwTMMrprFK6HAqjfdeL
eLg2GEwwhofv0ux69Do06mxRin5R50JqvkNOvp/8hENXgPudXSduSWL1Fe/+pm5A
I0cSH8wCVM7WVM979M3BkjDyG44hKivWuAk6Oo733RzfbxG03NjZfaep1Xq76PlW
bxkko6Cl797iWlDuH9Bm2l9NMq0uwFofyMrfZJ23+j4cfeEippEArQluCUDc9uke
KJrVqcB9rsJkDF3DfDbuc/vJn6P+nqk1tAaka+qbjMSldDE9V/9WKFRe1aHfnhlq
LPcOTGt+GJfJP8FzBeDbiQIzBBMBCAAdFiEE1pWBVg1LlveO4uo2vSWxBAa0cEkF
AluhY6UACgkQvSWxBAa0cEkZJQ//VcBC2tg5BeIME+UZ2MWhSNHEKF945mBwCoFp
y1IBYboDyeHRTQB/4IvUqKV7TX/5lMlDK6A6bvVNduyTUQYH/ZoXmkpaHW9BSbgW
mEK9ThtfMrVb1mqQPEolcJfaxyKobETvWafTzUTRFg8rOxSu3u2M1GcE+3QlMMQU
W3xHqinjT4g1eB19ajLqDKAAkdDa91nRg8YG7YvN0u0R+RLZthro3scsWK1g3zMc
Un3/A/mDa8hhl2kA3D39R9tUvc73ttMtVLftate5mSR0XjQR2kYLECJM5UH+lXw3
Bztp7Yn69GVeHMgjF+Ab8/G2gfUJN/pVUhJOcEio07vUc6hW4UB7qbWzyg4PQLrR
CEasWVcVQNjRGOWqZpwrQyAmN7Y/sO9pM2wQuyBl1rTyIuXuIRxagcQXyTb72buO
iYs/NBF4YMxFXvt0l6ThDh9OfifiERDQZYO2PctIzod6S/0JPKRnbDgQgew5XzRD
VVBbZFAgiDOwSQvqy4pj4NMFBPZSX8XCzDadf734Fg3s5y+kz5t3u+nvWJg7YkDg
MOp1WmcTF1+8hkSMZS6F2sRz8HzGjVy2g3XLv34KXGxgcI0EU7qRc7x77fqxgzpY
PQOQbZ8m7WYMJOcZXyDvuNCzWa0PokGwkgp0bKiN/Pp6jkuQ5d5N4YBK1Hf/uQK6
epcAuM6JAlMEEwECAD0HCwkIBwMCAQYVCAIJCgsEFgIDAQIeAQIXgAIbARYhBJG7
BpmILvOdRmVLs/+Yo42oCDTaBQJaQ3uoAhkBAAoJEP+Yo42oCDTalF4P/AxAQlxr
0MOMRZmr7u6fVAfZZG4vztLAz3aNvuRwcYG8XO9jcYH/S/MOFBhsiI2ODP9RsQ80
DNssncOX4c2XxDFmawOgAcJxAiftY51RaCNHAcIphl3Of4v3FGthJ60Boemp7Anj
xE7xegP+wzosE/lscugZjnw+6scNOFiVESrC1UyXr+p4nXywjbhor+vKMgTI7sxN
/fHvjwf69jot0Igw3GdypkoNMf+19bW9h87+GxhMwoewGPWnYnwmYgRxHSvuc7AN
joYxgC/LO0VHmCqarsTU2dHsG5v2xJgvz6pdFF8/6ZuL1GEndYX7Vtm/eQm/plkY
1JAfb3u1sCg9lQxciffaXRUtBB+SRM20FsIQ2x8i45R57Y7vx5LMvhAL2d/eMG/c
WUcpYsHmQQ6fdWR+oT9xqCTidzlSLqX5JVVMrSvK+VOhTc6+2ZDJXZD84iPD2eTK
mYntutteauBofN8uoG9fja7IwWNifpI0AQaCQka7EwLi95QF7q1YnVp1GuH7AQYT
Q212K1mB6+OOYg6Kux62z5nZ3k6iydua+GKKAjEiJuXXZxLYMXGK1vruZ8xCzmVr
yVydkJnumEX42jYOAqGCh7oOvnf/mcrZjUjXKxWN/JcmNYlxa/iSv09RfWP3660P
z2ZmAFZBkiJ/loaKVwZVk6X/yO27ezceIaX+tCBNaXJvc2xhdiBCZW5lcyA8bWJl
bmVzQHN1c2UuY29tPokCHAQQAQIABgUCW6tQVgAKCRBSoAxHSICU8mGTEACswUeH
yy+dwUxmTl1vR9lGkfC6UL6emu/7KZG28J7NZSV2JU3J6WLEkxqYrHdHB9SaCQ7E
x7bKRlujF/ZCg1Dg1t6YXhU8G6SdJmbDscDHclAP3QsLWQ6svrBt1xVgCb1wLHZN
lU/a4jH4KbQ33Fi3OxSUEQk8ZZTpsvh38Q0I86ug/bwkFtoKchhIQkl1EytQCPP4
RTK0dDW0eyfRf3L8qUtsCcd4oIoJk8sYjYS0bQpqfZJd0f7Vjbml1Fa0XTURVt1k
Cl9BXfVEib15EYTkzqEYlq/+DXFWdo7ZrtC7HoSp85XVVdL8LZsi779UTKPVS9FN
p2NqsqMFIlvIouptkmMUi0jqT7FKqZXEkDGhNU/ltV1bVHssxnzJLKjByVnjIIG0
WEthQuBstDJdau33Iy7lbD68P12uHqFDsHppNH7sKTD+g6j5DpY8tlwTSlMjkr6x
9t+4JS/Fde8tOeXZIzv44ubdxRNNGGeM1N+UWRki/cGZNz3rgjhBxssJpexp4vjH
TS3WFf8XgPQTlFQnWpkXpgxWxYcQqGrPfMuJ/9DllC07yzKmP41Jq3w48yPhKGbI
freBjQIwTNl54DZpKSNL7fv/2KAVveh/LqSuVHSlq007r4uca+ZC83DwLkuqs24w
hqpCvgf24gsNt31DCZ13toBXX4K8t0CMTgwq6okCMwQQAQoAHRYhBM7+y+lDvbgz
5T0nxxLB8Bhh3lVKBQJbpiZ3AAoJEBLB8Bhh3lVKZsIP/1nNBbUFzGDMsfZZm7/k
EZfJsU4DPdcU0devmNyAu9NlYttL0Sp4fugBtB5tOqlv/60aH+68xI4nKhnBbUqY
IVJ5XVQEfarqneShtmAiUL9UHGIaAkrWuyWiIReeLmz/nPu/jAAumBMuugQsoU0J
wMgHmZQfvaYXNXiAMWnJo0uTxZyr4BZL7tm7fBtm+npTiljGn5beSSbiTsc65ggl
9k7w7FoVvFFO14/HD+1H6eX5sRnMbm9SZfYqCe8lZXaHCpVDd8On8aqaRI/UUzAt
MpG0zaxDWqAwTIsb3AVYve2G8QRKbjs+SK11MkrnF669UpDzMZJ9XSBj3vUkBkBy
0IIdVQ/9Plmmtqm8ciUYtO08E7LsPuNoHQKqPU1TQqmk1viPS/sgWDRX2VzJRtBU
1G+1xb6sXe746YudcNiSS9rVkZ4J+0L/EfNOACUWLgfVxeDE5EwEPZ8x1xJbHqgb
MhikVcKs+sk+KD00UAA0A1QWFzNt8yZIsswTu4UQXMKN/lp6SJnN02MyjmCDlvTv
Gms2QL6SX8shIxpYVSOGlZQBYh86Qv3gj3Ut+TFGZOP3eT/G8TfSYv1h4gtwOEM+
qi5mkYMt5wxuOtn45rZNiphKJKUwwdrD1hVvZOqwZd0du+1brp7PgNniEfmJwDV0
tEdX27SQr4AUxn0NyS1P61l4iQIzBBMBCAAdFiEE1pWBVg1LlveO4uo2vSWxBAa0
cEkFAluhY6oACgkQvSWxBAa0cEmqSw/9HHhMjI/fLcWCwM7CnoW60YzXec/arfvP
O8ZQafSFFN/rf7TxZLDyEOCE43zBSTuM34dYhLvF4WSY/BC2Q67F4O4O4SU/tSHL
iNh+Iu4N5hZXntJEllMIivxKoJ9tB0p0zvh7vcTXtPtsNLa5MqP9BIFducn6ZZXe
A5XSAGw31smSJQ6DvvTyDkjY8aB8Ei2/tmCRYr5RemoHuWiI3wuT4KR2koCbW3UZ
bu/KN+wUyn8FMMXGNeA3DjVvRggsBEezeFFEaqU+aWJa4XzCEo3i9IGO/4LD5Gyg
Wnh/iTRNR8j1h7ULlmNnX6TDkhtmj/ntxrwPaKKzTBYQ8VmAZUMvpARjlOIOM/Sl
bL8iOKDL2Ti9sUFXMg4ax6n2QLamZjJn/3cqQvG9IrhHYiIPZ994+QR8QhU0as1W
UMGx1KskdL4fdrXDzrQHI0HkGqQpL8h8oFEmr+FcnGo8zysbFBLi5Oo6qw6HIbtP
VcsMKp8+ReHVli9ZJTLtBwq4bqxNrcw7144aghe2bmjkVKNNKgvrafAqOVniYs3N
ACRFW9Lyox6KKrw4XC8iEqRmCtAE1hEzVcOqPuyv/sUQpooHsTVxPHrs0y13hOrb
CKAXfoj5cfk1otJEmyhwF4dgY0HZbBmqpjA4GJCdtJNZzyf6Q6QuWMmWHurKl2Bt
sndSd8TwD26JAk4EEwEIADgWIQSRuwaZiC7znUZlS7P/mKONqAg02gUCWkN7PAIb
AQULCQgHAgYVCAkKCwIEFgIDAQIeAQIXgAAKCRD/mKONqAg02k4aD/0XxWrCxfx5
G0nUW7A9dDThwUpYxZXPe0ah2F74Q8gO+rqNE6EMzho2s+8ZLiCCDrd0cWz77eGm
ecfGvoWEvO07lVEmqGYdRYAjserhX/MB65+nn8fh8lUFpOwUpIyiLqb/24sUol0J
KlSt5nu2q3YBDF8q4O/Q080HHgBeQjB8qWtvDvCZMhbXgs1CJDYs6GrJiKz4R89x
0gJA47Csm7jxwcsuJlCMPKVHgV33m8sInLCCX2LrnaGPKeCevSEfpg90Lm1DwO6Q
K+/G2jSXHjCAZuxxHpzuj/fyky+fxYxPLWp54+ptvhzSj/yShro0zanmoD6HeRVa
GchRPx9kd1xKsm9Tat/5q9GX0QXNzqIyPKB8+qlcqFRS0MyvztEWlovomJv6XzT4
aHB6YBdUkvUXMS9/btE0m/7FMfleuz66RCLe6s1mJJJ7rfrkgpFzGIFmEb9Od15Y
huXaCWksqiltxWo1u9qfLOF2oZyAbTSObejQxytV3JN5HJTT4WofQLuE/I+LRjb3
b1xBdinNHPGeDURtQUA+ni/tak6Jqr3LHjtGtMMsF5WjWUAUYRhw4OPM8xk6RZ+Q
/1awkcnXT8NFJaDNjUtL/vnG4Ir8PVVzJtLpSw/Z4xYa6jUnUYsUhKUKe++qEvon
khfNhQJXdFQleRsIm8ulnfHPkn8LbcOYCbQoTWlyb3NsYXYgQmVuZXMgPG1pcm9z
bGF2LmJlbmVzQHN1c2UuY29tPokCHAQQAQIABgUCW6tQVgAKCRBSoAxHSICU8uS4
D/9KMKMpTDeMGmzDOjyEoI/UfyXmKgbKzfdVu7uqPspBuYuii8FZRk4J4rCnYUW7
I98slbSLrYYsoPbBdoYBVhoNRf+U5Uf6KHw0D0Kz0ePslAm3GsqtJZNqX2D+AqO9
Lx3nhyqKI8Okx4neP8GZkDezBvPd0e2uu/7umor44nk/RBtL2SNW+kZ4yuucC0xq
VfWmiV/EgDFc7blSIqB7XnJ46ImOUTe/bLj4MhZB9He4hYMLHRpJ20EYhBkPL28w
byg4FFQeGvnbvdxh8WTCIt0QlaF9Stw2NWf7buwfnF16GAHwRWCvrUqWe9rxQgX5
8pDwpXdfzoNp+f/mUwauFHA684DhlfGAN/xkX4VHT61bzSB+wOwwZPbWvGvKxr9n
SLGelzI1dlu40AMkZBK6f97Blxj6HHA4vGjgzf+0opXzmxabG6Pq7Us9pKP06mfm
kY6Zl037XgXb/NDzRIuuC0YsGFuk8ntzJSq56v21cqosNpechta9gqWtna+2i5A4
ENXzLSRfdFVE2po8Gel6+91ePKnrwhopRkB70eV1lJ5FyPcNL1KYJzkdew0nVqih
iI0K4VZsyuT4Jae9V5SJCYtPF3wdkxEZb1TA6ox5wd0UabwuuMLU40Plp6lVkQDU
oIxBePJ2CE7lhLKcRUoqzcqYAZPeRNt1Gt/j5sIM/sg20IkCMwQQAQoAHRYhBM7+
y+lDvbgz5T0nxxLB8Bhh3lVKBQJbpiZ3AAoJEBLB8Bhh3lVKuJQQALOfYuN9uYqt
VhPZuTnw1Zry9MwdHEIfJVsSufYuMmRblm1TYJRsCUGX/1E5YnzhFSXNOqcUC5vJ
gvcjyLrimfMkg1gIblwiuQh7s1fqZhIbNBRYIBMvHoBPpjVwC0RE67UjUnY101ZY
pATSH1s0FvVH6pAbu8Nk7IT+o0jgOGhBcPSZ/sgHy49mp/XiIsXyGcPF2OojWTgx
z6VMjPEJ1sUQ0VecJAp2xSTCvAgNoJCNwNWQ5fp55S3tGG1a3o8fqxEtqHyeicEe
tdRUXeWP6rN/S12EUAxIO2a8HI2gdY16ECXONx4ccYh7j94ky/P7RdfRbEHooHHc
zV5b73A6Vfz58zQtj3n5cFV9VCYshYfvY2ver38JrW4/7nCyVeee7r75NHeBcUjx
1aD5YgX8aKwf6tT0ILx5MM2YyonWKqFWZxMdVr+k2T/SV02rSV1OIsUwAY8jnhBq
ORkQCgH2tg5LSgOlYw3sFR2IF3BI+aMQV/Y0mqnNn8a5lg0IukZeCvcoDodIgqrb
4S+1f2qBLNegDZD1jmZu4ZtSirfcEyAg8nw7VbwK1xUZHCvxxnypCWNdBizXLbWA
x5+ogAmXxV6itXKLF4HyHIFINp8go8/rrLuFJ9mzIFPxVEdyAg1wL8yIaYu1t5a9
qpLsOdGC8GNY6fr2n5UEcqbOU3xj2IiXiQIzBBMBCAAdFiEE1pWBVg1LlveO4uo2
vSWxBAa0cEkFAluhY6oACgkQvSWxBAa0cEl4sA//Tbh/AOPuIsOoSkBIaq53EdSn
fBn7gEI2Tyr92ZyS/Zz4+QKizv74l9rojYFf9pSaJk3BaC4hz0pidfKsx6/uSEfy
WSxbrIK8MJFSNeV0VZwYc8PuqS8FoAQry/UqqGtCzDlCVRuWJFH70nYqyWrx5+Ti
l6ieD+oHBUdS1jFOpEAqVtMPX+vnLDVHBDknWCS2pSkPm6AWNuYHuK7Mi9W7hu7I
jk9H4bKhF+bnX4B3TQ9lBl1wHfTEdetD1FdyngLFVCV2pM0gmug5Nh/tVkp4l5tj
QQscXOfxB2K84mKQZARQ/cyGalvcb2Y0iWNkMFQJPNBNKoXdkJB8r1DDzJAg2Boa
xsRJ/IZ9QjX0tJFRYZl59xTGfwzjmddD7P04EUYMny2sFWt2RgWkCYLgh1g4VE7C
7IOh/ct9chOvalqTiNXwj7SR5lh1pXbmW2Lhwd/S6xEHbTU+fWuYfY1ZvYzv/CK4
cUBtbPyszKJkXl1WdO/iD77xmZhCPLsZKjs/d4b6P4xD71JUZMoggjq51hlpcVPM
7xGIIGuwoBpgmFTeq1zOgw5WEPwHra0c4AvgHvh6GJRcPj/rY6I550qqFoMZjCoF
/Ona8GjMIO+myb19H6lPU2YrWd7ttRbSvQP4p+3yyWEl7Kv7r0YMK5Bi1ELkZYgE
SpQCWZBeoCsPX5S9CyGJAk4EEwEIADgWIQSRuwaZiC7znUZlS7P/mKONqAg02gUC
WkN7ZwIbAQULCQgHAgYVCAkKCwIEFgIDAQIeAQIXgAAKCRD/mKONqAg02j+xD/41
yPJ1fbIJsvcFC4FOkBK6V7xSKkUL1k8uvxbfUfFKf8OWXHh4xUKMIZluqhjshBZ2
MpQm7N+f4f1QDtPaaGSkZyNdCT/miBo1GrCjVS8uQDsxZu6O034VZ49Q3lpYI3Tj
rvlb/Tv4az5/WuW7fEfAVlZHFRXhCKkWc0In7eVLHbOUWoVue2jbFaDLjRlo1xdP
mET2V45Zouel3nFAC7lMOXBFlN0IUybr3XAwsEbuLPrJlNZKmD7ybn+KoQO2hiO9
K4+5d7aU5nr/bJQUJqJFgXrs/niq8P3u8iE/Q7DGfiXORZ8Qt2FV7Q8kT+kEHfwR
tttSpaUk8Ry3m1QsRWnw87RcXY0CDS+iGGc9mPDeJfASBrpQqWwO/lYRBh7E318H
fMjm5U9lxQFQuNIPbONqoWx17Gm5/Dq0xtv7aQ1crCRG7yytXu4S52QethjqGEuE
v5CaBjOxC8d6ot2B+hTQLCyUfFqxp6aqKZqpz9fxGljdgvtGvGCz5oj9IgRAoZUr
18ZY9Q2FFpw5QTrof5m1wkWGlzMOHE5zGaev57OsQx1LlXcLU5vuzfDuryYlAHII
q/TeWQy7TxSzDHhfBi6ws0lxhEE8VpEp7qlH64ZxdhxBzX8hYM/TfTeTqvWfdooR
7aOup6j3E2OiFvsbRFazEqEsff4wSPl6XLyKzloWYbkBDQRaQ3y8AQgAu1Syzo3q
TXf8cjl+0+9BxVg9Xoph8tW9z6QkokqU2yXMHHv94D2Yweh33PyAG8hmH60mY0lR
4WO6jJZLpzXJLKWymt4rxSmelh0bDZpihcqUSU6E2UOiTuyjIEJP4FH+/krv4iC8
PJ1LuXmEzDsxq3O645xYp22o2lj0XpTQBoBB0K91rnn8ku1Dq/Ztzl1ofCdEvGXc
4YO5FUo1J5OvZCCJI0wITnNtRIRa4cU+yYlja3CJIztpXGu2SASHe4IsUUoLNBpy
ufJEsNOd4+sXuOy2kvaX04lwSHtNhvQ/R6BPQz1YIAJs18+ADqBrEAMyaHFa88Be
bPZxNcN84yu/SwARAQABiQI2BBgBCAAgFiEEkbsGmYgu851GZUuz/5ijjagINNoF
AlpDfLwCGwwACgkQ/5ijjagINNqhMQ//Q5soBWkW+8qT1eYWPVIl1PEQc0ZhPHM/
ztu4otNmg6eB8uRH1pD5ftZYETjc4LZcd9kG0vLaXcm9aXFsOQXG9dDkT4lQFEEz
SxikipoKDNRDDiCWbOTjFwHNCuFRJuwx3XETc0NPcvwfJAOBE6c60ZkLLOyNCchb
vZdoO/oFu5/ZzuHyufL4zld2murthf1mJVFeDzDIbzjW4AH/onBwQmbtXV1hrkmv
ObN0ajG1xYEiktdIZDLmwrf5m34oajzrrK8gjCz7X6pICcuTOm8GebB7w1sOVla6
Tj2MXAwnlioIxstwKi4lyCr+IYEFl0HmpbaATuzvGnmEdXR3GBipe3eTICcZRH0O
U/oiusD7Q43h5khHVrn1Fyf0K1mcVdG2UeKYCJgKQCTuLT1R3rnEpdro/CVLr4VO
xG/EhE3wYG5xvtvNecR0Jmjf5nN3S9LCZdrukD8sy5oME3MVL+wpt4Jy7p0eQBYr
bDbWoz/WGkIlSasvtdyu7IeJ7thAC31G6N57tZ17cpHHtXggPWq1GglhEav3UiN4
qW8nPMFyrAEKR02fVqp0WkbjwISTvHiCdzSNm3OZHn7lfYJ7XHF0skOb9Nodn919
z5zCvYxQn87kv4l4Gs/DoIZ3AULFlTIFgrdwIa1/DPvMcWNsHCN0q4FoJHlmql+v
CXGMMHHZ0Vu5AQ0EWkN89gEIAL+gfiTNDtHbcklIypg2rg59ab+Iu0kcE1hVa9PI
C3O6RK8a9ShhDA7VevMJJyexIR3VfiFomhUed5MkObSMzGl7AKmdDpaZNT5rtM8J
f2Xo348DWpUmhCsvF5egexzKLPXU/brqTwz0T99rtXApr4R8rpv0DSdOQ5hxDcYz
K2XPFMykBNZ8+BWr17UiGA8EjXgsTpYZY8/0D3nDJkcURaDYYaqan3E0goT891Jx
mGslp7wuBLYw41uBEPUbQtj//ItLspnGjN6cydUEbtnx8tPRLiDhRkq0ZIOxVoC4
dTJHNO7STQShTm/RibLNcKXMulK3uFL5W4we7QnHDlxrB/sAEQEAAYkDbAQYAQgA
IBYhBJG7BpmILvOdRmVLs/+Yo42oCDTaBQJaQ3z2AhsCAUAJEP+Yo42oCDTawHQg
BBkBCAAdFiEE671DHjGUbTApe+7dgX1r3ESrGywFAlpDfPYACgkQgX1r3ESrGyxo
6wf/TCXeoMv6bfKgdMWgB7mIVAh/S7binvEQiL99oIkVQSyPepFSaL3+zFIltEFK
vxos8iiuAPtn77anCP2sKZlM8/kOe6LHFrMEemCHPA0FkZyMQdhU+Q+6YiVng/gU
9MAxfzcvvQr47ng+tpfz4hoeLjmkfAI4bJVscWJClLvtJL0i0a2QReKqRh+yevhl
tfXLQ7bmokMSb2p0gTJLy5Y2O7XrU+8tgde81ycmE6gEZnN/GZ4tDmySBkDZMg7o
ePS5Lj+WlqnZaYfXMA+Qit0r/YARknjEqtF0vj1mTkpVwltu8m9Bwh25+br4XbSD
mEmKzTy7JwcC8E3HMUmevqkVze5iEAC7GtJ4XyaCm5K2u01NSt56b9i41hD3vrMR
B+87jRU9PaKEsXS7txr/g7AI+/oPUwd628vZwTYFiUlsiaEJzBDhTrE5gAKQjZbE
466BdXkWJ10OQv9hqKp8Hm+lDOuf5aOmdfqXBXKN4IXyJrdIBR3Eh5dAEVpF8YOj
0vt2LgDl8unUHr1F6F6kuTEtTEULDvURRlCMX/7Xnr1mn/6js7t0DZn0QvXjG5aH
tZ5GHV7delHxKezrxDKh2wros75IcbvBn94GJQisc/TKfQq4ikih2RXmRZu64x2A
P60Akg991eWqqoVPrp4CoPLkFqUjlNCAF4rFGPFbred46X3r7AvxWASg2dP7WbQM
0KLgo2r7jXpzntoW2oKLnMF59CNxALR9yPeOmrbyOGlP/PB3rvcqpWts75QXlefH
FE23Aeqlzpvq1+Jn6kmti1pR5w/3qva/2gPAqW5o8m0aNrfEcQtR7xFPcLHYPDJu
am/d7fZ5DJ1SfmsyfseyXWkJXD02dWZfMpFEuelSoBy9bLvSAcc2sIK82j3IzAjY
O6m0baQaMtQX749vj6G13sgolxOC9+wgZaiqH428MGQb8k0yqZDEPP9qKWa0FCFM
5i+5Swrmx6Pmw+mpfQjzc+7Sk/9DwSRMPclu9gab04qSZk0phBZxFnDcOML/Elfd
tiOObQg5RLkBDQRaQ4hIAQgAzpARcqPamoBuFv6YSQl55f0CIwGAO1dZLQXdFIee
3GdEFE4f32OlKLzTfymjH3WMDqA5dq/9pLtw/7wbswaOTwFjwX5s8SvsRKl2Z+DM
C5pVNkmASLkl+UYPmbzfEPTbqA1YCa2VjlZGPErfsI1XDyUmHXmeoaacHzlKI3Xw
P738dMLvWj1yEpn9nJUEp6/9tdkGeAhsYOwmmNvnvSvJDkpQ28S2QHKxJluw9Qck
diuqI4v+e+WMydxXJ30ZHTVML7O6UBB5jjsWKZ+XeS+We7KzT9eiSKvNX0alMC8Q
tTYnDF1Po+lTx8YF6wwmx1eObQHDdoNaxq0JkqZSr9EG+QARAQABiQI2BBgBCAAg
FiEEkbsGmYgu851GZUuz/5ijjagINNoFAlpDiEgCGyAACgkQ/5ijjagINNoXkBAA
ufeLxPTxTEQwppKRYlcINN1WnAVHB4O35jaYAK4kGrxJiX4GADV5SJGV/AM1NIxG
mq7ggxJIDjqYbdB8cCCupU02pZEl0W8RhORtWoMZM7Uc2YoezUbLvVmH7Dp2kugK
lxEEvGResjB9gHsMwxpeuvV/UrwjwjccFdC/GvrOUEGVe52a3Wxfbh7wIVzOOJpw
FZgLbXIDty9fUavpAyZPlrxv6lcTtaGMINgJzq+P8BRq5dn9fXB+DVZFCHUlFhAD
IJlWYN0vWNyImr7NhNtKYh1viPzXMzqr7yQ/T+v34/4T5vtTfsXgpogTUvb1k/K2
h0Bg1YSRbVpE6I3b+IJu0p3oJiZI1nE9DNHn849KAvMddtRgtVCGrZHKKhnmwiXr
FgG+s4ek8w4zLkGd6wj/NWVDOHl7lEUDNTz53QxmFHLyOqHTUu9taTGLh2r5F1Db
hdij0pAKYPRgkcixpUF+MODNK1BgFspRWMgiEa8GSxaSdd/rm37TeVJBJIhx6tlI
s3HssxnRvUQ3b2sgUWrVxQ8X1QEIAyYOVXW+XwxJj3NDMSrUS79cQbz4zhcBXlYu
xzcIpFqxaNBmkp3lQH0a50XQTy18WLgGdq2c5gf+ni9t14YNpKMd9bAAGg5X+b3e
EFLP9VGUeWGBYLQmEyyjf9qYSufsiB/2YXaTV6l6GFu5Ag0EVCvL2gEQALcxX8C7
etrzp+JGYeQJE8MAy1wPh1aqADQus2AUKp/aU6+9IAd15JEJ+9/2MBcoojYn7nXf
g+Aq5MBq9yB+bfU/mY3J1/CB/HZCoLbcPAXsBgfEr+x55ktd9eyxd6Kg4MU/onyu
UR+Xgv/SNcVt4+Z1KlYnRgGRoZmgpq/nmEIKdYxOfJIv2WkABVH9J9uGW9MH0LcG
VbsjgON14Wc0nW7OvKeyluSl1gn/KjRft0Q50aliqBvCAdhfXdxJyfSiNDLn4OOw
lrPMzesxRSpdy1zVdmVayireAkU788EgxJoZo/Q8vNRwH4LUct/cNLLu1nyqZOXU
p+dmd6J69wBSQQLq0/aiaL1Ri3Hq9YE3qu5pa5suw6z+WAur3I9WPHtIg0mmBhH4
nE69Gf3qJkE/BoL6JppASzSEDlsY8KcHupJ8iLdB+2FYQ4E4Zk5FMV/rtL4QOPsv
LxYiyVp15JXHXrlj226fyy1eH0YpZY2hA3gr8xow+X76G1fjp/INKeD468DYVrNi
l4DUH5P+8MN97kyCL52O0CAyCd9lxuh352uTG0QoCg6nOCPWiK1NiAd442r1p4Ym
4jhSfIVvxaDYCDYVmINSnSkf8fqKeinBE3dkGxpg7VJJRFVikYO3lSSJdeBYzSx4
1TRNv+xBy1feb/Sis4pNIGHBeG3Xde0rvNY1ABEBAAGJAh8EGAECAAkFAlQry9oC
GwwACgkQ/5ijjagINNpR4RAAkmB3bPqsk5aH5XkkBADlAFH0XiiuGhBSN3JLVtfY
I1dCAu7Hp4UbXWKZ/N/2Iw3vZd0lrm/n+YH0hY1DMDsaIK1kyif6RvprlYLIEYCb
nINBGp9D3aZ8f32iuLiekOk5Clzx/q16w1DHCFzWiTmgG9rTxnTzr+cT/IQ/FUdh
Wlp6hBJly0tK/OeAKal5SRoSfA1W9tL/bWnXlbn+YGJ2kEPbu/8pT9dgP7cvcnpJ
sziWs9hTkKTiMnEZ2ciAt6kgXOsxRcN+4p9QuAOymMDPNCk7wXXuC+XRK+UQJvct
tDCT4+oKfC7dc2pLAKdAH+3pC19euBDNCubJXypebRX4AvR8TB21oGAynbIs+Bsy
zXeQ3qfKzaVTDoK98Y/9hNOv/1sviot5Nrh1J/G1hLXaappM1McrMqfE4xSK/OI2
o2c87DJGJ4vrVDmleYMoKHwI6JwMXaA0VyhSmxCEUxaqKkUgGVTaGNFDDEqtUX7+
pzraW6srao+afmSlEImTQzpQaQo+nappyulGzz3mg1iX9Qs2KQMcDfO6jrMMFHvC
ULOl/B7iKKvzzookinQE5jR32Cvj0r7oEKi/iGvzWCEB45vfXtjwHcv2Jn18meNA
D7IZMJxjGw+g3JMhGjFaWyRDkDwVFWA1Shs+W40/b6iMlgP86hoRgpEaM0BQmK5M
tReJAjYEKAEIACAWIQSRuwaZiC7znUZlS7P/mKONqAg02gUCWkf4fwIdAQAKCRD/
mKONqAg02kPED/0WQeEPQWa4JAUEzq5u4QvEIBA7vwJOnS3vC7VRzj+wIj6d3x4g
TY8v9WpX7w+dwPsfqbvaEqNq50pv8mGBxc+acb2UnWfysjsWv+6Io1LY3NN8Hkmy
A8VC/OKNkOPT29nYOUClcJ8Vpdnd7cqDMF3gplyih2tSqS9eVUH9/+drf3nfKFrC
jTRPCWrqnU4Dkd3xTTfvs8o1SevuHPPbumCydSQaXJ2ag7y/Ng6MlibBegdiOlSS
GxvwBl2kCrvl0uO7/R0Q5qcZCrSRHP3D4CtWcrLodlkz3/8nwxq+dxN/99innI/8
sVL8kSHBTY/HY3ZudSCst09fDYKkWwVj9t6Ye/DGSvZ+oM9jZf8pKsFhrwaYA7pR
L0eUFzV83KeEp1bDTCNxOe+keB88mHghVY8sVY4yOEC+hdSjm0JyF20fpd8gpb0e
bPvh/dFC9ufPMujitB5UhvU+C8hkiNdv7YkI5fhDzi3LTuhLsp/1oncLgrsl6cmF
nYQj92ifBrzNCKP7Lws2qiR0irj+ERbwtHoL9DNjotqzLKnFBMjk74piRPq+hUSq
MQR0VyuXljm6eJc7GV4RJmsRjd9PzXIqr6Nyr4xz7k56e/nTUjkV42ZxUR+4C6h1
UMcdImrKt5t5GtVALY84oNwrUoOSHABo9zVZ7oimxXlYw6Lqz8h9yhYd1Q==
=pTOJ
-----END PGP PUBLIC KEY BLOCK-----